/* XPM */
static const char *ptkdb_48[] = {
/* columns rows colors chars-per-pixel */
"48 48 239 2 ",
"   c #160500",
".  c #251405",
"X  c #321501",
"o  c #3A1C01",
"O  c #361A02",
"+  c #2F0E00",
"@  c #3C240C",
"#  c #3E2502",
"$  c #32261B",
"%  c #3A2E20",
"&  c #432302",
"*  c #4C2500",
"=  c #4D2903",
"-  c #44280A",
";  c #4E2E0B",
":  c #522B02",
">  c #5D3202",
",  c #54310A",
"<  c #5C350C",
"1  c #5E380E",
"2  c #422C15",
"3  c #482F13",
"4  c #4B3217",
"5  c #57391A",
"6  c #4D300F",
"7  c #6C3B03",
"8  c #643B0C",
"9  c #673906",
"0  c #733D03",
"q  c #633C15",
"w  c #672F00",
"e  c #483828",
"r  c #543D26",
"t  c #483E35",
"y  c #5A451B",
"u  c #75430C",
"i  c #7D430C",
"p  c #7B4304",
"a  c #65421C",
"s  c #6C4615",
"d  c #724312",
"f  c #7D4611",
"g  c #7C4A15",
"h  c #734A1C",
"j  c #7D4D1C",
"k  c #71461A",
"l  c #7E531C",
"z  c #764F06",
"x  c #55422D",
"c  c #5A432C",
"v  c #5A4835",
"b  c #4E453C",
"n  c #6D4D2B",
"m  c #694622",
"M  c #724D25",
"N  c #7B5225",
"B  c #7B552C",
"V  c #76532C",
"C  c #644C35",
"Z  c #695034",
"A  c #785937",
"S  c #766325",
"D  c #594D43",
"F  c #5B5148",
"G  c #4C4845",
"H  c #675747",
"J  c #775F45",
"K  c #695D52",
"L  c #776249",
"P  c #78695A",
"I  c #6C635C",
"U  c #756C65",
"Y  c #7A7169",
"T  c #7F7770",
"R  c #81460E",
"E  c #844A0A",
"W  c #854601",
"Q  c #8B540B",
"!  c #92550E",
"~  c #965608",
"^  c #814711",
"/  c #824A12",
"(  c #824E19",
")  c #855115",
"_  c #8C5415",
"`  c #8E591A",
"'  c #86541A",
"]  c #925713",
"[  c #955A14",
"{  c #935C1B",
"}  c #995E1A",
"|  c #9A5C14",
" . c #904A03",
".. c #9B7307",
"X. c #9C621D",
"o. c #936D0F",
"O. c #A3651D",
"+. c #A8671A",
"@. c #B36D18",
"#. c #AF7609",
"$. c #8D5C26",
"%. c #855827",
"&. c #855E32",
"*. c #805F39",
"=. c #915E23",
"-. c #89612A",
";. c #996728",
":. c #84623E",
">. c #967839",
",. c #936C34",
"<. c #A46923",
"1. c #AB6D22",
"2. c #A06521",
"3. c #AE7026",
"4. c #AC722C",
"5. c #B47326",
"6. c #B97626",
"7. c #B4762A",
"8. c #B97728",
"9. c #BC7A2A",
"0. c #A97431",
"q. c #BC7E32",
"w. c #B17E3C",
"e. c #C77600",
"r. c #C17E2C",
"t. c #C07924",
"y. c #C17F30",
"u. c #886944",
"i. c #9A7448",
"p. c #836E56",
"a. c #8A735A",
"s. c #967755",
"d. c #86774B",
"f. c #A77C43",
"g. c #8A7C6E",
"h. c #837769",
"j. c #937D64",
"k. c #847E79",
"l. c #B6920C",
"z. c #B5910F",
"x. c #BD8339",
"c. c #BB9921",
"v. c #D98406",
"b. c #E89106",
"n. c #F0B800",
"m. c #E1B81D",
"M. c #C4812D",
"N. c #C9842F",
"B. c #C38233",
"V. c #CB8B3B",
"C. c #C98936",
"Z. c #D2903D",
"A. c #D2AD20",
"S. c #F5CD17",
"D. c #918054",
"F. c #AE8950",
"G. c #B7A657",
"H. c #97836D",
"J. c #8B837B",
"K. c #8A8178",
"L. c #988877",
"P. c #9C9277",
"I. c #A6927A",
"U. c #AF916D",
"Y. c #CD9044",
"T. c #CB964F",
"R. c #D39443",
"E. c #DA9C4B",
"W. c #D7994A",
"Q. c #C48E4C",
"!. c #DEA151",
"~. c #D9A35A",
"^. c #D3A748",
"/. c #E1A14F",
"(. c #E2A555",
"). c #E6AA59",
"_. c #E9AD5D",
"`. c #E8A955",
"'. c #F3B35D",
"]. c #EBB05F",
"[. c #DCAA64",
"{. c #EAAF60",
"}. c #ECB162",
"|. c #F3B664",
" X c #F7BB69",
".X c #8B8682",
"XX c #858484",
"oX c #938B83",
"OX c #9A8F83",
"+X c #918C8A",
"@X c #9A938C",
"#X c #999189",
"$X c #9B9693",
"%X c #A6998A",
"&X c #A49B93",
"*X c #A39E99",
"=X c #A99F92",
"-X c #A5A19D",
";X c #AAA39C",
":X c #B4A99A",
">X c #B1A38D",
",X c #9F9FA0",
"<X c #ABA6A1",
"1X c #ADABA9",
"2X c #B4AEAA",
"3X c #B2ABA4",
"4X c #B9B3AC",
"5X c #B6B1AB",
"6X c #BAB6B2",
"7X c #BAB6B4",
"8X c #B2AFB5",
"9X c #C3BEBA",
"0X c #C1BCB6",
"qX c #C5C1BD",
"wX c #CCC5BD",
"eX c #C7C5C5",
"rX c #C9C6C4",
"tX c #CDCCCA",
"yX c #CDCAC7",
"uX c #D3CFCB",
"iX c #D6D1CE",
"pX c #D4D3D3",
"aX c #DCDBDB",
"sX c #D9D6D3",
"dX c #CFD0D2",
"fX c #E0DAD7",
"gX c #E2E0DF",
"hX c #DDDEE2",
"jX c #DFE1E5",
"kX c #E3E3E3",
"lX c #E8E7E7",
"zX c #E7E9EB",
"xX c #EDEEF0",
"cX c #F3F3F4",
"vX c #F2F5FA",
"bX c #F7FAFF",
"nX c #FDFDFD",
"mX c #F9F8F7",
"MX c #EFF0F1",
/* pixels */
"nXnXnXnXnXnXnXnXnXnXnXnXnXnXnXnXnXnXnXnXnXnXnXnXnXnXnXnXnXnXnXnXnXnXnXnXnXnXnXnXnXnXnXnXnXnXnXnX",
"nXnXnXnXnXnXnXnXnXnXnXnXnXhX:X>XrXnXnXnXnXnXnXnXnXnXnXnXnXnXnXnXnXnXnXnXnXnXnXnXnXnXnXnXnXnXnXnX",
"nXnXnXnXnXnXnXnXnXnXnXnX8X>.l.#.z D.hXnXnXnXnXnXnXnXnXnXnXnXnXnXnXnXnXnXnXnXnXnXnXnXnXnXnXnXnXnX",
"nXnXnXnXnXnXnXnXnXnXnX7XS A.c.A.S.n.;.zXnXnXnXnXnXnXnXnXnXnXnXnXnXnXnXnXnXnXnXnXnXnXnXnXnXnXnXnX",
"nXnXnXnXnXnXnXnXnXnXbXd.z.z.l.S.n.b.e.%XnXnXnXnXnXnXnXnXnXnXnXnXnXnXnXnXnXnXnXnXnXnXnXnXnXnXnXnX",
"nXnXnXnXnXnXnXnXnXsXP.G.^.l.l.m.#.v.v.F.nXnXnXnXnXnXnXnXnXnXnXnXnXnXnXnXnXnXnXnXnXnXnXnXnXnXnXnX",
"nXnXnXnXnXnXnXnXnXh.# l s o.....Q o...>.bXnXnXnXnXnXnXnXnXnXnXnXnXnXnXnXnXnXnXnXnXnXnXnXnXnXnXnX",
"nXnXnXnXnXnXnXxX7X:Xp.Q.f.i.,.' m u.-.y gXnXnXnXnXnXnXqX*XH D $XaXnXnXnXnXnXnXnXnXnXnXnXnXnXnXnX",
"nXnXnXnXnXnXnXH.f.F.}.|.).v % C.Y.a l K nXnXnXnXnXnX1X@ 7 Q { * D gXnXnXnXnXnXnXnXnXnXnXnXnXnXnX",
"nXnXnXnXnXnXaXA >.f.{.)._.~.w.`.0.a 8 x cXnXnXnXnXaX3 X.B./.Z.5.* U nXnXnXnXnXnXnXnXnXnXnXnXnXnX",
"nXnXnXnXnXnXyXu.[. XF.T.|.'.'.'.M { ] r kXnXnXnXnXg.O.Z.!.}.R.5.;.& 1XnXnXnXnXnXnXnXnXnXnXnXnXnX",
"nXnXnXnXnXnXnXP ;.,.' 0.x.E.E.0.q C._ e cXnXnXnXhX4 1.E.}._.!.r.5.7 h.nXnXnXnXnXnXnXnXnXnXnXnXnX",
"nXnXnXnXnXnXnXaXH.I.@X2 : 8 , 8 x.V.7 K nXnXnXnX-Xu 1.W.}._.W.B.9._ 4 kXnXnXnXnXnXnXnXnXnXnXnXnX",
"nXnXnXnXnXnXnXnXnXnXnXx : ) 4.(./.<.> @XnXnXnX@X- +.q.)._._.R.C.B.5.u J.nXnXnXnXnXnXnXnXnXnXnXnX",
"nXnXnXnXnXnXnXnXnXnXsX@ _ B._.|.V.] 3 kXnXsXH 8 X.B.!._._.).R.R.B.8.6.: 1XnXnXnXnXnXnXnXnXnXnXnX",
"nXnXnXnXnXnXnXnXnXnXeX8 3.Y.}.).5.0 H nXnXH 7 C.E.)._.).).(.(.R.6.5.8.9.N ;XnXnXnXnXnXnXnXnXnXnX",
"nXnXnXnXnXnXnXnXnXnX*X> q.!._.).7.0 Y nX+X* B.!._._._._.)._.!.B.6.6.6.8.6.p h.nXnXnXnXnXnXnXnXnX",
"nXnXnXnXnXnXnXnXnXnX*X* q.!._.).9.{ k P m _ R._.).).).!.).(.B.5.6.6.6.6.8.9.p %XnXnXnXnXnXnXnXnX",
"nXnXnXnXnXnXnXnXnXnX1X, <.W.{.).V.1.} E [ q._._._._.!.V.R.Y.8.6.6.6.6.6.6.9._ n cXnXnXnXnXnXnXnX",
"nXnXnXnXnXnXnXnXnXnXyX& O.B.).].(.V.y.q.C.!._._.).).E.M.9.r.6.6.6.8.9.8.6.r.;., tXnXnXnXnXnXnXnX",
"nXnXnXnXnXnXnXnXnXnXMXC u 3.E._.'.).).).{._.!._._.R.V.9.1.8.9.6.8.6.9.7.1.r.4.> H.nXnXnXnXnXnXnX",
"nXnXnXnXnXnXnXnXnXnXnX.Xo X.B.!._._.{._._.V.R._._.W.M.<.X.9.8.8.8.8.r.X.{ M.5.s ) 3XnXnXnXnXnXnX",
"nXnXnXnXnXnXnXnXnXnXnXmXK * 2.B.R.(.)._.E.O.Y._._.).B.` _ 8.8.8.9.9.5.s { N.5., ` M kXnXnXnXnXnX",
"nXnXnXnXnXnXnXnXnXnXnXnXuXe : X.3.3.x.V.4.) 7.)._.!.9.g u 1.9.9.7.1._ , O.M.+.C *.> $XnXnXnXnXnX",
"nXnXnXnXnXnXnXnXnXnXnXnXnXkXD & u { { { { ( ' W.].(.9.d 8 { } { { _ & 1 1.r.| P J * Y nXnXnXnXnX",
"nXnXnXnXnXnXnXnXnXnXnXnXnXnXnX*Xx < 9 g ) / < 0.).(.9.d 8 X.{ { g * D n | M.! g.c O +XnXnXnXnXnX",
"nXnXnXnXnXnXnXnXnXnXnXnXnXnXnXnXnXtXr & & ; O : V.W.9.8 & 9 8 , , * 4XI w B.Q @Xe r xXnXnXnXnXnX",
"nXnXnXnXnXnXnXnXnXnXnXnXnXnXnXmXL.wX&Xu N * x T ) C.1.5 6XpXx > 7 : pX6X* 9.Q 5X@Xv nXnXnXnXnXnX",
"nXnXnXnXnXnXnXnXmXrX1X<XpXnXnXtXM q a V p.k p.nXA t.+.Z vXnX#X9 g : qXnXn +.! &XnX9XcXnXnXnXnXnX",
"nXnXnXnXnXnXcXgXJ..XY b $ #XnX=Xq ,X7XA m n P.nXH.@.| p.nXnXzXV } : OXnX-X] O.g.nXnXnXnXnXnXnXnX",
"nXnXnXnXnXzXJ.k.F k.G 2XiXqXnXa.j %.a.m A I.I kX4X5.! L.nXmXnX3X/ i C nXvXu.@.Z cXnXnXnXnXnXnXnX",
"nXnXnXnXnXkXD F t e 5 tXnXnXzXH a n Z H 7X-X.XaXU U.~ L.nXnXnXvX:.[ * 4XnXOX+.u ;XnXnXnXnXnXnXnX",
"nXnXnXnXnXnX;XY cX;X .L.nXnX9X-X7XrX2X6XuX2X#X;X$Xs.6.J nXnXnXnXa.! > 7XnX*X| [ #XnXnXnXnXnXnXnX",
"nXnXnXnXnXnXnXnXnX@X' %.oX:Xk.9XiXiXk.eXtX;XfXqXXX:.@.L nXnXnXnXL.W Z vXnXpX=./ qXnXnXnXnXnXnXnX",
"nXnXnXnXnXnXmXnX=X, - O.: > h.iXuX7X5 B C -X7Xt oXI. .H.nXnXnXnXH.w @XnXnXbXi.g hXnXnXnXnXnXnXnX",
"nXnXnXnXnXnXnXtXV * . _ u . 2XiXfXP X * K .XU M 5 <XQ L.nXnXnXnXu.9 dXnXnXnXs.l zXnXnXnXnXnXnXnX",
"nXnXnXnXnXnXkXL a ; @ ; E e eXsX2X.   $ J.XXu.1 X @X{ j.nXnXnXjXg n vXnXnXnXs.l zXnXnXnXnXnXnXnX",
"nXnXnXnXnXnX7XB &.&.&.&.&.A L a.H 4 2 v U h.j - ; x -.u.nXnXnX<X0 p.nXnXnXvX,.' jXnXnXnXnXnXnXnX",
"nXnXnXnXnXnX9XN d i R R ^ ^ f f ( $.$.%.B %.& = * 2 -.%.hXnXlXV W g.nXmXnXyX{ ) eXnXnXnXnXnXnXnX",
"nXnXnXnXnXnX0Xj R ^ ^ f f ^ ^ ^ i i i d k k & : = O ;.E *XnX&XE u &XnXmXnX&X[ ) 2XnXnXnXnXnXnXnX",
"nXnXnXnXnXnX0Xg f ^ ^ ^ ^ ^ ^ ^ ^ ^ ^ i g h & : * & <.E 5X2Xo N : #XnXnXtXr $.u ;XnXnXnXnXnXnXnX",
"nXnXnXnXnXnX0Xg / / / ^ ^ f ^ ^ ^ ^ ^ ^ g k & = = # 5 9 P J.@ 4 @ 2XnXnXP + 5 + Y nXnXnXnXnXnXnX",
"nXnXnXnXnXnXqXh j g i R R R ^ ^ ^ ^ ^ ^ g k & = & X r @ K.nXkXyXlXnXnXnXsX&XK.OXlXnXnXnXnXnXnXnX",
"nXnXnXnXnXnXnXsX9X:XOXj.u.A N j f i i i ^ d X o 4 OXkXlXnXnXnXnXnXnXnXnXnXnXnXnXnXnXnXnXnXnXnXnX",
"nXnXnXnXnXnXnXnXnXnXnXnXnXxXaXrX4X%XH.p.:.m L 4XcXnXnXnXnXnXnXnXnXnXnXnXnXnXnXnXnXnXnXnXnXnXnXnX",
"nXnXnXnXnXnXnXnXnXnXnXnXnXnXnXnXnXnXnXnXcXxXnXnXnXnXnXnXnXnXnXnXnXnXnXnXnXnXnXnXnXnXnXnXnXnXnXnX",
"nXnXnXnXnXnXnXnXnXnXnXnXnXnXnXnXnXnXnXnXnXnXnXnXnXnXnXnXnXnXnXnXnXnXnXnXnXnXnXnXnXnXnXnXnXnXnXnX",
"nXnXnXnXnXnXnXnXnXnXnXnXnXnXnXnXnXnXnXnXnXnXnXnXnXnXnXnXnXnXnXnXnXnXnXnXnXnXnXnXnXnXnXnXnXnXnXnX"
};
