/* XPM */
static const char *ptkdb_16[] = {
/* columns rows colors chars-per-pixel */
"16 16 175 2 ",
"   c #431B00",
".  c #4D2608",
"X  c #623303",
"o  c #773400",
"O  c #7A3902",
"+  c #7A3B04",
"@  c #603D15",
"#  c #7C4A0F",
"$  c #6F4310",
"%  c #6C451C",
"&  c #734512",
"*  c #7C4D16",
"=  c #594024",
"-  c #664523",
";  c #664A2C",
":  c #6C4D2A",
">  c #6B4E2E",
",  c #634A31",
"<  c #7D5A32",
"1  c #725638",
"2  c #7E6347",
"3  c #7F7163",
"4  c #844910",
"5  c #8C5C12",
"6  c #8C591C",
"7  c #985E18",
"8  c #A05D0D",
"9  c #9F6117",
"0  c #9C621C",
"q  c #B36D1B",
"w  c #815C31",
"e  c #8A5E33",
"r  c #805F3C",
"t  c #976121",
"y  c #85603B",
"u  c #966C3C",
"i  c #A26720",
"p  c #A16B29",
"a  c #A06C2D",
"s  c #AF7326",
"d  c #B87627",
"f  c #B17428",
"g  c #B6792E",
"h  c #A87536",
"j  c #A57C35",
"k  c #A77538",
"l  c #C07F2C",
"z  c #C37E2C",
"x  c #C27F2F",
"c  c #866743",
"v  c #926B46",
"b  c #9E7A4F",
"n  c #8B7256",
"m  c #997450",
"M  c #95785A",
"N  c #A17848",
"B  c #877460",
"V  c #877563",
"C  c #917861",
"Z  c #917961",
"A  c #927D67",
"S  c #987E62",
"D  c #AA8B13",
"F  c #BB8139",
"G  c #BD863D",
"H  c #CE9300",
"J  c #C3802B",
"K  c #C38332",
"L  c #C78739",
"P  c #D08C38",
"I  c #CF903E",
"U  c #A88051",
"Y  c #AB8750",
"T  c #99836B",
"R  c #9A836A",
"E  c #928476",
"W  c #9C8975",
"Q  c #9C8978",
"!  c #A38C69",
"~  c #A88A6E",
"^  c #AE9675",
"/  c #A8937D",
"(  c #AC977E",
")  c #C98C40",
"_  c #D4984A",
"`  c #D69A4B",
"'  c #DB9E4F",
"]  c #CF9955",
"[  c #E1A554",
"{  c #E5A857",
"}  c #EBAA55",
"|  c #E6AA5B",
" . c #EBAD5C",
".. c #F0B362",
"X. c #8B8680",
"o. c #9B8E80",
"O. c #9A948E",
"+. c #AC9A85",
"@. c #A39688",
"#. c #B59E86",
"$. c #B19D88",
"%. c #BAA081",
"&. c #B0A08F",
"*. c #BEA68B",
"=. c #B1A291",
"-. c #B2A394",
";. c #B9A996",
":. c #BFAB95",
">. c #B1A599",
",. c #B0A59A",
"<. c #B8A998",
"1. c #AEACAA",
"2. c #B7B6B5",
"3. c #BCBBBC",
"4. c #D9BE8F",
"5. c #C6B39D",
"6. c #C0B4A8",
"7. c #C1B6A8",
"8. c #D1C497",
"9. c #D1C1AF",
"0. c #D6CBAF",
"q. c #C8C4B7",
"w. c #D6CABB",
"e. c #D3C8BD",
"r. c #D2C8BE",
"t. c #D4CABF",
"y. c #DACBBA",
"u. c #CFCCC9",
"i. c #D8D3CF",
"p. c #DBD5CE",
"a. c #D7D3D0",
"s. c #D8D5D1",
"d. c #D9D6D3",
"f. c #DBD9D6",
"g. c #DFDDDB",
"h. c #E3DAD0",
"j. c #E5DCD2",
"k. c #E7DFD4",
"l. c #E2DEDB",
"z. c #E4E3E1",
"x. c #E5E5E5",
"c. c #E9E8E6",
"v. c #EBEBEA",
"b. c #ECEAE9",
"n. c #EAEBED",
"m. c #EEEEEE",
"M. c #EFF2F5",
"N. c #F1F1F1",
"B. c #F6F5F5",
"V. c #F4F5F6",
"C. c #F7F7F7",
"Z. c #F9F7F5",
"A. c #F7F8FA",
"S. c #FBFAF9",
"D. c #F8F9FA",
"F. c #FBFAFA",
"G. c #FBFBFB",
"H. c #FCFAF9",
"J. c #FCFBF9",
"K. c #FCFAFA",
"L. c #FCFBFA",
"P. c #FCFCFB",
"I. c #FDFCFB",
"U. c #FBFCFE",
"Y. c #FDFCFC",
"T. c #FDFDFC",
"R. c #FDFDFD",
"E. c #FEFDFD",
"W. c #FEFEFD",
"Q. c #FFFEFD",
"!. c #FEFEFE",
"~. c #FFFEFE",
"^. c #FFFEFF",
"/. c #FEFFFF",
"(. c #FFFFFF",
/* pixels */
"E.E.I.E.0.8.D.E.E.L.L.E.E.E.E.E.",
"E.I.E.q.D H 4.E.L.E.E.E.E.E.E.E.",
"E.E.p.Y j 5 ! E.m.+.&.A.E.E.E.E.",
"I.E.^ G ] t Z E.( J 9 >.E.D.E.E.",
"E.E.Z.@.6 s <.u.a ..P u M.E.E.E.",
"E.D.E.=.I F E h } | L q U N.E.E.",
"E.D.E.>.f  .g { [ K d x 8 ;.E.L.",
"E.E.E.n.< l ' _ _ 7 l 0 i w b.E.",
"E.E.E.E.x.T $ * ) & # : p , a.E.",
"E.E.z.1.g.-.- V k 7.r W N 7.U.E.",
"E.B.X.V f.Z Q 2.b h.9.M %.*.E.L.",
"I.E.s.% A 3.3 O.c j.t.$.t.:.E.L.",
"I.E.S X y 2 = ; @ k.#.e.y.5.E.L.",
"I.E.v o + O 4 .   T 1 l.n / E.D.",
"E.E.e.#.~ m e > o.i.v.D.s.c.E.E.",
"E.E.E.E.E.E.B.Z.E.E.E.E.E.E.E.E."
};
