/* XPM */
static const char *ptkdb_256[] = {
/* columns rows colors chars-per-pixel */
"256 256 256 2 ",
"   c #040000",
".  c #0C0100",
"X  c #0F0802",
"o  c #130400",
"O  c #190600",
"+  c #150901",
"@  c #1B0C00",
"#  c #180E08",
"$  c #1E1002",
"%  c #1C120B",
"&  c #181214",
"*  c #210E00",
"=  c #290F00",
"-  c #241301",
";  c #2A1602",
":  c #2D1903",
">  c #23160A",
",  c #2B1B0C",
"<  c #26190C",
"1  c #331C03",
"2  c #391E02",
"3  c #321D08",
"4  c #2B1E12",
"5  c #251B13",
"6  c #301F11",
"7  c #3C2204",
"8  c #3C240A",
"9  c #352209",
"0  c #2D2218",
"q  c #352719",
"w  c #382A19",
"e  c #372C23",
"r  c #3D3229",
"t  c #352E2A",
"y  c #432503",
"u  c #4A2701",
"i  c #4D2902",
"p  c #42260A",
"a  c #45290B",
"s  c #4B2C0B",
"d  c #462905",
"f  c #532C03",
"g  c #5A2D01",
"h  c #522D09",
"j  c #5C3204",
"k  c #54320C",
"l  c #5B350B",
"z  c #5B370B",
"x  c #452C13",
"c  c #4A3317",
"v  c #593816",
"b  c #4C3306",
"n  c #633604",
"m  c #653906",
"M  c #653A0B",
"N  c #6B3D0B",
"B  c #673907",
"V  c #733E0A",
"C  c #643E15",
"Z  c #6E3B0D",
"A  c #44372B",
"S  c #473C34",
"D  c #563D22",
"F  c #411E00",
"G  c #6D400D",
"H  c #644A03",
"J  c #74430D",
"K  c #7C440E",
"L  c #7A470B",
"P  c #6C4212",
"I  c #68431A",
"U  c #734512",
"Y  c #7E4611",
"T  c #7C4B13",
"R  c #764A17",
"E  c #76540F",
"W  c #4C423A",
"Q  c #544739",
"!  c #59452A",
"~  c #674926",
"^  c #74542E",
"/  c #6F5911",
"(  c #554C45",
")  c #5B524B",
"_  c #58514D",
"`  c #645C56",
"'  c #645849",
"]  c #6A625C",
"[  c #756751",
"{  c #6D6763",
"}  c #736C67",
"|  c #78726D",
" . c #7C7673",
".. c #81460F",
"X. c #854A0D",
"o. c #814711",
"O. c #834A12",
"+. c #894D14",
"@. c #855115",
"#. c #8B5516",
"$. c #8E5817",
"%. c #8B5618",
"&. c #8E5819",
"*. c #84531A",
"=. c #925917",
"-. c #935B1A",
";. c #9B5E1B",
":. c #945617",
">. c #96530D",
",. c #A45D18",
"<. c #A85905",
"1. c #9D621D",
"2. c #97601E",
"3. c #906F02",
"4. c #A2641D",
"5. c #AA671D",
"6. c #B46F14",
"7. c #885A27",
"8. c #8B5D2D",
"9. c #9B6424",
"0. c #996934",
"q. c #8C6737",
"w. c #A36521",
"e. c #A56A22",
"r. c #AB6C23",
"t. c #A76A29",
"y. c #B16E23",
"u. c #B86E21",
"i. c #AD7127",
"p. c #B57325",
"a. c #B97626",
"s. c #BC7927",
"d. c #B57529",
"f. c #B97728",
"g. c #BC7A2A",
"h. c #B6782B",
"j. c #A87439",
"k. c #B97C35",
"l. c #A76D33",
"z. c #A15E24",
"x. c #C17D2B",
"c. c #C17B27",
"v. c #C17E31",
"b. c #C67B08",
"n. c #91734E",
"m. c #AC7C48",
"M. c #827C78",
"N. c #877B67",
"B. c #B18E06",
"V. c #BD8137",
"C. c #BDA309",
"Z. c #DE8A03",
"A. c #DA8602",
"S. c #C99505",
"D. c #E69102",
"F. c #D3A807",
"G. c #EEB404",
"H. c #C4822D",
"J. c #C9842D",
"K. c #C48332",
"L. c #C98633",
"P. c #CC8A35",
"I. c #CC8C3B",
"U. c #C58739",
"Y. c #D18E38",
"T. c #D3923C",
"R. c #D9953C",
"E. c #D08E39",
"W. c #DBB12E",
"Q. c #FBC502",
"!. c #FECA03",
"~. c #F9C809",
"^. c #FFD505",
"/. c #FACF14",
"(. c #FBD52A",
"). c #FFE42F",
"_. c #B88648",
"`. c #AF8852",
"'. c #88827D",
"]. c #948669",
"[. c #AF956E",
"{. c #AE9B6C",
"}. c #C68B45",
"|. c #CD9145",
" X c #D39443",
".X c #DB9D4C",
"XX c #D89847",
"oX c #D89C54",
"OX c #CE9250",
"+X c #E29D49",
"@X c #E39E53",
"#X c #DDA254",
"$X c #DBA34D",
"%X c #E3A24C",
"&X c #E3A554",
"*X c #E6A956",
"=X c #E6AA5A",
"-X c #E9AD5D",
";X c #E6A757",
":X c #ECB05F",
">X c #F2AF5B",
",X c #D0A971",
"<X c #EAAF60",
"1X c #E5AC61",
"2X c #ECB162",
"3X c #ECB469",
"4X c #F4B767",
"5X c #F7BD74",
"6X c #EAB470",
"7X c #CA9A64",
"8X c #FFE655",
"9X c #FCC579",
"0X c #F6CD6F",
"qX c #FEE772",
"wX c #F1D457",
"eX c #8B8684",
"rX c #928D89",
"tX c #96908D",
"yX c #9B9794",
"uX c #A29D9A",
"iX c #B49E86",
"pX c #A6A19E",
"aX c #BCA688",
"sX c #ABA7A5",
"dX c #B2AEAC",
"fX c #BAB7B6",
"gX c #B5B1AE",
"hX c #D1B688",
"jX c #C1BDBB",
"kX c #E5BC86",
"lX c #FAC987",
"zX c #F4CF91",
"xX c #FDEE91",
"cX c #C8C3BB",
"vX c #ECD9A2",
"bX c #CAC7C6",
"nX c #D1CBC6",
"mX c #D3CDCA",
"MX c #D7D1CD",
"NX c #DAD6D3",
"BX c #DCDBDB",
"VX c #D8D5D4",
"CX c #D1CFD0",
"ZX c #E1DDDA",
"AX c #EBDDCD",
"SX c #E5E1DE",
"DX c #FBE9D0",
"FX c #E4E3E3",
"GX c #ECEBEC",
"HX c #E9E7E5",
"JX c #F4F3F4",
"KX c #FEFDFD",
"LX c #F7F7F8",
"PX c #F1EFEF",
"IX c #DFDFE0",
"UX c #BEBEC1",
/* pixels */
"KXKXKXKXKXKXKXKXKXKXKXKXKXKXKXKXKXKXKXKXKXKXKXKXKXKXKXKXKXKXKXKXKXKXKXKXKXKXKXKXKXKXKXKXKXKXKXKXKXKXKXKXKXKXKXKXKXKXKXKXKXKXKXKXKXKXKXKXKXKXKXKXKXKXKXKXKXKXKXKXKXKXKXKXKXKXKXKXKXKXKXKXKXKXKXKXKXKXKXKXKXKXKXKXKXKXKXKXKXKXKXKXKXKXKXKXKXKXKXKXKXKXKXKXKXKXKXKXKXKXKXKXKXKXKXKXKXKXKXKXKXKXKXKXKXKXKXKXKXKXKXKXKXKXKXKXKXKXKXKXKXKXKXKXKXKXKXKXKXKXKXKXKXKXKXKXKXKXKXKXKXKXKXKXKXKXKXKXKXKXKXKXKXKXKXKXKXKXKXKXKXKXKXKXKXKXKXKXKXKXKXKXKXKXKXKXKXKXKXKXKXKXKXKXKXKXKXKXKXKXKXKXKXKXKXKXKXKXKXKXKXKXKXKXKXKXKXKXKXKXKXKXKXKXKXKX",
"KXKXKXKXKXKXKXKXKXKXKXKXKXKXKXKXKXKXKXKXKXKXKXKXKXKXKXKXKXKXKXKXKXKXKXKXKXKXKXKXKXKXKXKXKXKXKXKXKXKXKXKXKXKXKXKXKXKXKXKXKXKXKXKXKXKXKXKXKXKXKXKXKXKXKXKXKXKXKXKXKXKXKXKXKXKXKXKXKXKXKXKXKXKXKXKXKXKXKXKXKXKXKXKXKXKXKXKXKXKXKXKXKXKXKXKXKXKXKXKXKXKXKXKXKXKXKXKXKXKXKXKXKXKXKXKXKXKXKXKXKXKXKXKXKXKXKXKXKXKXKXKXKXKXKXKXKXKXKXKXKXKXKXKXKXKXKXKXKXKXKXKXKXKXKXKXKXKXKXKXKXKXKXKXKXKXKXKXKXKXKXKXKXKXKXKXKXKXKXKXKXKXKXKXKXKXKXKXKXKXKXKXKXKXKXKXKXKXKXKXKXKXKXKXKXKXKXKXKXKXKXKXKXKXKXKXKXKXKXKXKXKXKXKXKXKXKXKXKXKXKXKXKXKXKXKX",
"KXKXKXKXKXKXKXKXKXKXKXKXKXKXKXKXKXKXKXKXKXKXKXKXKXKXKXKXKXKXKXKXKXKXKXKXKXKXKXKXKXKXKXKXKXKXKXKXKXKXKXKXKXKXKXKXKXKXKXKXKXKXKXKXKXKXKXKXKXKXKXKXKXKXKXKXKXKXKXKXKXKXKXKXKXKXKXKXKXKXKXKXKXKXKXKXKXKXKXKXKXKXKXKXKXKXKXKXKXKXKXKXKXKXKXKXKXKXKXKXKXKXKXKXKXKXKXKXKXKXKXKXKXKXKXKXKXKXKXKXKXKXKXKXKXKXKXKXKXKXKXKXKXKXKXKXKXKXKXKXKXKXKXKXKXKXKXKXKXKXKXKXKXKXKXKXKXKXKXKXKXKXKXKXKXKXKXKXKXKXKXKXKXKXKXKXKXKXKXKXKXKXKXKXKXKXKXKXKXKXKXKXKXKXKXKXKXKXKXKXKXKXKXKXKXKXKXKXKXKXKXKXKXKXKXKXKXKXKXKXKXKXKXKXKXKXKXKXKXKXKXKXKXKXKXKX",
"KXKXKXKXKXKXKXKXKXKXKXKXKXKXKXKXKXKXKXKXKXKXKXKXKXKXKXKXKXKXKXKXKXKXKXKXKXKXKXKXKXKXKXKXKXKXKXKXKXKXKXKXKXKXKXKXKXKXKXKXKXKXKXKXKXKXKXKXKXKXKXKXKXKXKXKXKXKXKXKXKXKXKXKXKXKXKXKXKXKXKXKXKXKXKXKXKXKXKXKXKXKXKXKXKXKXKXKXKXKXKXKXKXKXKXKXKXKXKXKXKXKXKXKXKXKXKXKXKXKXKXKXKXKXKXKXKXKXKXKXKXKXKXKXKXKXKXKXKXKXKXKXKXKXKXKXKXKXKXKXKXKXKXKXKXKXKXKXKXKXKXKXKXKXKXKXKXKXKXKXKXKXKXKXKXKXKXKXKXKXKXKXKXKXKXKXKXKXKXKXKXKXKXKXKXKXKXKXKXKXKXKXKXKXKXKXKXKXKXKXKXKXKXKXKXKXKXKXKXKXKXKXKXKXKXKXKXKXKXKXKXKXKXKXKXKXKXKXKXKXKXKXKXKXKXKX",
"KXKXKXKXKXKXKXKXKXKXKXKXKXKXKXKXKXKXKXKXKXKXKXKXKXKXKXKXKXKXKXKXKXKXKXKXKXKXKXKXKXKXKXKXKXKXKXKXKXKXKXKXKXKXKXKXKXKXKXKXKXKXKXKXKXKXKXKXKXKXKXKXKXKXKXKXKXKXKXKXKXKXKXKXKXKXKXKXKXKXKXKXKXKXKXKXKXKXKXKXKXKXKXKXKXKXKXKXKXKXKXKXKXKXKXKXKXKXKXKXKXKXKXKXKXKXKXKXKXKXKXKXKXKXKXKXKXKXKXKXKXKXKXKXKXKXKXKXKXKXKXKXKXKXKXKXKXKXKXKXKXKXKXKXKXKXKXKXKXKXKXKXKXKXKXKXKXKXKXKXKXKXKXKXKXKXKXKXKXKXKXKXKXKXKXKXKXKXKXKXKXKXKXKXKXKXKXKXKXKXKXKXKXKXKXKXKXKXKXKXKXKXKXKXKXKXKXKXKXKXKXKXKXKXKXKXKXKXKXKXKXKXKXKXKXKXKXKXKXKXKXKXKXKXKXKX",
"KXKXKXKXKXKXKXKXKXKXKXKXKXKXKXKXKXKXKXKXKXKXKXKXKXKXKXKXKXKXKXKXKXKXKXKXKXKXKXKXKXKXKXKXKXKXKXKXKXKXKXKXKXKXKXKXKXKXKXKXKXKXKXKXKXKXKXKXKXKXKXKXKXKXKXKXKXKXKXKXKXKXKXKXKXKXKXKXKXKXKXKXKXKXKXKXKXKXKXKXKXKXKXKXKXKXKXKXKXKXKXKXKXKXKXKXKXKXKXKXKXKXKXKXKXKXKXKXKXKXKXKXKXKXKXKXKXKXKXKXKXKXKXKXKXKXKXKXKXKXKXKXKXKXKXKXKXKXKXKXKXKXKXKXKXKXKXKXKXKXKXKXKXKXKXKXKXKXKXKXKXKXKXKXKXKXKXKXKXKXKXKXKXKXKXKXKXKXKXKXKXKXKXKXKXKXKXKXKXKXKXKXKXKXKXKXKXKXKXKXKXKXKXKXKXKXKXKXKXKXKXKXKXKXKXKXKXKXKXKXKXKXKXKXKXKXKXKXKXKXKXKXKXKXKXKX",
"KXKXKXKXKXKXKXKXKXKXKXKXKXKXKXKXKXKXKXKXKXKXKXKXKXKXKXKXKXKXKXKXKXKXKXKXKXKXKXKXKXKXKXKXKXKXKXKXKXKXKXKXKXKXKXKXKXKXKXKXKXKXKXKXKXKXKXKXKXKXKXKXKXKXKXKXKXKXKXKXKXKXKXKXKXKXKXKXKXKXKXKXKXKXKXKXKXKXKXKXKXKXKXKXKXKXKXKXKXKXKXKXKXKXKXKXKXKXKXKXKXKXKXKXKXKXKXKXKXKXKXKXKXKXKXKXKXKXKXKXKXKXKXKXKXKXKXKXKXKXKXKXKXKXKXKXKXKXKXKXKXKXKXKXKXKXKXKXKXKXKXKXKXKXKXKXKXKXKXKXKXKXKXKXKXKXKXKXKXKXKXKXKXKXKXKXKXKXKXKXKXKXKXKXKXKXKXKXKXKXKXKXKXKXKXKXKXKXKXKXKXKXKXKXKXKXKXKXKXKXKXKXKXKXKXKXKXKXKXKXKXKXKXKXKXKXKXKXKXKXKXKXKXKXKXKX",
"KXKXKXKXKXKXKXKXKXKXKXKXKXKXKXKXKXKXKXKXKXKXKXKXKXKXKXKXKXKXKXKXKXKXKXKXKXKXKXKXKXKXKXKXKXKXKXKXKXKXKXKXKXKXKXKXKXKXKXKXKXKXKXKXKXKXKXKXKXKXKXKXKXKXKXKXKXKXKXKXKXKXKXKXKXKXKXKXKXKXKXKXKXKXKXKXKXKXKXKXKXKXKXKXKXKXKXKXKXKXKXKXKXKXKXKXKXKXKXKXKXKXKXKXKXKXKXKXKXKXKXKXKXKXKXKXKXKXKXKXKXKXKXKXKXKXKXKXKXKXKXKXKXKXKXKXKXKXKXKXKXKXKXKXKXKXKXKXKXKXKXKXKXKXKXKXKXKXKXKXKXKXKXKXKXKXKXKXKXKXKXKXKXKXKXKXKXKXKXKXKXKXKXKXKXKXKXKXKXKXKXKXKXKXKXKXKXKXKXKXKXKXKXKXKXKXKXKXKXKXKXKXKXKXKXKXKXKXKXKXKXKXKXKXKXKXKXKXKXKXKXKXKXKXKXKX",
"KXKXKXKXKXKXKXKXKXKXKXKXKXKXKXKXKXKXKXKXKXKXKXKXKXKXKXKXKXKXKXKXKXKXKXKXKXKXKXKXKXKXKXKXKXKXKXKXKXKXKXKXKXKXKXKXKXKXKXKXKXKXKXKXKXKXKXKXKXKXKXKXKXKXKXCXyX} ) W S W ) | dXZXGXKXKXKXKXKXKXKXKXKXKXKXKXKXKXKXKXKXKXKXKXKXKXKXKXKXKXKXKXKXKXKXKXKXKXKXKXKXKXKXKXKXKXKXKXKXKXKXKXKXKXKXKXKXKXKXKXKXKXKXKXKXKXKXKXKXKXKXKXKXKXKXKXKXKXKXKXKXKXKXKXKXKXKXKXKXKXKXKXKXKXKXKXKXKXKXKXKXKXKXKXKXKXKXKXKXKXKXKXKXKXKXKXKXKXKXKXKXKXKXKXKXKXKXKXKXKXKXKXKXKXKXKXKXKXKXKXKXKXKXKXKXKXKXKXKXKXKXKXKXKXKXKXKXKXKXKXKXKXKXKXKXKXKXKXKXKXKXKXKX",
"KXKXKXKXKXKXKXKXKXKXKXKXKXKXKXKXKXKXKXKXKXKXKXKXKXKXKXKXKXKXKXKXKXKXKXKXKXKXKXKXKXKXKXKXKXKXKXKXKXKXKXKXKXKXKXKXKXKXKXKXKXKXKXKXKXKXKXKXKXKXKXKXJXyXS * .   . o + + o o + , 0 W '.VXKXKXKXKXKXKXKXKXKXKXKXKXKXKXKXKXKXKXKXKXKXKXKXKXKXKXKXKXKXKXKXKXKXKXKXKXKXKXKXKXKXKXKXKXKXKXKXKXKXKXKXKXKXKXKXKXKXKXKXKXKXKXKXKXKXKXKXKXKXKXKXKXKXKXKXKXKXKXKXKXKXKXKXKXKXKXKXKXKXKXKXKXKXKXKXKXKXKXKXKXKXKXKXKXKXKXKXKXKXKXKXKXKXKXKXKXKXKXKXKXKXKXKXKXKXKXKXKXKXKXKXKXKXKXKXKXKXKXKXKXKXKXKXKXKXKXKXKXKXKXKXKXKXKXKXKXKXKXKXKXKXKXKXKXKXKX",
"KXKXKXKXKXKXKXKXKXKXKXKXKXKXKXKXKXKXKXKXKXKXKXKXKXKXKXKXKXKXKXKXKXKXKXKXKXKXKXKXKXKXKXKXKXKXKXKXKXKXKXKXKXKXKXKXKXKXKXKXKXKXKXKXKXKXKXKXKXKXKXfXA .   4 ) q.B.F.B.3.n f y - @ o   # | JXKXKXKXKXKXKXKXKXKXKXKXKXKXKXKXKXKXKXKXKXKXKXKXKXKXKXKXKXKXKXKXKXKXKXKXKXKXKXKXKXKXKXKXKXKXKXKXKXKXKXKXKXKXKXKXKXKXKXKXKXKXKXKXKXKXKXKXKXKXKXKXKXKXKXKXKXKXKXKXKXKXKXKXKXKXKXKXKXKXKXKXKXKXKXKXKXKXKXKXKXKXKXKXKXKXKXKXKXKXKXKXKXKXKXKXKXKXKXKXKXKXKXKXKXKXKXKXKXKXKXKXKXKXKXKXKXKXKXKXKXKXKXKXKXKXKXKXKXKXKXKXKXKXKXKXKXKXKXKXKXKXKXKXKX",
"KXKXKXKXKXKXKXKXKXKXKXKXKXKXKXKXKXKXKXKXKXKXKXKXKXKXKXKXKXKXKXKXKXKXKXKXKXKXKXKXKXKXKXKXKXKXKXKXKXKXKXKXKXKXKXKXKXKXKXKXKXKXKXKXKXKXKXKXKXKXtX- O q ].wX(.^.!.A.<.<.6.S.F.F.F.B.H ; o S GXKXKXKXKXKXKXKXKXKXKXKXKXKXKXKXKXKXKXKXKXKXKXKXKXKXKXKXKXKXKXKXKXKXKXKXKXKXKXKXKXKXKXKXKXKXKXKXKXKXKXKXKXKXKXKXKXKXKXKXKXKXKXKXKXKXKXKXKXKXKXKXKXKXKXKXKXKXKXKXKXKXKXKXKXKXKXKXKXKXKXKXKXKXKXKXKXKXKXKXKXKXKXKXKXKXKXKXKXKXKXKXKXKXKXKXKXKXKXKXKXKXKXKXKXKXKXKXKXKXKXKXKXKXKXKXKXKXKXKXKXKXKXKXKXKXKXKXKXKXKXKXKXKXKXKXKXKXKXKXKXKXKXKX",
"KXKXKXKXKXKXKXKXKXKXKXKXKXKXKXKXKXKXKXKXKXKXKXKXKXKXKXKXKXKXKXKXKXKXKXKXKXKXKXKXKXKXKXKXKXKXKXKXKXKXKXKXKXKXKXKXKXKXKXKXKXKXKXKXKXKXKXKXKXrX. + ' vX).!.!.S.X.X.B.G.^.^.^.^.Q.G.F.3.9 @ Q jXJXKXKXKXKXKXKXKXKXKXKXKXKXKXKXKXKXKXKXKXKXKXKXKXKXKXKXKXKXKXKXKXKXKXKXKXKXKXKXKXKXKXKXKXKXKXKXKXKXKXKXKXKXKXKXKXKXKXKXKXKXKXKXKXKXKXKXKXKXKXKXKXKXKXKXKXKXKXKXKXKXKXKXKXKXKXKXKXKXKXKXKXKXKXKXKXKXKXKXKXKXKXKXKXKXKXKXKXKXKXKXKXKXKXKXKXKXKXKXKXKXKXKXKXKXKXKXKXKXKXKXKXKXKXKXKXKXKXKXKXKXKXKXKXKXKXKXKXKXKXKXKXKXKXKXKXKXKXKXKXKXKX",
"KXKXKXKXKXKXKXKXKXKXKXKXKXKXKXKXKXKXKXKXKXKXKXKXKXKXKXKXKXKXKXKXKXKXKXKXKXKXKXKXKXKXKXKXKXKXKXKXKXKXKXKXKXKXKXKXKXKXKXKXKXKXKXKXKXKXKXCX] - @ N.xX/.Q.^.6.O z G.^.!././.F.E 1 . o @ @ @ o O A uXKXKXKXKXKXKXKXKXKXKXKXKXKXKXKXKXKXKXKXKXKXKXKXKXKXKXKXKXKXKXKXKXKXKXKXKXKXKXKXKXKXKXKXKXKXKXKXKXKXKXKXKXKXKXKXKXKXKXKXKXKXKXKXKXKXKXKXKXKXKXKXKXKXKXKXKXKXKXKXKXKXKXKXKXKXKXKXKXKXKXKXKXKXKXKXKXKXKXKXKXKXKXKXKXKXKXKXKXKXKXKXKXKXKXKXKXKXKXKXKXKXKXKXKXKXKXKXKXKXKXKXKXKXKXKXKXKXKXKXKXKXKXKXKXKXKXKXKXKXKXKXKXKXKXKXKXKXKXKXKX",
"KXKXKXKXKXKXKXKXKXKXKXKXKXKXKXKXKXKXKXKXKXKXKXKXKXKXKXKXKXKXKXKXKXKXKXKXKXKXKXKXKXKXKXKXKXKXKXKXKXKXKXKXKXKXKXKXKXKXKXKXKXKXKXKXKXJX .+ @ @ [ xX~.Q.^.6.O H ~./.wX8X(.H . + b E 3.B.B.3.H : o o Q VXKXKXKXKXKXKXKXKXKXKXKXKXKXKXKXKXKXKXKXKXKXKXKXKXKXKXKXKXKXKXKXKXKXKXKXKXKXKXKXKXKXKXKXKXKXKXKXKXKXKXKXKXKXKXKXKXKXKXKXKXKXKXKXKXKXKXKXKXKXKXKXKXKXKXKXKXKXKXKXKXKXKXKXKXKXKXKXKXKXKXKXKXKXKXKXKXKXKXKXKXKXKXKXKXKXKXKXKXKXKXKXKXKXKXKXKXKXKXKXKXKXKXKXKXKXKXKXKXKXKXKXKXKXKXKXKXKXKXKXKXKXKXKXKXKXKXKXKXKXKXKXKXKXKXKXKXKXKX",
"KXKXKXKXKXKXKXKXKXKXKXKXKXKXKXKXKXKXKXKXKXKXKXKXKXKXKXKXKXKXKXKXKXKXKXKXKXKXKXKXKXKXKXKXKXKXKXKXKXKXKXKXKXKXKXKXKXKXKXKXKXKXKXKXFXQ o - + A xX(.Q.^.S.o H ).qXxXqXF.7 . H F.!.^././.^.^.^.F.3., o , gXKXKXKXKXKXKXKXKXKXKXKXKXKXKXKXKXKXKXKXKXKXKXKXKXKXKXKXKXKXKXKXKXKXKXKXKXKXKXKXKXKXKXKXKXKXKXKXKXKXKXKXKXKXKXKXKXKXKXKXKXKXKXKXKXKXKXKXKXKXKXKXKXKXKXKXKXKXKXKXKXKXKXKXKXKXKXKXKXKXKXKXKXKXKXKXKXKXKXKXKXKXKXKXKXKXKXKXKXKXKXKXKXKXKXKXKXKXKXKXKXKXKXKXKXKXKXKXKXKXKXKXKXKXKXKXKXKXKXKXKXKXKXKXKXKXKXKXKXKXKXKXKXKXKXKXKXKX",
"KXKXKXKXKXKXKXKXKXKXKXKXKXKXKXKXKXKXKXKXKXKXKXKXKXKXKXKXKXKXKXKXKXKXKXKXKXKXKXKXKXKXKXKXKXKXKXKXKXKXKXKXKXKXKXKXKXKXKXKXKXKXKXIXt o c 9 @ hX8XQ.^.Q.1 6 (.qXxX).B.* : B.!.(.8XwX(.(.~.~.Q.!.^.F.b o @ pXKXKXKXKXKXKXKXKXKXKXKXKXKXKXKXKXKXKXKXKXKXKXKXKXKXKXKXKXKXKXKXKXKXKXKXKXKXKXKXKXKXKXKXKXKXKXKXKXKXKXKXKXKXKXKXKXKXKXKXKXKXKXKXKXKXKXKXKXKXKXKXKXKXKXKXKXKXKXKXKXKXKXKXKXKXKXKXKXKXKXKXKXKXKXKXKXKXKXKXKXKXKXKXKXKXKXKXKXKXKXKXKXKXKXKXKXKXKXKXKXKXKXKXKXKXKXKXKXKXKXKXKXKXKXKXKXKXKXKXKXKXKXKXKXKXKXKXKXKXKXKXKXKXKXKXKX",
"KXKXKXKXKXKXKXKXKXKXKXKXKXKXKXKXKXKXKXKXKXKXKXKXKXKXKXKXKXKXKXKXKXKXKXKXKXKXKXKXKXKXKXKXKXKXKXKXKXKXKXKXKXKXKXKXKXKXKXKXKXKXGXS   S rX+ [ xXQ.!.^.X.+ $X).qX(.S.@ 9 F./.qXqX(.!.Q.Q.Q.!.Q.Q.Q.!.~.H + @ gXKXKXKXKXKXKXKXKXKXKXKXKXKXKXKXKXKXKXKXKXKXKXKXKXKXKXKXKXKXKXKXKXKXKXKXKXKXKXKXKXKXKXKXKXKXKXKXKXKXKXKXKXKXKXKXKXKXKXKXKXKXKXKXKXKXKXKXKXKXKXKXKXKXKXKXKXKXKXKXKXKXKXKXKXKXKXKXKXKXKXKXKXKXKXKXKXKXKXKXKXKXKXKXKXKXKXKXKXKXKXKXKXKXKXKXKXKXKXKXKXKXKXKXKXKXKXKXKXKXKXKXKXKXKXKXKXKXKXKXKXKXKXKXKXKXKXKXKXKXKXKXKXKXKXKX",
"KXKXKXKXKXKXKXKXKXKXKXKXKXKXKXKXKXKXKXKXKXKXKXKXKXKXKXKXKXKXKXKXKXKXKXKXKXKXKXKXKXKXKXKXKXKXKXKXKXKXKXKXKXKXKXKXKXKXKXKXKXKX] . q vXQ + vX(.Q.^.F.O ^ 8XQ./.G.7 : F./.qXqX~.Q.Q.!.!.!.!.!.!.Q.Q.!.^.H o 0 BXKXKXKXKXKXKXKXKXKXKXKXKXKXKXKXKXKXKXKXKXKXKXKXKXKXKXKXKXKXKXKXKXKXKXKXKXKXKXKXKXKXKXKXKXKXKXKXKXKXKXKXKXKXKXKXKXKXKXKXKXKXKXKXKXKXKXKXKXKXKXKXKXKXKXKXKXKXKXKXKXKXKXKXKXKXKXKXKXKXKXKXKXKXKXKXKXKXKXKXKXKXKXKXKXKXKXKXKXKXKXKXKXKXKXKXKXKXKXKXKXKXKXKXKXKXKXKXKXKXKXKXKXKXKXKXKXKXKXKXKXKXKXKXKXKXKXKXKXKXKXKXKXKXKX",
"KXKXKXKXKXKXKXKXKXKXKXKXKXKXKXKXKXKXKXKXKXKXKXKXKXKXKXKXKXKXKXKXKXKXKXKXKXKXKXKXKXKXKXKXKXKXKXKXKXKXKXKXKXKXKXKXKXKXKXKXKXdX@ - cX,X  [ qXQ.~.^.H % wX/.Q.!.E . S./.xX8X!.!.!.!.!.!.!.!.!.!.!.!.!.!.G.b . ) KXKXKXKXKXKXKXKXKXKXKXKXKXKXKXKXKXKXKXKXKXKXKXKXKXKXKXKXKXKXKXKXKXKXKXKXKXKXKXKXKXKXKXKXKXKXKXKXKXKXKXKXKXKXKXKXKXKXKXKXKXKXKXKXKXKXKXKXKXKXKXKXKXKXKXKXKXKXKXKXKXKXKXKXKXKXKXKXKXKXKXKXKXKXKXKXKXKXKXKXKXKXKXKXKXKXKXKXKXKXKXKXKXKXKXKXKXKXKXKXKXKXKXKXKXKXKXKXKXKXKXKXKXKXKXKXKXKXKXKXKXKXKXKXKXKXKXKXKXKXKXKXKXKX",
"KXKXKXKXKXKXKXKXKXKXKXKXKXKXKXKXKXKXKXKXKXKXKXKXKXKXKXKXKXKXKXKXKXKXKXKXKXKXKXKXKXKXKXKXKXKXKXKXKXKXKXKXKXKXKXKXKXKXKXKXPXr o | xXE   hX).Q.^.G.+ n.8XQ.^.F.. E !.wXqX!.Q.!.!.!.!.!.!.!.!.!.!.Q.G.D.D.S.: + dXKXKXKXKXKXKXKXKXKXKXKXKXKXKXKXKXKXKXKXKXKXKXKXKXKXKXKXKXKXKXKXKXKXKXKXKXKXKXKXKXKXKXKXKXKXKXKXKXKXKXKXKXKXKXKXKXKXKXKXKXKXKXKXKXKXKXKXKXKXKXKXKXKXKXKXKXKXKXKXKXKXKXKXKXKXKXKXKXKXKXKXKXKXKXKXKXKXKXKXKXKXKXKXKXKXKXKXKXKXKXKXKXKXKXKXKXKXKXKXKXKXKXKXKXKXKXKXKXKXKXKXKXKXKXKXKXKXKXKXKXKXKXKXKXKXKXKXKXKXKXKXKXKX",
"KXKXKXKXKXKXKXKXKXKXKXKXKXKXKXKXKXKXKXKXKXKXKXKXKXKXKXKXKXKXKXKXKXKXKXKXKXKXKXKXKXKXKXKXKXKXKXKXKXKXKXKXKXKXKXKXKXKXKXKXyX. q vX(.d r xX!.!.^.3.@ 0X/.!.^.H - G.(.xX/.!.!.!.!.!.!.!.!.!.~.G.D.Z.Z.A.A.D.3.o S KXKXKXKXKXKXKXKXKXKXKXKXKXKXKXKXKXKXKXKXKXKXKXKXKXKXKXKXKXKXKXKXKXKXKXKXKXKXKXKXKXKXKXKXKXKXKXKXKXKXKXKXKXKXKXKXKXKXKXKXKXKXKXKXKXKXKXKXKXKXKXKXKXKXKXKXKXKXKXKXKXKXKXKXKXKXKXKXKXKXKXKXKXKXKXKXKXKXKXKXKXKXKXKXKXKXKXKXKXKXKXKXKXKXKXKXKXKXKXKXKXKXKXKXKXKXKXKXKXKXKXKXKXKXKXKXKXKXKXKXKXKXKXKXKXKXKXKXKXKXKXKXKX",
"KXKXKXKXKXKXKXKXKXKXKXKXKXKXKXKXKXKXKXKXKXKXKXKXKXKXKXKXKXKXKXKXKXKXKXKXKXKXKXKXKXKXKXKXKXKXKXKXKXKXKXKXKXKXKXKXKXKXKXKXS . ].qXF.@ N.8XQ.!.!.y ~ 8XQ.^.F.o 3.!.qX8X!.!.!.!.!.!.!.!.!.G.Z.A.A.Z.Z.Z.Z.Z.A.1 o fXKXKXKXKXKXKXKXKXKXKXKXKXKXKXKXKXKXKXKXKXKXKXKXKXKXKXKXKXKXKXKXKXKXKXKXKXKXKXKXKXKXKXKXKXKXKXKXKXKXKXKXKXKXKXKXKXKXKXKXKXKXKXKXKXKXKXKXKXKXKXKXKXKXKXKXKXKXKXKXKXKXKXKXKXKXKXKXKXKXKXKXKXKXKXKXKXKXKXKXKXKXKXKXKXKXKXKXKXKXKXKXKXKXKXKXKXKXKXKXKXKXKXKXKXKXKXKXKXKXKXKXKXKXKXKXKXKXKXKXKXKXKXKXKXKXKXKXKXKXKXKXKX",
"KXKXKXKXKXKXKXKXKXKXKXKXKXKXKXKXKXKXKXKXKXKXKXKXKXKXKXKXKXKXKXKXKXKXKXKXKXKXKXKXKXKXKXKXKXKXKXKXKXKXKXKXKXKXKXKXKXKXKXjX+ < vX(.B.+ hX/.Q.^.F.o `.).Q.^.3.$ G.~.qX/.Q.!.!.!.!.!.Q.!.G.A.Z.Z.Z.Z.Z.Z.Z.A.D.E . ` KXKXKXKXKXKXKXKXKXKXKXKXKXKXKXKXKXKXKXKXKXKXKXKXKXKXKXKXKXKXKXKXKXKXKXKXKXKXKXKXKXKXKXKXKXKXKXKXKXKXKXKXKXKXKXKXKXKXKXKXKXKXKXKXKXKXKXKXKXKXKXKXKXKXKXKXKXKXKXKXKXKXKXKXKXKXKXKXKXKXKXKXKXKXKXKXKXKXKXKXKXKXKXKXKXKXKXKXKXKXKXKXKXKXKXKXKXKXKXKXKXKXKXKXKXKXKXKXKXKXKXKXKXKXKXKXKXKXKXKXKXKXKXKXKXKXKXKXKXKXKXKX",
"KXKXKXKXKXKXKXKXKXKXKXKXKXKXKXKXKXKXKXKXKXKXKXKXKXKXKXKXKXKXKXKXKXKXKXKXKXKXKXKXKXKXKXKXKXKXKXKXKXKXKXKXKXKXKXKXKXKXKX .  ) qX!.H 0 qX!.!.^.3.% wX!.!.!.7 H !.(.8XQ.~.Q.Q.Q.!.Q.!.G.A.Z.Z.Z.Z.Z.Z.Z.Z.Z.D.B.@ 0 GXKXKXKXKXKXKXKXKXKXKXKXKXKXKXKXKXKXKXKXKXKXKXKXKXKXKXKXKXKXKXKXKXKXKXKXKXKXKXKXKXKXKXKXKXKXKXKXKXKXKXKXKXKXKXKXKXKXKXKXKXKXKXKXKXKXKXKXKXKXKXKXKXKXKXKXKXKXKXKXKXKXKXKXKXKXKXKXKXKXKXKXKXKXKXKXKXKXKXKXKXKXKXKXKXKXKXKXKXKXKXKXKXKXKXKXKXKXKXKXKXKXKXKXKXKXKXKXKXKXKXKXKXKXKXKXKXKXKXKXKXKXKXKXKXKXKXKXKXKXKXKX",
"KXKXKXKXKXKXKXKXKXKXKXKXKXKXKXKXKXKXKXKXKXKXKXKXKXKXKXKXKXKXKXKXKXKXKXKXKXKXKXKXKXKXKXKXKXKXKXKXKXKXKXKXKXKXKXKXKXKXKXS . {.8X!.1 _ 8XQ.~.^.d ! ).Q.^.F.o B.!.(.(.^.^.^.^.^.!.!.Q.Z.Z.Z.Z.Z.Z.Z.Z.Z.Z.Z.Z.F.d o fXKXKXKXKXKXKXKXKXKXKXKXKXKXKXKXKXKXKXKXKXKXKXKXKXKXKXKXKXKXKXKXKXKXKXKXKXKXKXKXKXKXKXKXKXKXKXKXKXKXKXKXKXKXKXKXKXKXKXKXKXKXKXKXKXKXKXKXKXKXKXKXKXKXKXKXKXKXKXKXKXKXKXKXKXKXKXKXKXKXKXKXKXKXKXKXKXKXKXKXKXKXKXKXKXKXKXKXKXKXKXKXKXKXKXKXKXKXKXKXKXKXKXKXKXKXKXKXKXKXKXKXKXKXKXKXKXKXKXKXKXKXKXKXKXKXKXKXKXKXKXKX",
"KXKXKXKXKXKXKXKXKXKXKXKXKXKXKXKXKXKXKXKXKXKXKXKXKXKXKXKXKXKXKXKXKXKXKXKXKXKXKXKXKXKXKXKXKXKXKXKXKXKXKXKXKXKXKXKXKXKXBX> , vX/.~.+ [.).^.^.Q.- C.^.!.^.3.@ G.Q.(./.3./ / 3.B.G.!.D.Z.Z.Z.Z.Z.Z.Z.Z.Z.Z.Z.A.G./   '.KXKXKXKXKXKXKXKXKXKXKXKXKXKXKXKXKXKXKXKXKXKXKXKXKXKXKXKXKXKXKXKXKXKXKXKXKXKXKXKXKXKXKXKXKXKXKXKXKXKXKXKXKXKXKXKXKXKXKXKXKXKXKXKXKXKXKXKXKXKXKXKXKXKXKXKXKXKXKXKXKXKXKXKXKXKXKXKXKXKXKXKXKXKXKXKXKXKXKXKXKXKXKXKXKXKXKXKXKXKXKXKXKXKXKXKXKXKXKXKXKXKXKXKXKXKXKXKXKXKXKXKXKXKXKXKXKXKXKXKXKXKXKXKXKXKXKXKXKXKXKX",
"KXKXKXKXKXKXKXKXKXKXKXKXKXKXKXKXKXKXKXKXKXKXKXKXKXKXKXKXKXKXKXKXKXKXKXKXKXKXKXKXKXKXKXKXKXKXKXKXKXKXKXKXKXKXKXKXKXKXsX. ( xX^.B.  ' 3.3.3./ - C.~.!.^.b b ^.Q.^.E { ,X].' r 9 E Z.Z.Z.Z.Z.Z.Z.Z.Z.Z.Z.Z.A.G.3.. ` KXKXKXKXKXKXKXKXKXKXKXKXKXKXKXKXKXKXKXKXKXKXKXKXKXKXKXKXKXKXKXKXKXKXKXKXKXKXKXKXKXKXKXKXKXKXKXKXKXKXKXKXKXKXKXKXKXKXKXKXKXKXKXKXKXKXKXKXKXKXKXKXKXKXKXKXKXKXKXKXKXKXKXKXKXKXKXKXKXKXKXKXKXKXKXKXKXKXKXKXKXKXKXKXKXKXKXKXKXKXKXKXKXKXKXKXKXKXKXKXKXKXKXKXKXKXKXKXKXKXKXKXKXKXKXKXKXKXKXKXKXKXKXKXKXKXKXKXKXKXKX",
"KXKXKXKXKXKXKXKXKXKXKXKXKXKXKXKXKXKXKXKXKXKXKXKXKXKXKXKXKXKXKXKXKXKXKXKXKXKXKXKXKXKXKXKXKXKXKXKXKXKXKXKXKXKXKXLXfX} 0   ^ W./ e e 0 e 4 & & # + $ : b @ H F.~.^.c 6X/.(.).(.S.: A.Z.Z.Z.Z.Z.Z.Z.Z.Z.Z.Z.A.D.C.o S KXKXKXKXKXKXKXKXKXKXKXKXKXKXKXKXKXKXKXKXKXKXKXKXKXKXKXKXKXKXKXKXKXKXKXKXKXKXKXKXKXKXKXKXKXKXKXKXKXKXKXKXKXKXKXKXKXKXKXKXKXKXKXKXKXKXKXKXKXKXKXKXKXKXKXKXKXKXKXKXKXKXKXKXKXKXKXKXKXKXKXKXKXKXKXKXKXKXKXKXKXKXKXKXKXKXKXKXKXKXKXKXKXKXKXKXKXKXKXKXKXKXKXKXKXKXKXKXKXKXKXKXKXKXKXKXKXKXKXKXKXKXKXKXKXKXKXKXKXKXKX",
"KXKXKXKXKXKXKXKXKXKXKXKXKXKXKXKXKXKXKXKXKXKXKXKXKXKXKXKXKXKXKXKXKXKXKXKXKXKXKXKXKXKXKXKXKXKXKXKXKXKXKXKXKXHXtXA +   $ W 3X0XvXxXxXxXxXxX0X1XOX`.q.Q c 9 + . 7 H Q qXG.Q.Q.G.6.: A.Z.Z.Z.Z.Z.Z.Z.Z.Z.Z.A.A.D.F.@ q GXKXKXKXKXKXKXKXKXKXKXKXKXKXKXKXKXKXKXKXKXKXKXKXKXKXKXKXKXKXKXKXKXKXKXKXKXKXKXKXKXKXKXKXKXKXKXKXKXKXKXKXKXKXKXKXKXKXKXKXKXKXKXKXKXKXKXKXKXKXKXKXKXKXKXKXKXKXKXKXKXKXKXKXKXKXKXKXKXKXKXKXKXKXKXKXKXKXKXKXKXKXKXKXKXKXKXKXKXKXKXKXKXKXKXKXKXKXKXKXKXKXKXKXKXKXKXKXKXKXKXKXKXKXKXKXKXKXKXKXKXKXKXKXKXKXKXKXKXKXKX",
"KXKXKXKXKXKXKXKXKXKXKXKXKXKXKXKXKXKXKXKXKXKXKXKXKXKXKXKXKXKXKXKXKXKXKXKXKXKXKXKXKXKXKXKXKXKXKXKXKXKXKXBX| 4 . o w [ hXxXxXxXxXxXxXxX8X/.Q.!.^.^./.(./.~.F.3.H 9 [.).Q.!.~.G.6.: Z.D.Z.Z.Z.Z.Z.Z.A.Z.Z.Z.A.Z.F.- 5 HXKXKXKXKXKXKXKXKXKXKXKXKXKXKXKXKXKXKXKXKXKXKXKXKXKXKXKXKXKXKXKXKXKXKXKXKXKXKXKXKXKXKXKXKXKXKXKXKXKXKXKXKXKXKXKXKXKXKXKXKXKXKXKXKXKXKXKXKXKXKXKXKXKXKXKXKXKXKXKXKXKXKXKXKXKXKXKXKXKXKXKXKXKXKXKXKXKXKXKXKXKXKXKXKXKXKXKXKXKXKXKXKXKXKXKXKXKXKXKXKXKXKXKXKXKXKXKXKXKXKXKXKXKXKXKXKXKXKXKXKXKXKXKXKXKXKXKXKXKXKX",
"KXKXKXKXKXKXKXKXKXKXKXKXKXKXKXKXKXKXKXKXKXKXKXKXKXKXKXKXKXKXKXKXKXKXKXKXKXKXKXKXKXKXKXKXKXKXKXKXKXKXyX<   @ Q {.xXxXxXxXxXxXxXxXxX8X/.~.~.~.Q.Q.Q.Q.!.!.^.^.^.~.(./.!.!.G.D.6.$ G <.b.D.D.D.Z.A.A.A.Z.Z.A.Z.G.1 > BXKXKXKXKXKXKXKXKXKXKXKXKXKXKXKXKXKXKXKXKXKXKXKXKXKXKXKXKXKXKXKXKXKXKXKXKXKXKXKXKXKXKXKXKXKXKXKXKXKXKXKXKXKXKXKXKXKXKXKXKXKXKXKXKXKXKXKXKXKXKXKXKXKXKXKXKXKXKXKXKXKXKXKXKXKXKXKXKXKXKXKXKXKXKXKXKXKXKXKXKXKXKXKXKXKXKXKXKXKXKXKXKXKXKXKXKXKXKXKXKXKXKXKXKXKXKXKXKXKXKXKXKXKXKXKXKXKXKXKXKXKXKXKXKXKXKXKXKXKXKX",
"KXKXKXKXKXKXKXKXKXKXKXKXKXKXKXKXKXKXKXKXKXKXKXKXKXKXKXKXKXKXKXKXKXKXKXKXKXKXKXKXKXKXKXKXKXKXKXKXKXyXo ; H B.W.W.F.S.S.F.F.W.W.(.(.8X8X8X8X8X8X).(./.~.~.~.~.Q.Q.Q.~.~.!.G.G.D.b 7 - @ 1 m >.b.D.D.D.A.A.A.Z.G.7 * VXKXKXKXKXKXKXKXKXKXKXKXKXKXKXKXKXKXKXKXKXKXKXKXKXKXKXKXKXKXKXKXKXKXKXKXKXKXKXKXKXKXKXKXKXKXKXKXKXKXKXKXKXKXKXKXKXKXKXKXKXKXKXKXKXKXKXKXKXKXKXKXKXKXKXKXKXKXKXKXKXKXKXKXKXKXKXKXKXKXKXKXKXKXKXKXKXKXKXKXKXKXKXKXKXKXKXKXKXKXKXKXKXKXKXKXKXKXKXKXKXKXKXKXKXKXKXKXKXKXKXKXKXKXKXKXKXKXKXKXKXKXKXKXKXKXKXKXKXKXKX",
"KXKXKXKXKXKXKXKXKXKXKXKXKXKXKXKXKXKXKXKXKXKXKXKXKXKXKXKXKXKXKXKXKXKXKXKXKXKXKXKXKXKXKXKXKXKXKXKXKXA @ 7 H d @ o @ @ @ - ; : 1 1 7 b H E 3.B.F.W.(.).(.(./././.^.^.^.^.^.!.!.!.~.!.G.C.E b - - 7 L <.Z.D.Z.Z.G.7 @ CXKXKXKXKXKXKXKXKXKXKXKXKXKXKXKXKXKXKXKXKXKXKXKXKXKXKXKXKXKXKXKXKXKXKXKXKXKXKXKXKXKXKXKXKXKXKXKXKXKXKXKXKXKXKXKXKXKXKXKXKXKXKXKXKXKXKXKXKXKXKXKXKXKXKXKXKXKXKXKXKXKXKXKXKXKXKXKXKXKXKXKXKXKXKXKXKXKXKXKXKXKXKXKXKXKXKXKXKXKXKXKXKXKXKXKXKXKXKXKXKXKXKXKXKXKXKXKXKXKXKXKXKXKXKXKXKXKXKXKXKXKXKXKXKXKXKXKXKXKXKX",
"KXKXKXKXKXKXKXKXKXKXKXKXKXKXKXKXKXKXKXKXKXKXKXKXKXKXKXKXKXKXKXKXKXKXKXKXKXKXKXKXKXKXKXKXKXKXKXKXKXr @ : ; : 1 2 2 - - @ @ - - @ @ * @ @ @ + + : b H E H H H / E 3.3.6.S.Z.D.G.G.G.Q.!.^.!.G.S.3.b - 1 L b.D.G.: # CXKXKXKXKXKXKXKXKXKXKXKXKXKXKXKXKXKXKXKXKXKXKXKXKXKXKXKXKXKXKXKXKXKXKXKXKXKXKXKXKXKXKXKXKXKXKXKXKXKXKXKXKXKXKXKXKXKXKXKXKXKXKXKXKXKXKXKXKXKXKXKXKXKXKXKXKXKXKXKXKXKXKXKXKXKXKXKXKXKXKXKXKXKXKXKXKXKXKXKXKXKXKXKXKXKXKXKXKXKXKXKXKXKXKXKXKXKXKXKXKXKXKXKXKXKXKXKXKXKXKXKXKXKXKXKXKXKXKXKXKXKXKXKXKXKXKXKXKXKXKX",
"KXKXKXKXKXKXKXKXKXKXKXKXKXKXKXKXKXKXKXKXKXKXKXKXKXKXKXKXKXKXKXKXKXKXKXKXKXKXKXKXKXKXKXKXKXKXKXKXKXsX@ O - 1 y f 7 ; - a M U U N 2 2 u 7 2 : - - @ . . + @ + o . . o + @ ; y j G X.<.b.D.D.G.G.^.^.Q.S./ 9 i B.9 - VXKXKXKXKXKXKXKXKXKXKXKXKXKXKXKXKXKXKXKXKXKXKXKXKXKXKXKXKXKXKXKXKXKXKXKXKXKXKXKXKXKXKXKXKXKXKXKXKXKXKXKXKXKXKXKXKXKXKXKXKXKXKXKXKXKXKXKXKXKXKXKXKXKXKXKXKXKXKXKXKXKXKXKXKXKXKXKXKXKXKXKXKXKXKXKXKXKXKXKXKXKXKXKXKXKXKXKXKXKXKXKXKXKXKXKXKXKXKXKXKXKXKXKXKXKXKXKXKXKXKXKXKXKXKXKXKXKXKXKXKXKXKXKXKXKXKXKXKXKXKX",
"KXKXKXKXKXKXKXKXKXKXKXKXKXKXKXKXKXKXKXKXKXKXKXKXKXKXKXKXKXKXKXKXKXKXKXKXKXKXKXKXKXKXKXKXKXKXKXKXKXKXmX} t > @ * ; - 9.g.e.-.=.;.J y 1 : : @ @ ; 2 8 s i y 1 1 i h 7 1 : - $ @ $ @ + : y n N i b H 3.S.~.!.3.3.7 @ ] JXKXKXKXKXKXKXKXKXKXKXKXKXKXKXKXKXKXKXKXKXKXKXKXKXKXKXKXKXKXKXKXKXKXKXKXKXKXKXKXKXKXKXKXKXKXKXKXKXKXKXKXKXKXKXKXKXKXKXKXKXKXKXKXKXKXKXKXKXKXKXKXKXKXKXKXKXKXKXKXKXKXKXKXKXKXKXKXKXKXKXKXKXKXKXKXKXKXKXKXKXKXKXKXKXKXKXKXKXKXKXKXKXKXKXKXKXKXKXKXKXKXKXKXKXKXKXKXKXKXKXKXKXKXKXKXKXKXKXKXKXKXKXKXKXKXKXKXKXKX",
"KXKXKXKXKXKXKXKXKXKXKXKXKXKXKXKXKXKXKXKXKXKXKXKXKXKXKXKXKXKXKXKXKXKXKXKXKXKXKXKXKXKXKXKXKXKXKXKXKXKXKXKXJXBXmX| . v R.I.K.k.t.=.#.#.p . + v 0.}.|.I.I.L.p.*.h u J @.J J J l 7 - : - - - @ .   . o o o : / G.^.C.,   ( JXKXKXKXKXKXKXKXKXKXKXKXKXKXKXKXKXKXKXKXKXKXKXKXKXKXKXKXKXKXKXKXKXKXKXKXKXKXKXKXKXKXKXKXKXKXKXKXKXKXsX'.KXKXKXZXbXCXSXJXKXKXKXKXKXKXKXKXKXKXKXKXKXKXKXKXKXKXKXKXKXKXKXKXKXKXKXKXKXKXKXKXKXKXKXKXKXKXKXKXKXKXKXKXKXKXKXKXKXKXKXKXKXKXKXKXKXKXKXKXKXKXKXKXKXKXKXKXKXKXKXKXKXKXKXKXKXKXKXKXKXKXKXKXKXKXKXKXKX",
"KXKXKXKXKXKXKXKXKXKXKXKXKXKXKXKXKXKXKXKXKXKXKXKXKXKXKXKXKXKXKXKXKXKXKXKXKXKXKXKXKXKXKXKXKXKXKXKXKXKXKXKXKXKXGX'.@ x c I K.x.K.k.d.U . c `.5X9X5X3X2X3X1X&X XK.#.y M :.:.X.L L z 7 : $ . q [ `.`.`.q.v +   : 3.G.F.9 . tXKXKXKXKXKXKXKXKXKXKXKXKXKXKXKXKXKXKXKXKXKXKXKXKXKXKXKXKXKXKXKXKXKXKXKXKXKXKXKXKXKXKXKXKXKXKXKXGX) + bXVX| A , -   r VXKXKXKXKXKXKXKXKXKXKXKXKXKXKXKXKXKXKXKXKXKXKXKXKXKXKXKXKXKXKXKXKXKXKXKXKXKXKXKXKXKXKXKXKXKXKXKXKXKXKXKXKXKXKXKXKXKXKXKXKXKXKXKXKXKXKXKXKXKXKXKXKXKXKXKXKXKXKXKXKXKXKXKXKXKXKXKXKXKX",
"KXKXKXKXKXKXKXKXKXKXKXKXKXKXKXKXKXKXKXKXKXKXKXKXKXKXKXKXKXKXKXKXKXKXKXKXKXKXKXKXKXKXKXKXKXKXKXKXKXHXbXuX{ r + o @ . X q `.<X1X4X_., n.9X9X2X2X2X<X3X4X4X3X<X=XR.e.Y #.y.1.J J X.h = 5 ].lXlX9X9X0X0X4X7Xv - * - E E o ` KXKXKXKXKXKXKXKXKXKXKXKXKXKXKXKXKXKXKXKXKXKXKXKXKXKXKXKXKXKXKXKXKXKXKXKXKXKXKXKXKXKXdXtXKXKXGXr . ` M.+   @ ; @ ] PXKXKXKXKXKXKXKXKXKXKXKXKXKXKXKXKXKXKXKXKXKXKXKXKXKXKXKXKXKXKXKXKXKXKXKXKXKXKXKXKXKXKXKXKXKXKXKXKXKXKXKXKXKXKXKXKXKXKXKXKXKXKXKXKXKXKXKXKXKXKXKXKXKXKXKXKXKXKXKXKXKXKXKXKXKXKXKXKXKXKX",
"KXKXKXKXKXKXKXKXKXKXKXKXKXKXKXKXKXKXKXKXKXKXKXKXKXKXKXKXKXKXKXKXKXKXKXKXKXKXKXKXKXKXKXKXJXbXuX} W 4 o . . o > A [ [.hXvXvXzX9X2X_.#X9X3X3X3X2X4X4X1X7XOX#X2X4X&XI.x.;.:.y.e.@.l + r vXlX-X4X1X`.q.q._.3X1X3 - - + : o eXKXKXKXKXKXKXKXKXKXKXKXKXKXKXKXKXKXKXKXKXKXKXKXKXKXKXKXKXKXKXKXKXKXKXKXKXKXKXKXJXGXKXVX. '.KX) . , , O - s 9 @ | GXcXyXrXtXpXjXHXKXKXKXKXKXKXKXKXKXKXKXKXKXKXKXKXKXKXKXKXKXKXKXKXKXKXKXKXKXKXKXKXKXKXKXKXKXKXKXKXKXKXKXKXKXKXKXKXKXKXKXKXKXKXKXKXKXKXKXKXKXKXKXKXKXKXKXKXKXKXKXKXKXKXKXKXKXKXKXKXKXKXKXKX",
"KXKXKXKXKXKXKXKXKXKXKXKXKXKXKXKXKXKXKXKXKXKXKXKXKXKXKXKXKXKXKXKXKXKXKXKXKXKXKXKXKXKXcX{ w +     . $ w ' ].aXzXzXxXzXlX5X2X-X<X-X4X-X=X2X<X2X9X`.D , $ - 9 v 0.%X&X XP.e.r.s.a.: $ hXlX6X5X^ , o . + x OX1X9 $ * @ . ( JXKXKXKXKXKXKXKXKXKXKXKXKXKXKXKXKXKXKXKXKXKXKXKXKXKXKXKXKXKXKXKXKXKXKXKXKXCX| S w 0 S  .w , M.@ 1 - + a -.O.+ 5 ( 0 @ .   . O * 4 ` mXKXKXKXKXKXKXKXKXKXKXKXKXKXKXKXKXKXKXKXKXKXKXKXKXKXKXKXKXKXKXKXKXKXKXKXKXKXKXKXKXKXKXKXKXKXKXKXKXKXKXKXKXKXKXKXKXKXKXKXKXKXKXKXKXKXKXKXKXKXKXKXKXKXKXKXKXKXKXKXKXKXKX",
"KXKXKXKXKXKXKXKXKXKXKXKXKXKXKXKXKXKXKXKXKXKXKXKXKXKXKXKXKXKXKXKXKXKXKXKXKXKXKXKXGX` + o - q Q n.{.hXvXvXxXzX9X3X=X=X-X<X2X2X2X2X<X1X-X1X2X4X^ @ @ - @ + o + . v XX.XK.p.a.a.p.7 `.0X3XlX~ o - M 4.r.r.-XOX- - S ` uXJXKXKXKXKXKXKXKXKXKXKXKXKXKXKXKXKXKXKXKXKXKXKXKXKXKXKXKXKXKXKXKXKXKXKXKXGX` + + @ * @ . o ; ; o 7 k @ l -.-.1 - @   @ 7 a p p 7 : @   . } JXKXKXKXKXKXKXKXKXKXKXKXKXKXKXKXKXKXKXKXKXKXKXKXKXKXKXKXKXKXKXKXKXKXKXKXKXKXKXKXKXKXKXKXKXKXKXKXKXKXKXKXKXKXKXKXKXKXKXKXKXKXKXKXKXKXKXKXKXKXKXKXKXKXKXKXKXKXKXKXKX",
"KXKXKXKXKXKXKXKXKXKXKXKXKXKXKXKXKXKXKXKXKXKXKXKXKXKXKXKXKXKXKXKXKXKXKXKXKXKXKXGXS . % [ ,XzXvXxXzX9X3X<X-X-X2X2X2X2X2X2X2X2X2X2X2X-X:X4X#X! . @ : - > ` ` + - @ I XXK.p.p.p.e.}.9X6X4X^ O 1 7 s T 5.U.4Xq.@ - | KXKXKXKXKXKXKXKXKXKXKXKXKXKXKXKXKXKXKXKXKXKXKXKXKXKXKXKXKXKXKXKXKXKXKXKXKXKXeXt q # @ , P T k : - - L a C =.=.k + 1 s C T -.r.;.k ; ; S | yXpXHXKXKXKXKXKXKXKXKXKXKXKXKXKXKXKXKXKXKXKXKXKXKXKXKXKXKXKXKXKXKXKXKXKXKXKXKXKXKXKXKXKXKXKXKXKXKXKXKXKXKXKXKXKXKXKXKXKXKXKXKXKXKXKXKXKXKXKXKXKXKXKXKXKXKXKXKXKXKXKXKX",
"KXKXKXKXKXKXKXKXKXKXKXKXKXKXKXKXKXKXKXKXKXKXKXKXKXKXKXKXKXKXKXKXKXKXKXKXKXKXKX] o A hX9X2XlX3X=X=X=X=X=X-X2X2X2X2X2X2X2X2X2X2X-X-X-XOX^ >   # ] q O ` KXVXVXq ; o R +XT.K.f.I.=X<X3X}.@ - - - k U d.1X2Xc - 1   { KXKXKXKXKXKXKXKXKXKXKXKXKXKXKXKXKXKXKXKXKXKXKXKXKXKXKXKXKXKXKXKXKXKXKXKXKXKXKXJXgXW @ : T 4.#.d i ;.U #.@.@.a C -.y.e.1.4.T 2 $ @ ( sXBXKXKXKXKXKXKXKXKXKXKXKXKXKXKXKXKXKXKXKXKXKXKXKXKXKXKXKXKXKXKXKXKXKXKXKXKXKXKXKXKXKXKXKXKXKXKXKXKXKXKXKXKXKXKXKXKXKXKXKXKXKXKXKXKXKXKXKXKXKXKXKXKXKXKXKXKXKXKXKXKXKXKXKX",
"KXKXKXKXKXKXKXKXKXKXKXKXKXKXKXKXKXKXKXKXKXKXKXKXKXKXKXKXKXKXKXKXKXKXKXKXKXKXVX# - hX9X&X<X2X2X<X2X5X9X5X:X2X2X<X<X2X2X2X-X-X=X=X=X-X#X_.j.R aXbX* ; % 0 # rX0 v ^ : t.+X XR.R.&X#X4X~ + @ ; O.;.1. X5Xm.o 2 m : . yXKXKXKXKXKXKXKXKXKXKXKXKXKXKXKXKXKXKXKXKXKXKXKXKXKXKXKXKXKXKXKXKXKXKXKXKXmX'.W e 0 - - @ N 4.4.-.=.=.2.r.1.4.p.f.f.r.4.v + @ - - + + - q ) dXKXKXKXKXKXKXKXKXKXKXKXKXKXKXKXKXKXKXKXKXKXKXKXKXKXKXKXKXKXKXKXKXKXKXKXKXKXKXKXKXKXKXKXKXKXKXKXKXKXKXKXKXKXKXKXKXKXKXKXKXKXKXKXKXKXKXKXKXKXKXKXKXKXKXKXKXKXKXKXKX",
"KXKXKXKXKXKXKXKXKXKXKXKXKXKXKXKXKXKXKXKXKXKXKXKXKXKXKXKXKXKXKXKXKXKXKXKXKXKXdX  W lX2X3X2X<X4X9XlX,X,X,X9X5X3X<X2X:X-X=X=X=X-X-X=X*X-X4X4X>X9XcX+ ; @ + - = o 0.>XXXK.T.R. XXX.X-X_.; ; 7 N s v I.&X#Xq @ - 1 = @ 5 FXKXKXKXKXKXKXKXKXKXKXKXKXKXKXKXKXKXKXKXKXKXKXKXKXKXKXKXKXKXKXKXKXKXBX` + . . @ ; p d 7 a 1.p.p.w.p.s.x.H.H.P.K.p.5.4.T U P M l a 1 - @ o @ S fXKXKXKXKXKXKXKXKXKXKXKXKXKXKXKXKXKXKXKXKXKXKXKXKXKXKXKXKXKXKXKXKXKXKXKXKXKXKXKXKXKXKXKXKXKXKXKXKXKXKXKXKXKXKXKXKXKXKXKXKXKXKXKXKXKXKXKXKXKXKXKXKXKXKXKXKXKXKX",
"KXKXKXKXKXKXKXKXKXKXKXKXKXKXKXKXKXKXKXKXKXKXKXKXKXKXKXKXKXKXKXKXKXKXKXKXKXGX( o ! 9X#X#X3X4X_.^ w @ @ , q q.4X2XoX-X-X=X-X=X-X-X=X=X-X-X-X=X=XzXr @ 2 : 1 : 9 j.&X-X%XXX XXX.XXX|., . @ * + x U.%XXXc * - @ 0 ( 5   M.KXKXKXKXKXKXKXKXKXKXKXKXKXKXKXKXKXKXKXKXKXKXKXKXKXKXKXKXKXKXKXKXdX, @ ; 8 C U =.r.p.p.p.p.p.p.p.p.H.T.I.L.P.R.R.P.H.f.;.4.p.y.1.T U C s 1 - @ M.KXKXKXKXKXKXKXKXKXKXKXKXKXKXKXKXKXKXKXKXKXKXKXKXKXKXKXKXKXKXKXKXKXKXKXKXKXKXKXKXKXKXKXKXKXKXKXKXKXKXKXKXKXKXKXKXKXKXKXKXKXKXKXKXKXKXKXKXKXKXKXKXKXKXKXKXKX",
"KXKXKXKXKXKXKXKXKXKXKXKXKXKXKXKXKXKXKXKXKXKXKXKXKXKXKXKXKXKXKXKXKXKXKXKXKX` o ; > ,Xm.7X0X^ + @ ; 2 7 : . q 4X#XoX2X-X-X-X-X-X=X*X*X-X-X-X-X2X9X`.@ + - @ . , j.-X.XXX.X.XXXXXT.k.V.9.^ 8.V.%X%XV.8 o 7 h @ + } HXM.S JXKXKXKXKXKXKXKXKXKXKXKXKXKXKXKXKXKXKXKXKXKXKXKXKXKXKXKXKXKXKXyXo - : 7 l G U T #.-.e.p.p.p.p.p.p.a.e.4.5.p.L.R.R.L.I.K.e.=.w.1.T M l i ; + O   ` KXKXKXKXKXKXKXKXKXKXKXKXKXKXKXKXKXKXKXKXKXKXKXKXKXKXKXKXKXKXKXKXKXKXKXKXKXKXKXKXKXKXKXKXKXKXKXKXKXKXKXKXKXKXKXKXKXKXKXKXKXKXKXKXKXKXKXKXKXKXKXKXKXKXKXKX",
"KXKXKXKXKXKXKXKXKXKXKXKXKXKXKXKXKXKXKXKXKXKXKXKXKXKXKXKXKXKXKXKXKXKXKXKXHX> c ~   ^ ^ `.^ o @ * ; @ + , ^ 6X3X-X:X-X-X<X-X-X-X=X-X-X=X=X-X-X-X3X9X7X^ ~ ~ q.OX4X&XXX.X.X%X.XXX%X7.v k. X.X Xl.I , @ : T #.s @ . | KXBXGXKXKXKXKXKXKXKXKXKXKXKXKXKXKXKXKXKXKXKXKXKXKXKXKXKXKXKXKXKXfXo . > - ; - + ; v 9.e.r.p.p.p.p.p.u.g.}.U.K.T.f.r.p.g.f.f.e.@.O.l ; @ - - 0 ` ] W + M.KXKXKXKXKXKXKXKXKXKXKXKXKXKXKXKXKXKXKXKXKXKXKXKXKXKXKXKXKXKXKXKXKXKXKXKXKXKXKXKXKXKXKXKXKXKXKXKXKXKXKXKXKXKXKXKXKXKXKXKXKXKXKXKXKXKXKXKXKXKXKXKXKXKXKX",
"KXKXKXKXKXKXKXKXKXKXKXKXKXKXKXKXKXKXKXKXKXKXKXKXKXKXKXKXKXKXKXKXKXKXKXKXGXq - n.4 @ w 8 o - w ~ [ n.{.6X9X2X-X2X-X-X-X-X*X-X-X-X=X=X=X-X-X-X-X:X:X4X9X9X4X4X>X.XXX.X%X%X%X+XXX+XI.- + - : 1 @ o - p T #.O.@.z ; . eXKXKXKXKXKXKXKXKXKXKXKXKXKXKXKXKXKXKXKXKXKXKXKXKXKXKXKXKXKXKXGXe Q uX` @ @ - P g.R.R.K.p.p.p.r.a.L. X.X&X-X-X#Xk.1.=.4.r.p.p.1.T U N s 1 - > ( bXKXGXbXKXKXKXKXKXKXKXKXKXKXKXKXKXKXKXKXKXKXKXKXKXKXKXKXKXKXKXKXKXKXKXKXKXKXKXKXKXKXKXKXKXKXKXKXKXKXKXKXKXKXKXKXKXKXKXKXKXKXKXKXKXKXKXKXKXKXKXKXKXKXKXKXKXKXKX",
"KXKXKXKXKXKXKXKXKXKXKXKXKXKXKXKXKXKXKXKXKXKXKXKXKXKXKXKXKXKXKXKXKXKXKXKXKXS   n.hX9 @ + ~ _.3X0X9X9X0X4X-X-X2X2X2X2X-X-X=X=X-X-X-X-X2X3X2X<X-X-X-X&X&X&X.XXXT.XXXX+X&X%X%X+XT. X%XR - - @ - 7 v U @.$.U p M #.M - $ bXKXKXKXKXKXKXKXKXKXKXKXKXKXKXKXKXKXKXKXKXKXKXKXKXKXKXKXKXKXCXbXKX| - @ a e.R.T.K.f.e.r.p.f.|.3X4X4X2X2X-X-X-X:X*XK.4.5.p.s.s.w.T T #.O.k - o O ` GXKXKXKXKXKXKXKXKXKXKXKXKXKXKXKXKXKXKXKXKXKXKXKXKXKXKXKXKXKXKXKXKXKXKXKXKXKXKXKXKXKXKXKXKXKXKXKXKXKXKXKXKXKXKXKXKXKXKXKXKXKXKXKXKXKXKXKXKXKXKXKXKXKXKXKXKX",
"KXKXKXKXKXKXKXKXKXKXKXKXKXKXKXKXKXKXKXKXKXKXKXKXKXKXKXKXKXKXKXKXKXKXKXKXgXo w vX9X7X, `.4X4X2X-X-X-X-X2X2X2X2X2X2X2X<X=X-X=X-X=X=X-X2X2X<X-X-X-X-X-X*X%XXXXX.X%X&X%X&X&X&X&X XT.%X9.+ 9 *.9.f.P.p.O.@.#.p @ 2 n a O ) KXKXKXKXKXKXKXKXKXKXKXKXKXKXKXKXKXKXKXKXKXKXKXKXKXKXKXKXKXKXKX( o - U H.Y.H.f.y.e.r.r.y.k. XI.I.&X<X<X<X2X-X&X=X4X.Xp.y.p.f.f.r.O.O.#.@.P p @ . q bXKXKXKXKXKXKXKXKXKXKXKXKXKXKXKXKXKXKXKXKXKXKXKXKXKXKXKXKXKXKXKXKXKXKXKXKXKXKXKXKXKXKXKXKXKXKXKXKXKXKXKXKXKXKXKXKXKXKXKXKXKXKXKXKXKXKXKXKXKXKXKXKXKXKXKX",
"KXKXKXKXKXKXKXKXKXKXKXKXKXKXKXKXKXKXKXKXKXKXKXKXKXKXKXKXKXKXKXKXKXKXKXKX`   ].zX2X`.n.9X*X2X2X2X3X3X2X2X2X2X2X2X2X2X4X>X-X-X-X=X-X-X-X-X-X-X-X-X-X-X-X-X-X-X*X&X&X*X*X*X&X*X}.R %Xi.$ - =.s.x.f.f.=.O.O.T 1 ; - @ - @ bXKXKXKXKXKXKXKXKXKXKXKXKXKXKXKXKXKXKXKXKXKXKXKXKXKXKXKXKXKX` o - R J.Y.P.a.y.r.y.p.r.r.y.f.I.XX&X<X-X-X.XE.K.f.v.oX=Xg.r.f.p.g.f.@.O.T O.#.M - @ , fXKXKXKXKXKXKXKXKXKXKXKXKXKXKXKXKXKXKXKXKXKXKXKXKXKXKXKXKXKXKXKXKXKXKXKXKXKXKXKXKXKXKXKXKXKXKXKXKXKXKXKXKXKXKXKXKXKXKXKXKXKXKXKXKXKXKXKXKXKXKXKXKXKXKX",
"KXKXKXKXKXKXKXKXKXKXKXKXKXKXKXKXKXKXKXKXKXKXKXKXKXKXKXKXKXKXKXKXKXKXKXKXr o hX5X5Xn.hX4X2X3X3X2X:X2X2X2X2X2X2X2X2X2Xm.0.=X:X=X=X-X=X-X-X-X-X<X-X-X-X-X-X-X-X-X*X*X*X*X=X&X*X.X- 8.a.- - &.s.x.i.e.9.O.U O.M = A ` o . | KXKXKXKXKXKXKXKXKXKXKXKXKXKXKXKXKXKXKXKXKXKXKXKXKXKXKXKX'.+ , U s.g.K.s.f.f.s.x.s.r.r. X-X3X3X2X-X-X=X.XI.T.T.c.5.f.k.e.y.p.e.s.p.T T U T =.T 7 * > jXKXKXKXKXKXKXKXKXKXKXKXKXKXKXKXKXKXKXKXKXKXKXKXKXKXKXKXKXKXKXKXKXKXKXKXKXKXKXKXKXKXKXKXKXKXKXKXKXKXKXKXKXKXKXKXKXKXKXKXKXKXKXKXKXKXKXKXKXKXKXKXKXKX",
"KXKXKXKXKXKXKXKXKXKXKXKXKXKXKXKXKXKXKXKXKXKXKXKXKXKXKXKXKXKXKXKXKXKXKXGX0 $ hX5X6X! hX4X2X4X3X:X2X2X2X2X2X2X2X<X-X9Xq.  v 2X=X=X=X*X=X=X=X=X-X-X-X-X-X-X-X-X-X-X*X=X=X*X=X*XXX: - *.s - 1.H.g.s.&.2.@.T T O.y @ dXfX@ A KXKXKXKXKXKXKXKXKXKXKXKXKXKXKXKXKXKXKXKXKXKXKXKXKXKXKXfX+ @ M f.x.f.h.f.f.J.T.K.a.k.&X3X<X-X2X-X<X-X-X-X-X&X XXXL.5.5.w.r.p.p.;.1.&.T T d 7 l J 7 @ 4 BXKXKXKXKXKXKXKXKXKXKXKXKXKXKXKXKXKXKXKXKXKXKXKXKXKXKXKXKXKXKXKXKXKXKXKXKXKXKXKXKXKXKXKXKXKXKXKXKXKXKXKXKXKXKXKXKXKXKXKXKXKXKXKXKXKXKXKXKXKXKXKXKX",
"KXKXKXKXKXKXKXKXKXKXKXKXKXKXKXKXKXKXKXKXKXKXKXKXKXKXKXKXKXKXKXKXKXKXKXJXw @ hX9X7XX ,X4X-X3X2X2X3X2X2X2X2X-X-X2X4X`.9 , < oX-X=X=X=X=X-X-X-X-X-X-X=X-X=X-X=X=X*X*X=X=X*X=X>X}.@ @ - *.: 4.J.g.x.w.@.#.@.T @.M O e KXmXt ZXKXKXKXKXKXKXKXKXKXKXKXKXKXKXKXKXKXKXKXKXKXKXKXKXKXJXr @ p 4.g.1.p.h.h.P.+XE.s.T.-X-X=X-X-X-X2X2X-X-X-X=X-X2XXXT.g.r.5.e.p.p.a.#.@.*.$.#.2 @ ; 2 ; @ ( KXKXKXKXKXKXKXKXKXKXKXKXKXKXKXKXKXKXKXKXKXKXKXKXKXKXKXKXKXKXKXKXKXKXKXKXKXKXKXKXKXKXKXKXKXKXKXKXKXKXKXKXKXKXKXKXKXKXKXKXKXKXKXKXKXKXKXKXKXKXKXKX",
"KXKXKXKXKXKXKXKXKXKXKXKXKXKXKXKXKXKXKXKXKXKXKXKXKXKXKXKXKXKXKXKXKXKXKXKX) o n.lX#X+ ' lX2X2X2X2X2X2X<X-X2X2X4XoX~   9 |.j.&X=X*X*X*X=X-X-X-X-X-X-X-X=X=X*X=X=X-X*X=X-X&X&X4Xj.. , - 2.s e.L.x.H.f.#.@.#.M N J : . yXKXnXFXKXKXKXKXKXKXKXKXKXKXKXKXKXKXKXKXKXKXKXKXKXKXKXKXKXeX. 3 4.e.s R g.f.T.%XXXK.I.:X-X=X-X-X<X-X-X-X-X<X-X-XoX X&XXXT.g.r.p.p.p.d.d.&.@.#.#.T 1 - , 0 + . sXKXKXKXKXKXKXKXKXKXKXKXKXKXKXKXKXKXKXKXKXKXKXKXKXKXKXKXKXKXKXKXKXKXKXKXKXKXKXKXKXKXKXKXKXKXKXKXKXKXKXKXKXKXKXKXKXKXKXKXKXKXKXKXKXKXKXKXKXKXKXKX",
"KXKXKXKXKXKXKXKXKXKXKXKXKXKXKXKXKXKXKXKXKXKXKXKXKXKXKXKXKXKXKXKXKXKXKXKXgXO $ ^ ~ + . ^ 1X4X4X4X4X4X4X4X-X_.~ @   ~ #X>X-X*X&X*X*X*X*X*X-X-X=X=X-X=X=X=X=X=X*X=X*X*X-X X.X>XR . 9 P -.P r.L.K.H.H.&.*.#.P ; N k + ( KXKXKXKXKXKXKXKXKXKXKXKXKXKXKXKXKXKXKXKXKXKXKXKXKXKXKXHX0 @ U @.- k s.e.g.+X+X.XJ.#X-X&X*X-X-X2X2X2X<X-X-X-X-X<X Xf.T.T.I.p.p.y.y.p.d.f.-.#.@.*.T 1 * ) eX% 0 JXKXKXKXKXKXKXKXKXKXKXKXKXKXKXKXKXKXKXKXKXKXKXKXKXKXKXKXKXKXKXKXKXKXKXKXKXKXKXKXKXKXKXKXKXKXKXKXKXKXKXKXKXKXKXKXKXKXKXKXKXKXKXKXKXKXKXKXKXKXKX",
"KXKXKXKXKXKXKXKXKXKXKXKXKXKXKXKXKXKXKXKXKXKXKXKXKXKXKXKXKXKXKXKXKXKXKXKXKX .. . + ! c . ; ! q.`.`.`.q.~ 8 . . c _.>X-X*X=X=X&X&X&X&X*X=X=X-X-X*X=X-X=X=X=X*X*X&X*X=X XK.&X%Xs $ 1 e.w.-.i.K.K.H.H.-.O.*.O.1 ; N 1 , IXKXKXKXKXKXKXKXKXKXKXKXKXKXKXKXKXKXKXKXKXKXKXKXKXKXKXeXO s z o p H.r.-.T.+XK.x. X2X=X=X-X-X-X-X2X-X<X<X-X-X-X=X<XI.a.I.E.I.p.y.y.y.r.f.y.#.@.@.#.U - O uXJX` gXKXKXKXKXKXKXKXKXKXKXKXKXKXKXKXKXKXKXKXKXKXKXKXKXKXKXKXKXKXKXKXKXKXKXKXKXKXKXKXKXKXKXKXKXKXKXKXKXKXKXKXKXKXKXKXKXKXKXKXKXKXKXKXKXKXKXKXKXKXKX",
"KXKXKXKXKXKXKXKXKXKXKXKXKXKXKXKXKXKXKXKXKXKXKXKXKXKXKXKXKXKXKXKXKXKXKXKXKXKXtX. r lX5Xn.9     . .     . , ~ _.2X>X=X$X XXX.X.X.X.X&X=X-X=X-X=X*X*X*X=X=X*X*X=X*X&XT.L.K.*Xi.; - 9 p.r.y.f.k.g.g.H.2.@.@.#.k - 7 7 + gXKXKXKXKXKXKXKXKXKXKXKXKXKXKXKXKXKXKXKXKXKXKXKXKXKXJXr @ 1 ; : r.c.1.g.R.p.r.K.*X-X-X-X-X-X-X-X-X-X-X-X-X-X-X=X=X-XK.L.L.x.f.y.y.y.y.p.f.-.@.#.#.:.M - + fXKXGXKXKXKXKXKXKXKXKXKXKXKXKXKXKXKXKXKXKXKXKXKXKXKXKXKXKXKXKXKXKXKXKXKXKXKXKXKXKXKXKXKXKXKXKXKXKXKXKXKXKXKXKXKXKXKXKXKXKXKXKXKXKXKXKXKXKXKXKXKXKX",
"KXKXKXKXKXKXKXKXKXKXKXKXKXKXKXKXKXKXKXKXKXKXKXKXKXKXKXKXKXKXKXKXKXKXKXKXKXKXBX@ q zX5X9X=X`.n.^ ^ ^ q._.#X4X4X-X+XT.K.P.E.Y.Y.P.P.I. X.X#X*X-X-X-X=X-X-X=X*X&XXXK.L.h.I.XXv @ - 8 x.p.a.x.K.f.f.H.1.@.@.@.z - - ; . eXKXKXKXKXKXKXKXKXKXKXKXKXKXKXKXKXKXKXKXKXKXKXKXKXKXBX# - - $ T J.5.w.E.r.;.p. X2X-X<X-X-X-X-X-X-X-X-X-X<X*X&X-X-X-X&XK.E.a.f.y.p.p.p.p.r.i.#.$.#.O.#.p o e HXKXKXKXKXKXKXKXKXKXKXKXKXKXKXKXKXKXKXKXKXKXKXKXKXKXKXKXKXKXKXKXKXKXKXKXKXKXKXKXKXKXKXKXKXKXKXKXKXKXKXKXKXKXKXKXKXKXKXKXKXKXKXKXKXKXKXKXKXKXKXKX",
"KXKXKXKXKXKXKXKXKXKXKXKXKXKXKXKXKXKXKXKXKXKXKXKXKXKXKXKXKXKXKXKXKXKXKXKXKXKXJXA O [.9X=X2X4X0X0X4X4X4X4X2X&X.XE.9.v R 9.9.7.9.t.h.H.P.Y.P.I.E. XXX.X.X.X XI.P.H.Y.7.R +Xt.@ $ - z J.a.a.T.K.g.g.H.1.@.@.@.C @ 4 > o { KXKXKXKXKXKXKXKXKXKXKXKXKXKXKXKXKXKXKXKXKXKXKXKXKXrXo ; @ 3 f.p.1.h.p.;.e.e.&X2X:X=X-X-X-X-X-X-X-X-X-X-X<X XK.=X-X-XI.J.K.f.f.r.p.p.p.w.1.r.$.#.v T T 3 O ` KXKXKXKXKXKXKXKXKXKXKXKXKXKXKXKXKXKXKXKXKXKXKXKXKXKXKXKXKXKXKXKXKXKXKXKXKXKXKXKXKXKXKXKXKXKXKXKXKXKXKXKXKXKXKXKXKXKXKXKXKXKXKXKXKXKXKXKXKXKXKX",
"KXKXKXKXKXKXKXKXKXKXKXKXKXKXKXKXKXKXKXKXKXKXKXKXKXKXKXKXKXKXKXKXKXKXKXKXKXKXKXeXo q _.%X=X1X1X=X=X=X=X$X XK.7.a - - $ + + o + @ : 9 k T e.g.L.P.P.P.P.P.P.P.T.P.R @ h.K.a o s : T Y.s.L.+Xg. Xg.a.-.O.O.T U * S ` o ] KXKXKXKXKXKXKXKXKXKXKXKXKXKXKXKXKXKXKXKXKXKXKXKXgX@ ' 3 + R f.-.1.p.5.w.5.K.2X&XU.&X-X-X2X2X-X-X-X=X=X-X=X2XU.p.&X-X.Xa.I.x.L.y.e.p.p.p.;.5.-.#.P 1 U T ; + sXKXKXKXKXKXKXKXKXKXKXKXKXKXKXKXKXKXKXKXKXKXKXKXKXKXKXKXKXKXKXKXKXKXKXKXKXKXKXKXKXKXKXKXKXKXKXKXKXKXKXKXKXKXKXKXKXKXKXKXKXKXKXKXKXKXKXKXKXKXKX",
"KXKXKXKXKXKXKXKXKXKXKXKXKXKXKXKXKXKXKXKXKXKXKXKXKXKXKXKXKXKXKXKXKXKXKXKXKXKXKXJXS   > ^ U. X XT. X XI.t.I 8 @ @ : : 1 7 p 7 2 1 ; @ + + @ 1 k R 9.h.V.K.k.t.R 8 @ 9.h.8 @ 1 4.: 2.J.P..XXXT.%Xf.5.&.@.T U @.7 , jX, ` KXKXKXKXKXKXKXKXKXKXKXKXKXKXKXKXKXKXKXKXKXKXKXGX` jX} @ s i.%.@.e.5.w.e.y.=X.Xe. X:X<X-X-X-X-X-X-X&X-X-X=X<X2Xf.H. X*Xg.K.I.L.P.r.p.p.f.r.:.&.*.:.l * k l - 0 FXKXKXKXKXKXKXKXKXKXKXKXKXKXKXKXKXKXKXKXKXKXKXKXKXKXKXKXKXKXKXKXKXKXKXKXKXKXKXKXKXKXKXKXKXKXKXKXKXKXKXKXKXKXKXKXKXKXKXKXKXKXKXKXKXKXKXKXKXKX",
"KXKXKXKXKXKXKXKXKXKXKXKXKXKXKXKXKXKXKXKXKXKXKXKXKXKXKXKXKXKXKXKXKXKXKXKXKXKXKXKXFXS o @ 9 v I R R I a - o o 0 4 O = : 7 z L Y J G N n d : - + + $ - : 1 : - + @ I *.; + - ;.s.s p.H.XX%X%X%XR.4.#.$.@.@.a #.a . bX'.` KXKXKXKXKXKXKXKXKXKXKXKXKXKXKXKXKXKXKXKXKXKXKXGXKXgX. - &.1.*.-.w.w.1.e.K. X5.I.2X-X-X-X-X-X-X2X-X&X=X-X=X-X2X=Xp.K.XXE.y.L.P.R.L.y.p.p.f.-.#.$.$.$.1 @ 7 1 . ] KXKXKXKXKXKXKXKXKXKXKXKXKXKXKXKXKXKXKXKXKXKXKXKXKXKXKXKXKXKXKXKXKXKXKXKXKXKXKXKXKXKXKXKXKXKXKXKXKXKXKXKXKXKXKXKXKXKXKXKXKXKXKXKXKXKXKXKXKX",
"KXKXKXKXKXKXKXKXKXKXKXKXKXKXKXKXKXKXKXKXKXKXKXKXKXKXKXKXKXKXKXKXKXKXKXKXKXKXKXKXKXJXeXq + . . o o . . $ S tXHXFXuXW o @ - 2 k J L L Y L J N h 7 : - $ - ; - - ; : + @ 9 T L.i.-.H.T.%XXXT.%XP.=.@.#.@.#.1 l s   yXGXsXKXKXKXKXKXKXKXKXKXKXKXKXKXKXKXKXKXKXKXKXKXKXKXKXFX0 . k 5.=.#.9.w.4.2.e.g.y.f.2X2X<X-X-X-X<X-X2X2X-X=X-X=X<X=X2XI.s.T.E.e.y.K. X%Xg.y.f.f.e.#.&.@.$.P - - , + . jXKXKXKXKXKXKXKXKXKXKXKXKXKXKXKXKXKXKXKXKXKXKXKXKXKXKXKXKXKXKXKXKXKXKXKXKXKXKXKXKXKXKXKXKXKXKXKXKXKXKXKXKXKXKXKXKXKXKXKXKXKXKXKXKXKXKXKXKX",
"KXKXKXKXKXKXKXKXKXKXKXKXKXKXKXKXKXKXKXKXKXKXKXKXKXKXKXKXKXKXKXKXKXKXKXKXKXKXKXKXKXKXKXGXsX| ' ) ' } yXCXKXKXKXKXKXKXyX> ; ; @ 7 J Y J J L X.X.Y J G G s ; @ - - - 7 M ;.g.H.f.s.XX%X%XT.d.R.x.-.#.$.#.#.: : s . rXKXKXKXKXKXKXKXKXKXKXKXKXKXKXKXKXKXKXKXKXKXKXKXKXKXJX( @ 9 #.#.O.4.e.w.w.4.r.r.r.oX2X-X-X-X-X-X2X2X2X3X2X-X-X.X&X2X-X&Xp.K.T.f.r.g.K.XX Xf.f.f.f.-.@.#.@.#.s @ <  .A e JXKXKXKXKXKXKXKXKXKXKXKXKXKXKXKXKXKXKXKXKXKXKXKXKXKXKXKXKXKXKXKXKXKXKXKXKXKXKXKXKXKXKXKXKXKXKXKXKXKXKXKXKXKXKXKXKXKXKXKXKXKXKXKXKXKXKXKX",
"KXKXKXKXKXKXKXKXKXKXKXKXKXKXKXKXKXKXKXKXKXKXKXKXKXKXKXKXKXKXKXKXKXKXKXKXKXKXKXKXKXKXKXKXKXKXKXKXKXKXKXKXKXKXKXKXKXKXKXtX@ 1 u - d h J J J J L L T O.O.T P N G J Y #.5.H.P.H.p. X%X$X%XT.9.e.p.#.@.&.#.@.1 - 7 O eXKXKXKXKXKXKXKXKXKXKXKXKXKXKXKXKXKXKXKXKXKXKXKXKXKX) + 1 T =.N T r.5.g.w.w.r.5.U.3X-X-X-X-X-X-X<X<X2X2X2X-X=X&XK.&X2X-Xk.p.Y.T.x.x.f.p.E.T.p.p.f.r.#.@.@.@.@.9 + Q JXyXgXKXKXKXKXKXKXKXKXKXKXKXKXKXKXKXKXKXKXKXKXKXKXKXKXKXKXKXKXKXKXKXKXKXKXKXKXKXKXKXKXKXKXKXKXKXKXKXKXKXKXKXKXKXKXKXKXKXKXKXKXKXKXKXKXKXKXKX",
"KXKXKXKXKXKXKXKXKXKXKXKXKXKXKXKXKXKXKXKXKXKXKXKXKXKXKXKXKXKXKXKXKXKXKXKXKXKXKXKXKXKXKXKXKXKXKXKXKXKXKXKXKXKXKXKXKXKXKXFX< - N h ; - n L N J N Y T T T @.@.e.r.4.e.f.J.T.P.c.T.%X.X=X+XT.1.-.e.O.@.@.@.@.1 - : o eXKXKXKXKXKXKXKXKXKXKXKXKXKXKXKXKXKXKXKXKXKXKXKXGX) o @ z =.G s ;.;.x.K.e.r.r.i.&X-X-X-X=X=X-X-X-X-X<X2X-X-X=X2X.Xs..X:XI.r.H.T.T.E.g.e.r.P.K.y.p.f.-.@.#.@.#.T 1 o ( KXKXKXKXKXKXKXKXKXKXKXKXKXKXKXKXKXKXKXKXKXKXKXKXKXKXKXKXKXKXKXKXKXKXKXKXKXKXKXKXKXKXKXKXKXKXKXKXKXKXKXKXKXKXKXKXKXKXKXKXKXKXKXKXKXKXKXKXKX",
"KXKXKXKXKXKXKXKXKXKXKXKXKXKXKXKXKXKXKXKXKXKXKXKXKXKXKXKXKXKXKXKXKXKXKXKXKXKXKXKXKXKXKXKXKXKXKXKXKXKXKXKXKXKXKXKXKXKXKXFX5 $ m J 2 + s Y n N N L O.T O.@.@.r.p.h.K.H.XX.XH..X-X.X*X&X+XP.$.:.;.#.@.@.@.T - ; ; . tXKXKXKXKXKXKXKXKXKXKXKXKXKXKXKXKXKXKXKXKXKXKXnXr o , M U a : 1.5.f.Y.p.r.p.r..X4X&X&X=X=X-X-X2X<X-X<X2X<X2X-X-X-XK.p.&X.Xp.s.T.T.Y.T.K.w.r.f.a.p.p.e.#.;.#.@.=.U ; o ` KXKXKXKXKXKXKXKXKXKXKXKXKXKXKXKXKXKXKXKXKXKXKXKXKXKXKXKXKXKXKXKXKXKXKXKXKXKXKXKXKXKXKXKXKXKXKXKXKXKXKXKXKXKXKXKXKXKXKXKXKXKXKXKXKXKXKXKX",
"KXKXKXKXKXKXKXKXKXKXKXKXKXKXKXKXKXKXKXKXKXKXKXKXKXKXKXKXKXKXKXKXKXKXKXKXKXKXKXKXKXKXKXKXKXKXKXKXKXKXKXKXKXKXKXKXKXKXKXfX@ ; z B 2 - M L i M L L L #.=.T &.p.p.H.H..X3XP.XX2X-X=X*XI.R.g.:.O.4.;.@.U U U @ A W o gXKXKXKXKXKXKXKXKXKXKXKXKXKXKXKXKXKXKXKXKXJXM.# @ 9 M l - + @.x.L.R.f.4.r.e.XX3X X X-X=X=X-X-X2X-X-X<X<X<X<X-X=X-X Xr.T.*Xs.s.K.T.P.P..XK.y.w.e.p.p.p.1.e.;.@.@.=.U ; + ( GXKXKXKXKXKXKXKXKXKXKXKXKXKXKXKXKXKXKXKXKXKXKXKXKXKXKXKXKXKXKXKXKXKXKXKXKXKXKXKXKXKXKXKXKXKXKXKXKXKXKXKXKXKXKXKXKXKXKXKXKXKXKXKXKXKXKX",
"KXKXKXKXKXKXKXKXKXKXKXKXKXKXKXKXKXKXKXKXKXKXKXKXKXKXKXKXKXKXKXKXKXKXKXKXKXKXKXKXKXKXKXKXKXKXKXKXKXKXKXKXKXKXKXKXKXKXKX{ + 7 n y @ i J M 7 J L Y ;.p.#.O.t.f.H. X=X2X.X X2X-X-X-X=Xh.K.s.=.#.a.#.@.N l U o ' eXO VXKXKXKXKXKXKXKXKXKXKXKXKXKXKXKXKXKXKXGXyXw + - - 2 : + ; -.x.x.Y.L.e.p.e.U.oXf.K.2X-X-X<X-X-X<X-X-X-X<X-X-X-X=X=X;Xf.K.*XL.s.f.T.L.Y.XXXXf.f.y.f.p.p.y.5.p.@.#.#.=.U - . A BXKXKXKXKXKXKXKXKXKXKXKXKXKXKXKXKXKXKXKXKXKXKXKXKXKXKXKXKXKXKXKXKXKXKXKXKXKXKXKXKXKXKXKXKXKXKXKXKXKXKXKXKXKXKXKXKXKXKXKXKXKXKXKXKXKX",
"KXKXKXKXKXKXKXKXKXKXKXKXKXKXKXKXKXKXKXKXKXKXKXKXKXKXKXKXKXKXKXKXKXKXKXKXKXKXKXKXKXKXKXKXKXKXKXKXKXKXKXKXKXKXKXKXKXKXBX< - j i + 1 L J d y L O.4.H.5.O.e.f.I.=X3X<X-X&X-X-X-X-X2X Xp.f.p.;.4.s.@.=.M i U o ] bX0 JXKXKXKXKXKXKXKXKXKXKXKXKXKXKXKXKXKXmX( < q 6 - - - @ p e.H.K.P.H.e.r.p.p.g.5.K.-X-X-X-X-X-X2X-X-X-X-X-X-X-X=X&X-X-XK.H..X Xs.p.P.E.H.XX%XK.f.f.f.p.p.a.y.g.9.@.@.O.@.T 9 + q bXKXKXKXKXKXKXKXKXKXKXKXKXKXKXKXKXKXKXKXKXKXKXKXKXKXKXKXKXKXKXKXKXKXKXKXKXKXKXKXKXKXKXKXKXKXKXKXKXKXKXKXKXKXKXKXKXKXKXKXKXKXKXKXKX",
"KXKXKXKXKXKXKXKXKXKXKXKXKXKXKXKXKXKXKXKXKXKXKXKXKXKXKXKXKXKXKXKXKXKXKXKXKXKXKXKXKXKXKXKXKXKXKXKXKXKXKXKXKXKXKXKXKXKX .. 7 f - @ M X.N 2 G O.4.x.f.#.4.x..X2X2X2X2X-X2X<X-X-X2X&XK.x.r.a.1.1.r.@.=.k 2 M o  .GXM.KXKXKXKXKXKXKXKXKXKXKXKXKXKXKXKXKXKXGXfXyX` 9 - - 7 T g.H.H.K.f.1.1.p.f.p.p.|.-X-X=X-X-X-X-X-X-X-X-X-X-X-X-X<X X=X2X Xg.K.XXI.p.I.%Xx.g.XXT.f.f.f.f.p.p.f.f.f.$.*.#.C s G d = > gXKXKXKXKXKXKXKXKXKXKXKXKXKXKXKXKXKXKXKXKXKXKXKXKXKXKXKXKXKXKXKXKXKXKXKXKXKXKXKXKXKXKXKXKXKXKXKXKXKXKXKXKXKXKXKXKXKXKXKXKXKXKXKX",
"KXKXKXKXKXKXKXKXKXKXKXKXKXKXKXKXKXKXKXKXKXKXKXKXKXKXKXKXKXKXKXKXKXKXKXKXKXKXKXKXKXKXKXKXKXKXKXKXKXKXKXKXKXKXKXKXKXGXe - 9 - @ p T L f n =.1.L.K.-.1.f.#X1XoX-X<X2X2X<X<X<X<X&X X.Xa.5.s.:.1.;.O.@.a - a o eXKXGXKXKXKXKXKXKXKXKXKXKXKXKXKXKXKXJXfX| r > @ * $ - G 4.r.e.e.1.e.r.e.p.p.r.g.#X2X-X-X-X-X-X-X-X-X-X-X-X-X-X-X&X2XXXI.2X&Xg.g.T.+Xg.P.%XT.r.g.R.g.f.f.f.f.p.p.f.f.r.$.:.@.s @ 7 : * o sXKXKXKXKXKXKXKXKXKXKXKXKXKXKXKXKXKXKXKXKXKXKXKXKXKXKXKXKXKXKXKXKXKXKXKXKXKXKXKXKXKXKXKXKXKXKXKXKXKXKXKXKXKXKXKXKXKXKXKXKXKXKX",
"KXKXKXKXKXKXKXKXKXKXKXKXKXKXKXKXKXKXKXKXKXKXKXKXKXKXKXKXKXKXKXKXKXKXKXKXKXKXKXKXKXKXKXKXKXKXKXKXKXKXKXKXKXKXKXKXKXgX@ - - ; - N T M j =.1.K.E.d.r.f..X3XoX#X2X2X2X<X2X-X2X=X X-XI.p.r.s.#.=.#.O.@.7 - 7 @ pXKXKXKXKXKXKXKXKXKXKXKXKXKXKXKXKXyXA * o o - 1 1 2 s N T O.#.1.r.p.p.y.p.V.XX-X<X=X=X-X<X-X-X-X-X<X-X=X=X-X=X2XXX#X-XK.=X1XK.a.I.%XT.I.%XXXf.y.P.P.a.s.f.f.f.f.f.f.s.w.4.;.@.p @ - A r . dXKXKXKXKXKXKXKXKXKXKXKXKXKXKXKXKXKXKXKXKXKXKXKXKXKXKXKXKXKXKXKXKXKXKXKXKXKXKXKXKXKXKXKXKXKXKXKXKXKXKXKXKXKXKXKXKXKXKXKXKXKX",
"KXKXKXKXKXKXKXKXKXKXKXKXKXKXKXKXKXKXKXKXKXKXKXKXKXKXKXKXKXKXKXKXKXKXKXKXKXKXKXKXKXKXKXKXKXKXKXKXKXKXKXKXKXKXKXKXKXM.  e w @ a X.U N @.-.f.Y.H.f.f.#X4X<X3X:X-X2X2X2X2X2X2X;X2X.Xf.p.4.s.=.@.@.@.#.7 - : @ gXKXKXKXKXKXKXKXKXKXKXKXKXKXKXbXS . + 2 k M U -.4.e.p.a.r.e.r.d.p.p.p.V..X2X2X-X=X=X-X=X-X-X<X-X-X-X-X=X-X-X-X2X1XU.1XI..X<XI.p.T.%XXX X+X+XK.p.s.L.f.f.f.p.p.p.a.f.p.s.e.i.$.O.p * 4 gXmXtXJXKXKXKXKXKXKXKXKXKXKXKXKXKXKXKXKXKXKXKXKXKXKXKXKXKXKXKXKXKXKXKXKXKXKXKXKXKXKXKXKXKXKXKXKXKXKXKXKXKXKXKXKXKXKXKXKXKXKXKXKX",
"KXKXKXKXKXKXKXKXKXKXKXKXKXKXKXKXKXKXKXKXKXKXKXKXKXKXKXKXKXKXKXKXKXKXKXKXKXKXKXKXKXKXKXKXKXKXKXKXKXKXKXKXKXKXKXKXKXW ( dX> - M Y T O.4.p.Y.L.p.p.&X4X=X2X<X-X<X2X2X2X2X2X-X-X&XH.p.5.-.a.#.@.@.U =.7 - - o gXKXKXKXKXKXKXKXKXKXKXKXKXKXsX# + - d L =.=.@.;.4.1.4.4.5.4.4.r.y.y.p.p.a.K. X=X<X-X-X=X=X=X-X-X-X-X-X-X-X-X2X-X3X.X XoX X=XXXa. X%X%XE.XX+XE.p.a.a.f.f.f.p.p.f.f.f.f.f.f.p.f.2.@.8 + > gXKXKXKXKXKXKXKXKXKXKXKXKXKXKXKXKXKXKXKXKXKXKXKXKXKXKXKXKXKXKXKXKXKXKXKXKXKXKXKXKXKXKXKXKXKXKXKXKXKXKXKXKXKXKXKXKXKXKXKXKXKXKX",
"KXKXKXKXKXKXKXKXKXKXKXKXKXKXKXKXKXKXKXKXKXKXKXKXKXKXKXKXKXKXKXKXKXKXKXKXKXKXKXKXKXKXKXKXKXKXKXKXKXKXKXKXKXKXKXKXKXdXKX` o a L T T ;.p.P.P.s.g.oXXXi.oX2X-X-X2X2X2X2X-X-X-X-XT.p.r.;.:.p.@.#.#.s O.: $ - o gXKXKXKXKXKXKXKXKXKXKXKXKXrX. ; : ; : - ; p P @.2.r.p.s.a.g.K.U.I.U.I. X.X&X-X=X=X-X-X-X-X=X=X-X-X-X-X-X-X=X-X2X-X<XL. X&X&X+XK..X%X%XT.K.%X Xp.a.f.f.f.f.f.a.p.p.f.f.p.p.p.f.g.e.@.p * @  .KXKXKXKXKXKXKXKXKXKXKXKXKXKXKXKXKXKXKXKXKXKXKXKXKXKXKXKXKXKXKXKXKXKXKXKXKXKXKXKXKXKXKXKXKXKXKXKXKXKXKXKXKXKXKXKXKXKXKXKXKX",
"KXKXKXKXKXKXKXKXKXKXKXKXKXKXKXKXKXKXKXKXKXKXKXKXKXKXKXKXKXKXKXKXKXKXKXKXKXKXKXKXKXKXKXKXKXKXKXKXKXKXKXKXKXKXKXKXKXKXfX@ : U @.O.@.5.f.P.L.s.h.h.:.XX5X&X=X<X-X2X2X2X<X-X-X$XJ.p.p.#.#.p.=.#.@.1 N - e _ . sXKXKXKXKXKXKXKXKXKXKXKXfXt } ( ; - - 1 k $.p.a.s.s.x.x.f.g.I.&X2X2X2X2X-X=X=X=X=X-X=X-X-X-X-X-X=X=X-X=X-X=XU.:X-X-X XK.@X&X%XT.;X.X%X.Xx.I.%Xp.p.f.f.f.a.p.p.a.p.f.f.f.f.f.f.f.g.p.1.s @ o W BXKXKXKXKXKXKXKXKXKXKXKXKXKXKXKXKXKXKXKXKXKXKXKXKXKXKXKXKXKXKXKXKXKXKXKXKXKXKXKXKXKXKXKXKXKXKXKXKXKXKXKXKXKXKXKXKXKXKXKX",
"KXKXKXKXKXKXKXKXKXKXKXKXKXKXKXKXKXKXKXKXKXKXKXKXKXKXKXKXKXKXKXKXKXKXKXKXKXKXKXKXKXKXKXKXKXKXKXKXKXKXKXKXKXKXKXKXKXKX( o a @.T O.5.p.K.P.p.:.-.=. X5X.X#X<X-X<X<X2X2X<X-X=XE.p.f.r.@.#.p.:.&.@.1 i 1 q bX+ eXKXKXKXKXKXKXKXKXKXKXKXGXIX{ $ @ 9 M @.e.g.x.f.p.p.a.s.s.s.g.s.K.#X-X-X=X=X-X-X2X-X=X-X-X=X-X-X-X-X=X-X-X<X X=X2X-X&XH..X&X%X&X*X.X.X%XK.p. Xp.p.a.p.p.p.p.p.p.f.f.a.f.f.f.f.f.f.s.s.p.C - o 5 uXKXKXKXKXKXKXKXKXKXKXKXKXKXKXKXKXKXKXKXKXKXKXKXKXKXKXKXKXKXKXKXKXKXKXKXKXKXKXKXKXKXKXKXKXKXKXKXKXKXKXKXKXKXKXKXKXKXKX",
"KXKXKXKXKXKXKXKXKXKXKXKXKXKXKXKXKXKXKXKXKXKXKXKXKXKXKXKXKXKXKXKXKXKXKXKXKXKXKXKXKXKXKXKXKXKXKXKXKXKXKXKXKXKXKXKXKXfXo - P T z O.p.x.L.2.T =.e.XX3XI. X2X=X<X-X<X<X<X-X2XXXJ.U.p.4.@.:.y.=.#.#.1 1 ; 5 JXrX_ KXKXKXKXKXKXKXKXKXKXKXbXw o - s U =.s.x.r.5.5.f.K. X%X&X*X=X=X#X.X=X=X=X-X-X-X2X-X-X-X=X-X=X-X-X-X*X=X-X-X%X%X2X-X=XP.&X&X%X&X&X+X.X%Xk.r.x.g.p.f.p.p.p.p.a.f.a.f.f.p.p.f.f.s.s.s.a.s.x.-.p @ o ( VXKXKXKXKXKXKXKXKXKXKXKXKXKXKXKXKXKXKXKXKXKXKXKXKXKXKXKXKXKXKXKXKXKXKXKXKXKXKXKXKXKXKXKXKXKXKXKXKXKXKXKXKXKXKXKXKX",
"KXKXKXKXKXKXKXKXKXKXKXKXKXKXKXKXKXKXKXKXKXKXKXKXKXKXKXKXKXKXKXKXKXKXKXKXKXKXKXKXKXKXKXKXKXKXKXKXKXKXKXKXKXKXKXKXKX) . s O.l l 4.f.K.-.T #.r..X2XU.L.2X<X-X-X<X<X-X-X2X-XJ..XU.p.=.#.=.r.#.$.#.2 - * 4 FXKXbXKXKXKXKXKXKXKXKXKXKXpX# @ 7 T @.#.p.c.r.4.i.|.&X-X-X-X=X=X-X-X2X2X=X=X=X-X-X-X-X:X-X-X=X=X-X=X-X2X X*X=X=X&X%X2X-X=XE.;X=X%X&X&XE.&X|.k.p.a.a.p.p.p.p.p.a.a.a.a.f.f.f.f.f.f.s.f.f.p.p.f.c.5.C ; o > rXKXKXKXKXKXKXKXKXKXKXKXKXKXKXKXKXKXKXKXKXKXKXKXKXKXKXKXKXKXKXKXKXKXKXKXKXKXKXKXKXKXKXKXKXKXKXKXKXKXKXKXKXKXKXKX",
"KXKXKXKXKXKXKXKXKXKXKXKXKXKXKXKXKXKXKXKXKXKXKXKXKXKXKXKXKXKXKXKXKXKXKXKXKXKXKXKXKXKXKXKXKXKXKXKXKXKXKXKXKXKXKXKXCX- - M z i @.p.d.$.T #.p.XX2X Xc.=X2X-X-X-X<X<X-X-X2X.X.X=Xg.p.:.2.#.5.#.#.:.7 - - , VXKXKXKXKXKXKXKXKXKXKXKXpX+ @ 9 @.=.-.p.e.1.5.p.g.K.L.L.P.T.&X=X-X=X=X=X-X-X-X-X-X-X-X-X-X=X=X-X=X-X-X2X&X&X=X=X*X%X<X-X=X.X&X-X&X&X-XP.I.|.V.p.r.5.f.a.f.p.p.a.p.p.f.f.f.f.a.a.f.f.f.a.a.r.1.p.f.p.w.a @ o S mXKXKXKXKXKXKXKXKXKXKXKXKXKXKXKXKXKXKXKXKXKXKXKXKXKXKXKXKXKXKXKXKXKXKXKXKXKXKXKXKXKXKXKXKXKXKXKXKXKXKXKXKXKX",
"KXKXKXKXKXKXKXKXKXKXKXKXKXKXKXKXKXKXKXKXKXKXKXKXKXKXKXKXKXKXKXKXKXKXKXKXKXKXKXKXKXKXKXKXKXKXKXKXKXKXKXKXKXKXKXKXeXo 7 g u l 5.s.-.T T w..X:X&Xs. X4X2X:X2X-X2X2X2X-X-X&X2XXXf.e.5.4.@.=.#.#.#.7 - : * fXKXKXKXKXKXKXKXKXKXKXfX@ ; d J s l 1.$.T T 4.s.s.f.K.E.T. X.X*X=X=X=X-X-X-X-X-X-X-X-X-X-X-X=X=X-X=X=X-X*X&X-X-X=X&X<X=X=X&X&X=X#X=X=X|.5.|.XXy.f.p.f.f.f.p.a.p.p.a.a.f.f.a.a.a.a.f.a.a.f.f.5.=.p.f.p.p.C : + > yXKXKXKXKXKXKXKXKXKXKXKXKXKXKXKXKXKXKXKXKXKXKXKXKXKXKXKXKXKXKXKXKXKXKXKXKXKXKXKXKXKXKXKXKXKXKXKXKXKXKXKXKX",
"KXKXKXKXKXKXKXKXKXKXKXKXKXKXKXKXKXKXKXKXKXKXKXKXKXKXKXKXKXKXKXKXKXKXKXKXKXKXKXKXKXKXKXKXKXKXKXKXKXKXKXKXKXKXKXKX( o 2 i y T s.e.L -.2.I.-X%XK.s.&X2X-X2X2X<X-X-X2X2X-X<X2XU.y.4.J.1.@.#.@.O.#.s @ ( % eXKXKXKXKXKXKXKXKXKXFX0 * : p ; 1 T #.@.-.p.f.s.P..X&X=X-X-X=X=X*X=X-X-X-X-X*X-X-X-X-X-X-X-X-X=X-X-X-X=X=X%X-X-X=X&X=X=X=X=X=X#XI.-X=X Xr.r.oXy.f.f.f.f.f.a.a.f.p.f.f.a.a.a.f.a.f.f.f.f.a.p.f.e.=.e.:.t.r.@.p @ o } KXKXKXKXKXKXKXKXKXKXKXKXKXKXKXKXKXKXKXKXKXKXKXKXKXKXKXKXKXKXKXKXKXKXKXKXKXKXKXKXKXKXKXKXKXKXKXKXKXKXKX",
"KXKXKXKXKXKXKXKXKXKXKXKXKXKXKXKXKXKXKXKXKXKXKXKXKXKXKXKXKXKXKXKXKXKXKXKXKXKXKXKXKXKXKXKXKXKXKXKXKXKXKXKXKXKXKXHX< > Q 1 d -.5.O.@.i.p.*X%XK.g.I.2X-X-X=X<X2X<X<X2X2X2X2X=Xc.5.p.J.;.@.#.@.T #.P * S eX( KXKXKXKXKXKXKXKXKX`   - - - 7 #.#.T -.H.x.f.XX-X-X=X&X=X=X=X=X-X=X*X=X*X=X-X-X-X-X-X-X-X-X-X-X-X-X-X=X-X%X-X-X-X=X=X=X&X=X-X&Xf.&X=X Xa.f.U.f.p.a.a.a.f.f.f.a.a.p.p.a.a.a.f.a.a.f.f.p.p.f.f.s.1.;.5.#.-.:.#.k - . ` LXKXKXKXKXKXKXKXKXKXKXKXKXKXKXKXKXKXKXKXKXKXKXKXKXKXKXKXKXKXKXKXKXKXKXKXKXKXKXKXKXKXKXKXKXKXKXKXKXKX",
"KXKXKXKXKXKXKXKXKXKXKXKXKXKXKXKXKXKXKXKXKXKXKXKXKXKXKXKXKXKXKXKXKXKXKXKXKXKXKXKXKXKXKXKXKXKXKXKXKXKXKXKXKXKXKXjX# gXW @ M #.O.T e.p.P.*Xf.|.K.#X2X:X X.X:X-X-X-X-X-X-X2X XH.K.L.f.=.=.=.@.@.@.#.p . tXfXZXKXKXKXKXKXKXKXfX< ` 0 + - T @.@.=.f.s.x.&X:X-X-X=X&X=X-X-X-X-X-X-X*X*X=X=X-X-X-X-X-X=X-X-X-X-X-X-X-X-X&X-X-X-X-X=X=X%X-X<X#Xy.I.-X Xa.f.f.f.f.f.f.f.f.f.a.a.a.p.p.a.a.a.a.a.a.f.a.p.p.f.f.a.p.-.f.t.#.#.-.;.P - o ) KXKXKXKXKXKXKXKXKXKXKXKXKXKXKXKXKXKXKXKXKXKXKXKXKXKXKXKXKXKXKXKXKXKXKXKXKXKXKXKXKXKXKXKXKXKXKXKXKX",
"KXKXKXKXKXKXKXKXKXKXKXKXKXKXKXKXKXKXKXKXKXKXKXKXKXKXKXKXKXKXKXKXKXKXKXKXKXKXKXKXKXKXKXKXKXKXKXKXKXKXKXKXKXKXKXfXbXfXO 1 T O.P U s.x. Xg.2.#XI.-X2X.XI.2X-X-X-X-X=X-X2X*XL.P..XP.r.#.1.;.#.$.@.:.C o 5 ZXKXKXKXKXKXKXKXKXbXVX} @ ; G T T @.p.s.g.-X3X-X*X*X&X=X=X=X=X*X=X-X-X=X=X=X=X=X=X-X-X-X-X-X-X-X-X&X-X-X-X-X-X-X=X-X=X=X&X-X-X.Xp.k.=XI.a.a.a.a.f.f.p.a.f.f.a.a.a.a.p.a.f.a.a.a.a.a.a.p.p.a.f.a.f.4.r.g.d.e.1.1.:.R ; o ` KXKXKXKXKXKXKXKXKXKXKXKXKXKXKXKXKXKXKXKXKXKXKXKXKXKXKXKXKXKXKXKXKXKXKXKXKXKXKXKXKXKXKXKXKXKXKXKX",
"KXKXKXKXKXKXKXKXKXKXKXKXKXKXKXKXKXKXKXKXKXKXKXKXKXKXKXKXKXKXKXKXKXKXKXKXKXKXKXKXKXKXKXKXKXKXKXKXKXKXKXKXKXKXKXKXKX) o k @.U : T x.P.E.@.j.-X#X2X.XK.2X2X-X=X-X-X-X2X4X Xg..X*Xx.p.#.e.;.@.#.#.@.@.3 @ S GXKXKXKXKXKXKXKXKX` + 7 M l U T 9.f.p.U.U.g.H.K. X#X=X=X*X-X=X=X=X=X-X=X=X=X=X-X-X-X-X-X-X2X2X2XXX*X=X-X-X-X-X=X=X&X<X-X=X=XI.a.s.;XU.p.p.p.f.f.f.p.p.f.f.a.a.a.a.a.a.a.a.a.a.a.a.p.p.a.p.f.f.f.p.r.f.f.r.p.d.4.1.*.- o '.KXKXKXKXKXKXKXKXKXKXKXKXKXKXKXKXKXKXKXKXKXKXKXKXKXKXKXKXKXKXKXKXKXKXKXKXKXKXKXKXKXKXKXKXKXKXKX",
"KXKXKXKXKXKXKXKXKXKXKXKXKXKXKXKXKXKXKXKXKXKXKXKXKXKXKXKXKXKXKXKXKXKXKXKXKXKXKXKXKXKXKXKXKXKXKXKXKXKXKXKXKXKXKXKXBX5 @ T @.; 9 9.f.P.e.T .X-X2X4XP..X4X-X-X-X2X2X-X2X&XP.$X-XP.s.f.-.p.-.@.#.#.@.#.T 1 * r jXKXKXKXKXKXfXr + 1 y d T @.9.p.;.w.p.5.p. X&X-X-X=X=X=X-X-X=X=X=X=X=X=X=X=X-X-X=X-X-X-X<X:X<XT.*X-X-X<X-X=X*X-X X#X2X=X=XK.p.s..Xg.p.p.p.p.a.f.p.a.a.f.f.a.a.a.a.a.a.f.a.a.f.a.a.a.a.a.a.p.f.p.f.f.s.e.$.p.x.1.4.I @ @ fXKXKXKXKXKXKXKXKXKXKXKXKXKXKXKXKXKXKXKXKXKXKXKXKXKXKXKXKXKXKXKXKXKXKXKXKXKXKXKXKXKXKXKXKXKXKX",
"KXKXKXKXKXKXKXKXKXKXKXKXKXKXKXKXKXKXKXKXKXKXKXKXKXKXKXKXKXKXKXKXKXKXKXKXKXKXKXKXKXKXKXKXKXKXKXKXKXKXKXKXKXKXKXKXdX. 9 @.7 * P e.p.r.O.9.-X=X2X#XL.2X-X-X<X-X-X2X-X=X.X-X3X#Xs.g.f.w.s.9.@.#.@.@.#.=.T : o @ ( tXsXtX( + @ - ; s T $.5.p.#.=.p.r.K.&X-X-X-X=X=X=X=X-X=X-X=X-X-X=X=X-X-X-X-X-X=X<X-X=X-X-XP.&X&X-X<X-X=X=X<X#XK.-X-X=Xk.p.f.U.f.p.p.p.p.p.p.a.a.p.a.a.a.a.a.a.p.a.f.f.a.a.a.a.a.a.a.p.p.a.f.f.f.a.s.1.@.e.g.#.r.v + e GXKXKXKXKXKXKXKXKXKXKXKXKXKXKXKXKXKXKXKXKXKXKXKXKXKXKXKXKXKXKXKXKXKXKXKXKXKXKXKXKXKXKXKXKXKX",
"KXKXKXKXKXKXKXKXKXKXKXKXKXKXKXKXKXKXKXKXKXKXKXKXKXKXKXKXKXKXKXKXKXKXKXKXKXKXKXKXKXKXKXKXKXKXKXKXKXKXKXKXKXKXKXKX .o s 7 @ 2 @.a.w.#.T j.2X=X&XH.$X2X-X-X-X-X-X2X-X-X<X2X3X Xs.f.p.p.x.r.@.@.@.@.@.@.=.T 8 - @ + . . o - : a P #.@.&.2.@.;.a.5.U.-X-X*X-X-X=X-X*X*X=X=X-X-X-X=X=X=X-X2X-X-X<X&X X<X=X*X-XP..X#X-X-X-X=X<X<X1Xg.g.=X-Xg.p.f.p.p.a.p.p.p.p.p.a.a.p.p.a.a.a.f.a.a.a.f.a.a.a.a.a.a.f.a.a.p.f.a.f.f.f.f.a.&.U 9.p.:.r.3 .  .KXKXKXKXKXKXKXKXKXKXKXKXKXKXKXKXKXKXKXKXKXKXKXKXKXKXKXKXKXKXKXKXKXKXKXKXKXKXKXKXKXKXKXKXKX",
"KXKXKXKXKXKXKXKXKXKXKXKXKXKXKXKXKXKXKXKXKXKXKXKXKXKXKXKXKXKXKXKXKXKXKXKXKXKXKXKXKXKXKXKXKXKXKXKXKXKXKXKXKXKXKXKX( @ : @ @ d 4.s.@.=.U }.2X=XK.g.=X-X-X=X=X-X-X-X<X-X<X-X-XL.x.s.g.a.s.f.#.=.$.@.#.#.@.@.#.U d 2 7 a l U @.#.@.O.@.@.T =.s.p.I.-X=X=X*X*X=X=X-X-X=X*X=X-X-X=X-X-X-X=X-X-X-X=X-XI.T.-X=X=XI. XXX-X=X=X-X<X<X=XV.r.I.2Xx.p.p.p.p.p.p.p.p.p.p.a.a.p.p.p.a.a.a.a.a.a.a.a.a.a.a.a.a.a.a.a.a.f.a.f.f.f.p.s.w.T s p.5.1.*.@ > CXKXKXKXKXKXKXKXKXKXKXKXKXKXKXKXKXKXKXKXKXKXKXKXKXKXKXKXKXKXKXKXKXKXKXKXKXKXKXKXKXKXKXKXKX",
"KXKXKXKXKXKXKXKXKXKXKXKXKXKXKXKXKXKXKXKXKXKXKXKXKXKXKXKXKXKXKXKXKXKXKXKXKXKXKXKXKXKXKXKXKXKXKXKXKXKXKXKXKXKXKXKXA @ - - @ z w.1.@.;.N oX2XU.p.I.<X-X<X&X<X-X-X<X-X-X-X=X$Xx.x.XXk.p.f.g.=.;.4.@.#.@.@.#.#.=.#.U N L O.@.@.O.@.@.@.T =.p.r.U.2X=X=X=X-X*X=X-X-X=X-X=X-X-X-X*X=X-X-X-X-X<X-X=X-X&Xg. X-X=XP.I.I.=X=X-X#X-X-X<XU.f.f.#XU.p.f.p.p.p.p.p.a.p.a.a.a.a.p.a.p.p.p.a.a.f.a.f.a.a.a.a.a.a.p.a.a.a.f.f.f.a.p.f.f.;.U a s.:.r.k o { KXKXKXKXKXKXKXKXKXKXKXKXKXKXKXKXKXKXKXKXKXKXKXKXKXKXKXKXKXKXKXKXKXKXKXKXKXKXKXKXKXKXKXKX",
"KXKXKXKXKXKXKXKXKXKXKXKXKXKXKXKXKXKXKXKXKXKXKXKXKXKXKXKXKXKXKXKXKXKXKXKXKXKXKXKXKXKXKXKXKXKXKXKXKXKXKXKXKXKXKXJXq + A 6 ; U $.T -.=.U *X|.=.x.#X2X-X.XXX2X<X-X-X-X-X-X-X.Xs.I.=Xa.f.f.g.w.=.a.@.#.#.#.#.@.#.#.#.#.@.@.#.@.@.@.@.O.#.r.r.K.2X2X-X=X=X*X-X=X=X=X=X-X-X-X-X-X-X-X*X-X2X#X$X-X=X=X-XT.H.XX<XI.J.L.&X-X2XXXXX<X<XXXf.g.k.K.p.a.f.a.p.p.p.p.a.a.p.a.a.f.f.p.p.p.p.a.a.p.a.a.a.a.a.a.p.p.a.a.a.a.a.f.f.f.f.s.e.-.p k f.4.9.@ < BXKXKXKXKXKXKXKXKXKXKXKXKXKXKXKXKXKXKXKXKXKXKXKXKXKXKXKXKXKXKXKXKXKXKXKXKXKXKXKXKXKXKXKX",
"KXKXKXKXKXKXKXKXKXKXKXKXKXKXKXKXKXKXKXKXKXKXKXKXKXKXKXKXKXKXKXKXKXKXKXKXKXKXKXKXKXKXKXKXKXKXKXKXKXKXKXKXKXKXKXGX5 e rX@ p @.T T 1.#.&.-X%.4.L.=X=X<XI.=X2X-X-X-X-X2X<X2XXXf.=X.Xa.f.f.f.f.=.a.w.#.$.#.#.@.@.@.@.@.@.@.#.#.@.@.#.w.p.r.U.<X-X X.X-X=X=X=X=X=X=X-X-X-X-X-X-X-X-X-X-X=X<XI.XX<X=X-X$XJ.H.#XXXH.J..X2X<XXXp.#X3X=Xs.f.f.f.p.f.a.a.f.f.p.f.a.f.f.p.a.f.a.a.f.a.f.a.a.a.a.a.a.a.a.a.f.a.a.a.f.a.a.a.f.f.f.f.p.$.U + -.y.f.x . eXKXKXKXKXKXKXKXKXKXKXKXKXKXKXKXKXKXKXKXKXKXKXKXKXKXKXKXKXKXKXKXKXKXKXKXKXKXKXKXKXKXKXKX",
"KXKXKXKXKXKXKXKXKXKXKXKXKXKXKXKXKXKXKXKXKXKXKXKXKXKXKXKXKXKXKXKXKXKXKXKXKXKXKXKXKXKXKXKXKXKXKXKXKXKXKXKXKXKXKXLX0 gX|   k #.O.U e.;.t.}.X.f.P.=X=X=X.X<X-X-X-X-X2X2X<X2X XP.2X Xp.f.a.p.f.1.r.f.;.#.2.;.@.@.@.@.@.@.@.@.$.-.5.p.p.p.V.|.K.p.I.-X=X-X-X-X=X=X=X-X-X*X-X-X-X-X-X-X=X=X=X&XP.XX=X<X=XL.J.P.XXH.H.E.<X=X.Xp.g.=X<Xk.f.f.f.f.f.a.a.f.f.f.f.p.f.f.a.p.p.a.f.f.a.f.a.p.a.f.f.a.a.a.s.s.a.f.s.f.f.a.a.f.f.p.p.a.2.#.s 1 i.p.R o S KXKXKXKXKXKXKXKXKXKXKXKXKXKXKXKXKXKXKXKXKXKXKXKXKXKXKXKXKXKXKXKXKXKXKXKXKXKXKXKXKXKXKX",
"KXKXKXKXKXKXKXKXKXKXKXKXKXKXKXKXKXKXKXKXKXKXKXKXKXKXKXKXKXKXKXKXKXKXKXKXKXKXKXKXKXKXKXKXKXKXKXKXKXKXKXKXKXKXKXJXtXKXA @ C #.l z p.&.7.9.=.x. X2X.X*X2X<X<X-X-X:X2X2X2X-X X.X2X Xf.s.x.a.p.p.p.f.a.=.@.p.-.@.@.9.-.@.T O.#.&.2.p.p.p.f.p.y.I.2X:X-X-X-X-X=X=X-X-X-X>X-X=X-X-X-X-X=X-X=X.X$XP.T.&X<XE.J.x.K.K.H.K.&X<X#Xa.a.f.&X Xp.s.s.a.a.p.a.a.a.f.a.p.a.f.f.f.a.f.a.p.a.p.p.a.f.a.s.s.a.s.s.f.f.f.a.a.a.a.f.f.a.p.p.a.r.@.U @ C 5.r.: @ bXKXKXKXKXKXKXKXKXKXKXKXKXKXKXKXKXKXKXKXKXKXKXKXKXKXKXKXKXKXKXKXKXKXKXKXKXKXKXKXKXKXKX",
"KXKXKXKXKXKXKXKXKXKXKXKXKXKXKXKXKXKXKXKXKXKXKXKXKXKXKXKXKXKXKXKXKXKXKXKXKXKXKXKXKXKXKXKXKXKXKXKXKXKXKXKXKXKXKXKXKXBX, - P P - J p.-.T @.1.H..X2XL.=X2X-X-X-X-X2X2X:X-X2X#X=X2XXXf.x.oXp.a.f.f.s.c.f.#.1.x.w.@.#.s.y.9.1.4.1.w.p.p.p.p.f. X-X-X:X-X-X-X=X-X-X-X-X-X-X-X-X-X=X-X-X=X-X-X=X=XI.I.H.&XXXK.L.g.g.J.H. X-X=Xg.a.f.f.|.k.f.s.a.p.a.a.f.f.f.f.f.a.f.f.f.f.f.a.a.p.f.f.a.a.a.a.a.f.g.f.f.a.f.f.p.a.a.a.f.f.a.a.p.f.&.@.9 - $.H.v . eXKXKXKXKXKXKXKXKXKXKXKXKXKXKXKXKXKXKXKXKXKXKXKXKXKXKXKXKXKXKXKXKXKXKXKXKXKXKXKXKXKXKX",
"KXKXKXKXKXKXKXKXKXKXKXKXKXKXKXKXKXKXKXKXKXKXKXKXKXKXKXKXKXKXKXKXKXKXKXKXKXKXKXKXKXKXKXKXKXKXKXKXKXKXKXKXKXKXKXKXKXjX+ ; U 1 - @.s.2.O.@.r.H.&X Xp.%X-X-X-X<X-X-X2X-X:X2X-X=X2X.Xs.K.1Xf.p.f.f.s.s.f.s.5.f.x.p.4.4.f.p.a.s.s.a.p.y.r.K.&X2X-X-X-X-X-X=X=X-X-X-X-X-X-X-X=X=X=X=X-X-X-X-X=X-X|.g.K.K.$XP.I.J.p.H.g.K.$X<XI.p.f.a.p.s.a.f.a.a.a.a.f.f.a.a.a.p.a.f.f.a.a.a.a.f.f.a.f.a.a.a.a.f.s.f.f.f.a.f.f.a.a.f.a.a.f.a.f.f.9.@.z o C J.*.. ( KXKXKXKXKXKXKXKXKXKXKXKXKXKXKXKXKXKXKXKXKXKXKXKXKXKXKXKXKXKXKXKXKXKXKXKXKXKXKXKXKXKX",
"KXKXKXKXKXKXKXKXKXKXKXKXKXKXKXKXKXKXKXKXKXKXKXKXKXKXKXKXKXKXKXKXKXKXKXKXKXKXKXKXKXKXKXKXKXKXKXKXKXKXKXKXKXKXKXKXKXsXo p z @ 7 =.x.2.@.@.p.H.&Xf.4.&X2X=X=X2X-X-X2X-X-X2X3X=X&X&XH.U.2X|.p.f.p.K.s.a.f.s.f.a.a.a.a.f.p.p.f.p.g.U.|.$X2X-X=X-X-X-X-X-X-X-X-X-X-X-X-X-X:X-X=X=X=X<X-X-X&X=X=X&Xh.P.g. X XP.L.p.e.f.g.P.:X.Xp.a.p.a.a.s.s.a.a.f.f.a.f.a.a.f.a.p.f.f.f.a.a.a.f.a.f.f.f.s.a.f.f.g.f.f.f.f.a.f.a.a.f.a.a.f.s.f.p.r.@.U $ 1 a.e.@ 0 HXKXKXKXKXKXKXKXKXKXKXKXKXKXKXKXKXKXKXKXKXKXKXKXKXKXKXKXKXKXKXKXKXKXKXKXKXKXKXKXKXKX",
"KXKXKXKXKXKXKXKXKXKXKXKXKXKXKXKXKXKXKXKXKXKXKXKXKXKXKXKXKXKXKXKXKXKXKXKXKXKXKXKXKXKXKXKXKXKXKXKXKXKXKXKXKXKXKXKXKXuX+ p 2 @ p =.p.$.@.#.p.P..X5.4.*X2X X-X-X-X-X-X-X-X-X2X=XoX2XI. X2X#Xs.g.p. XI.p.f.f.p.f.p.f.f.a.f.f.p.p.g.|..X.X&X<X-X-X-X=X-X-X-X-X-X-X<X-X-X-X:X<X=X<X-X-X-X<X.X.X=X-X XK.P.H.K.P.P.g.w.r.H.J.T.*XK.p.a.a.a.f.f.p.a.a.a.a.f.a.a.a.a.a.f.f.f.a.f.f.a.f.a.s.s.s.f.s.s.s.g.f.f.a.a.f.f.a.a.f.f.g.g.f.r.p.&.@.7 + &.g.9 + cXKXKXKXKXKXKXKXKXKXKXKXKXKXKXKXKXKXKXKXKXKXKXKXKXKXKXKXKXKXKXKXKXKXKXKXKXKXKXKXKXKX",
"KXKXKXKXKXKXKXKXKXKXKXKXKXKXKXKXKXKXKXKXKXKXKXKXKXKXKXKXKXKXKXKXKXKXKXKXKXKXKXKXKXKXKXKXKXKXKXKXKXKXKXKXKXKXKXKXKXyX+ : - @ p =.r.@.@.&.s.I.T.4.-.-X.XI.2X=X-X-X-X-X-X2X-X2X2X2X.X.X<X2XI.a.p.U.<Xf.p.s.p.I.U.p.a.a.x.#X Xg.f.s.s.K.#X<X-X=X<X-X-X=X-X-X=X-X-X-X-X-X-X<X*X.X<X<X-X2X&XY..X-X.XK.T.K.f.H.T.P.p.1.g.K.g.K..Xa.f.f.f.f.a.a.a.a.p.a.a.a.a.a.a.a.s.f.f.f.s.f.f.f.f.s.s.s.f.s.s.f.f.f.p.a.f.f.f.s.f.s.s.s.f.f.f.e.1.@.z @ l J.k . rXKXKXKXKXKXKXKXKXKXKXKXKXKXKXKXKXKXKXKXKXKXKXKXKXKXKXKXKXKXKXKXKXKXKXKXKXKXKXKXKXKX",
"KXKXKXKXKXKXKXKXKXKXKXKXKXKXKXKXKXKXKXKXKXKXKXKXKXKXKXKXKXKXKXKXKXKXKXKXKXKXKXKXKXKXKXKXKXKXKXKXKXKXKXKXKXKXKXKXKXyX+ ; ; - s 1.w.@.@.-.x.L.H.-.O.=XK.I.2X-X-X-X-X:X:X2X:X-X-X:X&X.X2X2X=Xg.f.g.-X=Xg.f.f.g.<X Xs.p.p.K.1X-X=X<X=X=X-X=X=X=X-X=X=X-X-X-X-X-X-X-X-X-X-X-X2X.XP.&X2X2X-XXXP.$X=XP.Y.P.f.f.T.T.f.2.e.H.g.p.P.P.a.s.s.a.f.f.f.a.a.a.a.a.p.p.a.a.f.f.f.s.s.s.f.s.f.s.s.f.g.g.s.f.s.g.e.s.s.f.f.f.a.f.s.f.f.f.x.5.2.@.U - : g.R . ) KXKXKXKXKXKXKXKXKXKXKXKXKXKXKXKXKXKXKXKXKXKXKXKXKXKXKXKXKXKXKXKXKXKXKXKXKXKXKXKXKX",
"KXKXKXKXKXKXKXKXKXKXKXKXKXKXKXKXKXKXKXKXKXKXKXKXKXKXKXKXKXKXKXKXKXKXKXKXKXKXKXKXKXKXKXKXKXKXKXKXKXKXKXKXKXKXKXKXKXdX@ q W @ l ;.=.T T -.x.x.f.#.#.&Xx. X2X2X-X=X-X2X-X-X-X-X-X-X-X&X2X<X2X#Xg.s.&X2X=XK.p.p. X4X=X XK.s.x. X-X<X-X=X=X=X=X-X1X=X-X-X-X-X-X-X2X-X-X-X-X-X=X=XT.g.#X2X2X.XJ.T.=XT.P.P.h.e.K.P.g.1.2.f.g.p.J.H.s.s.f.f.s.s.a.a.a.a.a.a.f.p.a.f.f.f.a.f.f.f.f.s.f.f.s.s.s.s.g.s.s.g.-.i.s.f.a.f.f.f.g.s.f.f.s.r.&.%.@.1 @ 9.i.@ 4 HXKXKXKXKXKXKXKXKXKXKXKXKXKXKXKXKXKXKXKXKXKXKXKXKXKXKXKXKXKXKXKXKXKXKXKXKXKXKXKXKX",
"KXKXKXKXKXKXKXKXKXKXKXKXKXKXKXKXKXKXKXKXKXKXKXKXKXKXKXKXKXKXKXKXKXKXKXKXKXKXKXKXKXKXKXKXKXKXKXKXKXKXKXKXKXKXKXKXKXbXo } { o z @.@.k U 1.x.s.p.O.5.oXs.T.2X-X=X#X-X2X<X-X-X-X2X-X-X2X<X-X-X2X&Xs. X2X-X1X|.f.p.#X3X2X<X1X=X&X-X-X-X-X-X-X-X-X-X-X#X.X:X-X-X2X2X-X-X-X-X-X=X-XXXa.J.=X3X#Xg.g.T.XXP.L.g.-.r.K.K.d.1.r.L.p.p.g.f.f.f.f.s.s.a.a.a.a.f.f.f.f.f.f.f.a.f.a.p.p.a.f.f.s.s.s.g.g.g.f.s.g.$.1.g.a.a.f.f.s.s.f.f.f.f.f.&.#.$.a + R P.a . yXKXKXKXKXKXKXKXKXKXKXKXKXKXKXKXKXKXKXKXKXKXKXKXKXKXKXKXKXKXKXKXKXKXKXKXKXKXKXKXKX",
"KXKXKXKXKXKXKXKXKXKXKXKXKXKXKXKXKXKXKXKXKXKXKXKXKXKXKXKXKXKXKXKXKXKXKXKXKXKXKXKXKXKXKXKXKXKXKXKXKXKXKXKXKXKXKXKXKXHX# bX} o k @.T : L 1.g.f.1.O.a.K.f.I.:X2X.X.X2X-X-X2X-X-X-X-X-X-X-X-X-X-X2X=XK.=X<X=X2X=XI.K.=X-X-X<X2X-X-X-X-X=X-X-X-X=X-X&XK.-X2X-X-X-X<X-X-X-X-X<X=X=X1XK.J.H.=X=XL.g.V.T.R.L.J.p.#.g.K.H.4.2.g.H.4.r.s.f.s.s.s.f.a.s.a.a.a.a.f.f.a.f.f.a.f.f.p.a.a.f.f.f.f.s.g.g.g.f.f.g.#.-.g.f.f.f.f.f.g.f.s.s.f.g.1.@.=.l o k P.R . r JXKXKXKXKXKXKXKXKXKXKXKXKXKXKXKXKXKXKXKXKXKXKXKXKXKXKXKXKXKXKXKXKXKXKXKXKXKXKXKX",
"KXKXKXKXKXKXKXKXKXKXKXKXKXKXKXKXKXKXKXKXKXKXKXKXKXKXKXKXKXKXKXKXKXKXKXKXKXKXKXKXKXKXKXKXKXKXKXKXKXKXKXKXKXKXKXKXKXJX| KX} o k $.v @ T &.f.r.:.#.f.g.f.K.2X3X.X X2X-X-X<X-X-X-X-X-X-X-X<X-X-X-X<X-X&X<X<X<X-X2X;X&X-X-X-X-X-X-X<X-X=X-X=X-X-X-XK. X2X-X-X-X-X<X2X-X-X2X-X=X=X2X|.x.K.K.&XK.H.J.J.T.P.J.H.#.1.K.g.r.-.p.H.g.p.s.s.a.f.s.s.a.a.a.a.a.a.f.f.f.f.a.f.a.f.s.a.f.f.a.f.f.f.g.g.f.f.s.h.*.&.f.f.f.f.f.s.s.s.g.g.f.g.t.*.&.P @ 7 g.h.3 o eXKXKXKXKXKXKXKXKXKXKXKXKXKXKXKXKXKXKXKXKXKXKXKXKXKXKXKXKXKXKXKXKXKXKXKXKXKXKXKX",
"KXKXKXKXKXKXKXKXKXKXKXKXKXKXKXKXKXKXKXKXKXKXKXKXKXKXKXKXKXKXKXKXKXKXKXKXKXKXKXKXKXKXKXKXKXKXKXKXKXKXKXKXKXKXKXKXKXKXJXKX| . s :.p @ P T p.r.:.O.d.f.f.g.-X2X XT.-X-X2X2X-X-X-X-X-X-X=X-X-X<X-X-X2X<X<X=X-X-X;X<X<X-X<X<X-X2X-X<X<X-X-X<X=X-XI.g.=X2X2X<X-X-X2X-X-X2X<X<X-X2X2X#XH.H.g. XI.J.L.H.K.P.H.J.#.T g.g.i.4.r.H.g.g.f.f.f.f.s.a.s.s.a.a.f.a.a.f.f.f.a.f.f.f.f.a.f.f.a.f.f.f.f.f.f.f.s.i.T *.r.p.s.s.s.s.s.g.g.g.f.s.d.#.&.T - - e.P.P + > nXKXKXKXKXKXKXKXKXKXKXKXKXKXKXKXKXKXKXKXKXKXKXKXKXKXKXKXKXKXKXKXKXKXKXKXKXKXKX",
"KXKXKXKXKXKXKXKXKXKXKXKXKXKXKXKXKXKXKXKXKXKXKXKXKXKXKXKXKXKXKXKXKXKXKXKXKXKXKXKXKXKXKXKXKXKXKXKXKXKXKXKXKXKXKXKXKXKXKXKXeX. s O.; $ M T w.e.#.Y r.f.s.s..X2XP.P.<X-X-X<X-X-X-X-X-X-X-X=X<X-X<X-X-X-X-X<X-X<X=X<X-X-X2X-X2X2X-X-X2X2X-X=X:X$Xp.U.2X-X-X-X-X-X-X-X2X2X2X-X2XoX1X3XP.g.H.L.Y.L.L.p.J.J.H.J.-.N 1.f.i.f.5.g.f.f.f.f.s.s.s.s.s.s.f.f.s.f.f.a.f.a.f.f.f.a.a.f.f.f.f.s.s.f.f.f.s.f.f.e.P O.1.f.g.g.s.s.s.x.g.f.f.s.f.-.$.@.: $ @.L.r.a O A GXKXKXKXKXKXKXKXKXKXKXKXKXKXKXKXKXKXKXKXKXKXKXKXKXKXKXKXKXKXKXKXKXKXKXKXKXKX",
"KXKXKXKXKXKXKXKXKXKXKXKXKXKXKXKXKXKXKXKXKXKXKXKXKXKXKXKXKXKXKXKXKXKXKXKXKXKXKXKXKXKXKXKXKXKXKXKXKXKXKXKXKXKXKXKXKXKXKXKXgX+ 7 k - - l T #.1.@.l r.x.p.a.I.2XI.P.=X<X2X-X&X-X2X-X-X-X-X-X<X2X2X-X-X-X-X-X<X-X-X-X-X-X-X-X<X-X-X<X-X<X X&X2XK.p. X:X-X-X=X-X-X=X-X-X-X-X-X2XoX4..XXXV.g.L.J.J.L.p.r.J.J.K.e.M @.e.r.H.i.p.f.f.f.f.s.s.s.s.f.f.s.s.f.f.f.f.a.f.s.s.s.a.a.s.f.f.f.f.g.g.g.g.f.f.g.-.l T 4.x.s.s.s.s.s.g.g.g.s.s.g.-.&.$.1 @ M h.f.r.x o ) KXKXKXKXKXKXKXKXKXKXKXKXKXKXKXKXKXKXKXKXKXKXKXKXKXKXKXKXKXKXKXKXKXKXKXKXKX",
"KXKXKXKXKXKXKXKXKXKXKXKXKXKXKXKXKXKXKXKXKXKXKXKXKXKXKXKXKXKXKXKXKXKXKXKXKXKXKXKXKXKXKXKXKXKXKXKXKXKXKXKXKXKXKXKXKXKXKXKXBX, ; 1 - - s T T T -.U 5.x.r.p.s.-XI.K. X2X2X-X.X=X2X-X-X:X-X-X-X2X2X2X-X-X-X-X-X-X<X-X-X-X-X-X-X-X-X-X-X=XK.=X#Xs.f..X2X-X-X=X-X-X-X=X-X-X2X2X2X2X|.f.U.E.J.H.H.J.K.g.@.d.K.K.i.J O.=.5.x.f.p.f.s.s.f.f.s.s.g.f.g.g.f.f.f.s.f.f.a.s.s.s.s.f.f.s.s.f.f.f.g.g.x.r.r.f.#.s @.1.s.f.s.s.s.s.g.g.g.g.f.g.2.&.=.p @ h w.g.H.l.- o | KXKXKXKXKXKXKXKXKXKXKXKXKXKXKXKXKXKXKXKXKXKXKXKXKXKXKXKXKXKXKXKXKXKXKXKX",
"KXKXKXKXKXKXKXKXKXKXKXKXKXKXKXKXKXKXKXKXKXKXKXKXKXKXKXKXKXKXKXKXKXKXKXKXKXKXKXKXKXKXKXKXKXKXKXKXKXKXKXKXKXKXKXKXKXKXKXKXKXS * : ; $ 7 T T U =.#.@.x.5.5.s. X|.J.K.&X:X2XXXXX2X-X-X-X-X-X-X-X-X-X<X-X2X-X-X-X-X2X-X-X-X-X-X-X-X-X-XU.p.-XI.p.a.&X=X-X=X-X-X-X-X-X-X-X-X2X-X=X2X Xg.L.H.H.J.J.K.K.&.-.H.K.e.T T #.1.s.f.a.f.s.s.s.f.f.s.s.s.f.s.s.f.f.f.f.f.s.s.f.s.g.g.s.s.s.f.f.f.s.s.x.2.r.r.@.p @.2.f.f.s.s.g.g.s.s.g.H.i.d.9.#.=.a @ s =.K.g.E.7.@ o rXKXKXKXKXKXKXKXKXKXKXKXKXKXKXKXKXKXKXKXKXKXKXKXKXKXKXKXKXKXKXKXKXKXKXKX",
"KXKXKXKXKXKXKXKXKXKXKXKXKXKXKXKXKXKXKXKXKXKXKXKXKXKXKXKXKXKXKXKXKXKXKXKXKXKXKXKXKXKXKXKXKXKXKXKXKXKXKXKXKXKXKXKXKXKXKXKXKX .O - ( % - T @.G U =.G p.a.5.a.a.K.L.H.I.2X-X.XP.<X<X<X-X=X-X-X-X-X-X-X-X-X-X-X-X-X2X-X-X-X-X-X=X=X-X-X-.p.=Xx.p.K.XX X-X=X=X-X-X-X-X-X-X-X-X-X-X-X-X XJ.J.J.H.K.g.K.e.@.g.L.e.T L @.;.g.a.f.f.s.s.f.f.s.s.s.s.f.a.f.s.f.f.f.s.s.s.s.s.s.g.s.s.s.s.f.g.g.g.g.&.r.w.U 7 $.&.g.g.x.g.s.s.g.s.s.s.p.e.e.#.=.a + d #.K.k.K.T.R o + fXKXKXKXKXKXKXKXKXKXKXKXKXKXKXKXKXKXKXKXKXKXKXKXKXKXKXKXKXKXKXKXKXKXKX",
"KXKXKXKXKXKXKXKXKXKXKXKXKXKXKXKXKXKXKXKXKXKXKXKXKXKXKXKXKXKXKXKXKXKXKXKXKXKXKXKXKXKXKXKXKXKXKXKXKXKXKXKXKXKXKXKXKXKXKXKXKXnX@ o rXw @ U @.l a ;.U e.c.y.e.r.r.K.P.p.=X3X&XJ.#X<X-X2X&X&X<X-X-X-X=X-X-X2X-X-X-X-X-X-X-X-X2X#X.X2X#X:.s. Xa.p.L.P.&X-X*X*X&X-X-X-X-X-X=X=X-X=X-X2X3X XJ.K.H.H.H.K.r.@.4.P.r.J J @.#.s.s.s.f.f.f.a.s.s.s.s.g.f.f.f.f.f.a.f.f.f.s.s.f.s.g.s.f.s.s.s.g.g.g.i.#.e.-.z 7 =.&.f.x.x.x.f.g.g.s.s.g.p.1.w.@.&.s + d O.g.t.e.Y.P.v . 0 IXKXKXKXKXKXKXKXKXKXKXKXKXKXKXKXKXKXKXKXKXKXKXKXKXKXKXKXKXKXKXKXKXKX",
"KXKXKXKXKXKXKXKXKXKXKXKXKXKXKXKXKXKXKXKXKXKXKXKXKXKXKXKXKXKXKXKXKXKXKXKXKXKXKXKXKXKXKXKXKXKXKXKXKXKXKXKXKXKXKXKXKXKXKXKXKXKX) . bX) O z O.s ; :.O.=.p.y.-.r.r.g.T.p.I.4X-XL.I.-X<X2X=X X2X<X=X<X-X<X-X-X-X-X-X-X-X<X-X-X2X X X2X X:.x.g.a.r.p.XX2X=X-X=X*X-X=X-X-X=X*X=X=X=X-X-X<X=XU.H.K.g.x.J.p.@.@.p.p.J N $.@.p.f.a.s.s.s.f.s.s.s.s.f.f.a.f.a.a.s.f.f.f.f.s.s.s.s.g.g.s.f.g.g.g.g.2.$.-.&.7 p -.=.f.H.g.g.s.x.x.s.s.x.f.-.2.#.&.k + s @.9.I.I 9.P.k.8 . ) KXKXKXKXKXKXKXKXKXKXKXKXKXKXKXKXKXKXKXKXKXKXKXKXKXKXKXKXKXKXKXKXKX",
"KXKXKXKXKXKXKXKXKXKXKXKXKXKXKXKXKXKXKXKXKXKXKXKXKXKXKXKXKXKXKXKXKXKXKXKXKXKXKXKXKXKXKXKXKXKXKXKXKXKXKXKXKXKXKXKXKXKXKXKXKXKXnX@ BXrXo 9 T s - T @.T 2.p.4.=.r.h.T.x.a..X2XK.h.XX3X-X<XT.&X2X<X<X<X&X-X-X-X-X=X&X-X<X<X-X<X XU.3X X#.f.a.p.@.r..X2X2X&X=X2X=X-X-X-X=X=X=X-X=X-X-X-X2XXXg.J.x.p.H.f.@.#.-.d.T N $.#.w.a.a.f.f.s.s.f.s.s.g.s.f.a.f.a.s.s.f.f.f.f.s.s.s.s.g.g.s.s.g.i.g.f.#.@.#.T @ k -.=.s.x.x.x.x.x.g.s.g.s.f.=.$.#.=.k @ d @.@.K.i., i.R.t.- o pXKXKXKXKXKXKXKXKXKXKXKXKXKXKXKXKXKXKXKXKXKXKXKXKXKXKXKXKXKXKXKXKX",
"KXKXKXKXKXKXKXKXKXKXKXKXKXKXKXKXKXKXKXKXKXKXKXKXKXKXKXKXKXKXKXKXKXKXKXKXKXKXKXKXKXKXKXKXKXKXKXKXKXKXKXKXKXKXKXKXKXKXKXKXKXKXKXeXmXbXo @ P h @ s @.T T 4.s.O.*.g.XXL.a.K.-XI.p.p.-X-X2XXXT.2X<X<X2X.X&X-X=X=X<X$X=X2X-X=X-X Xg.<XoX#.p.x.1.T g..X2X=XE.2X-X=X-X-X<X-X-X=X<X-X-X<X.X&X=XL.H.H.H.H.d.@.#.@.e.=.J @.=.-.p.p.a.a.s.s.s.f.f.g.s.f.s.s.s.s.s.f.s.s.s.s.f.s.s.s.s.f.s.f.1.H.w.@.@.$.z + P =.#.f.x.x.H.H.g.g.g.g.f.f.-.#.@.=.k - - M 2.t.E.R - h.Y.R + e GXKXKXKXKXKXKXKXKXKXKXKXKXKXKXKXKXKXKXKXKXKXKXKXKXKXKXKXKXKXKXKX",
"KXKXKXKXKXKXKXKXKXKXKXKXKXKXKXKXKXKXKXKXKXKXKXKXKXKXKXKXKXKXKXKXKXKXKXKXKXKXKXKXKXKXKXKXKXKXKXKXKXKXKXKXKXKXKXKXKXKXKXKXKXKXKXKXLXJXt . l k @ - U O.O.T e.1.z e.R.I.p.a.K.XXH.5.K.2X2X.XH.&X2X-X<X&XT.-X=X-X-X=XXX<X-X=X2X|.5..X#X@.2.s.@.#.K.&X3XI.XX-X*X=X-X-X<X-X=X-X-X-X-X<X&XP.3X.Xg.J.x.e.h.#.@.@.$.@.J Y -.=.r.s.a.f.f.f.s.f.f.s.s.s.s.s.s.s.s.f.s.a.s.s.s.s.s.s.s.f.x.e.5.f.#.#.@.#.7 $ U &.#.p.H.x.H.g.x.g.x.g.s.p.=.$.@.=.k - - ; %.e.K.T.c ; r.s.8 o eXKXKXKXKXKXKXKXKXKXKXKXKXKXKXKXKXKXKXKXKXKXKXKXKXKXKXKXKXKXKXKX",
"KXKXKXKXKXKXKXKXKXKXKXKXKXKXKXKXKXKXKXKXKXKXKXKXKXKXKXKXKXKXKXKXKXKXKXKXKXKXKXKXKXKXKXKXKXKXKXKXKXKXKXKXKXKXKXKXKXKXKXKXKXKXKXKXKXKXM.o p s $ + l #.T U U 2.O.Y L.Y.p.1.s.g.P.f.5. X2X&Xf.K.&X2X-X=XI.XX<X=X=X-XXX X=X=X2XoX-.d..X#.@.5.O.-.K.2X=Xs.$X-X=X-X-X-X-X=X=X-X-X<X2X-X<X XE.<XJ.H.g.@.9.-.O.@.$.@.N N $.-.1.s.f.f.f.f.f.s.f.f.s.s.g.s.s.s.a.a.a.a.s.s.s.f.a.s.s.s.f.&.p.2.#.#.$.U - 9 @.@.#.p.H.H.x.g.x.x.g.s.s.f.&.#.@.=.s $ - @ k 2.U.T.h.* 9 f.T + e PXKXKXKXKXKXKXKXKXKXKXKXKXKXKXKXKXKXKXKXKXKXKXKXKXKXKXKXKXKXKX",
"KXKXKXKXKXKXKXKXKXKXKXKXKXKXKXKXKXKXKXKXKXKXKXKXKXKXKXKXKXKXKXKXKXKXKXKXKXKXKXKXKXKXKXKXKXKXKXKXKXKXKXKXKXKXKXKXKXKXKXKXKXKXKXKXKXKXVX, 1 1 - - 1 T T z l O.$.J 1.Y.s.O.p.x.H.L.5.p.U.-XI.r.f.-X-X2X.XH..X-X=X-X&XK..X-X=X-Xp.@.h.-.T =.@.4.H.2XI.y.&X=X=X-X-X-X-X=X=X1X=X2X#X#X4X=XH..XE.f.g.1.@.#.O.@.@.#.J M @.-.1.r.g.f.p.p.f.f.f.f.s.s.s.s.s.s.s.f.a.s.s.s.s.s.s.s.s.x.2.&.w.$.&.@.&.s @ k =.#.@.p.x.g.x.g.x.x.g.f.s.f.#.@.@.=.a + e + 9 #.h.I.E.I o c p.3 o uXKXKXKXKXKXKXKXKXKXKXKXKXKXKXKXKXKXKXKXKXKXKXKXKXKXKXKXKXKXKX",
"KXKXKXKXKXKXKXKXKXKXKXKXKXKXKXKXKXKXKXKXKXKXKXKXKXKXKXKXKXKXKXKXKXKXKXKXKXKXKXKXKXKXKXKXKXKXKXKXKXKXKXKXKXKXKXKXKXKXKXKXKXKXKXKXKXKXKX} O ; - ; - l O.M 7 @.O.O.T d.H.=.=.H.H.T.r.1.p.U.XXf.1.K.:X2X=XK.e.XX2X=X2XU.i.&X=X-XK.@.@.1.@.#.O.4.P.#Xy.;.=X-X=X-X-X-X=X=X=X=X-X-X2XV. X4XE.H.K.g.H.i.@.@.@.U O.@.L m T -.1.e.e.f.s.f.f.f.s.s.f.f.s.g.s.s.s.f.a.f.s.x.s.c.s.p.x.r.@.&.&.$.#.&.U - - U =.#.#.p.x.g.g.g.g.s.g.s.f.p.#.#.@.@.8 . eXA * T 9.I.L.l.- o %.T o ( KXKXKXKXKXKXKXKXKXKXKXKXKXKXKXKXKXKXKXKXKXKXKXKXKXKXKXKXKXKX",
"KXKXKXKXKXKXKXKXKXKXKXKXKXKXKXKXKXKXKXKXKXKXKXKXKXKXKXKXKXKXKXKXKXKXKXKXKXKXKXKXKXKXKXKXKXKXKXKXKXKXKXKXKXKXKXKXKXKXKXKXKXKXKXKXKXKXKXBX% @ < _ - 1 O.J - N @.O.T T s.p.T r.J.H.s.@.e.p.g.x.p.-.P.=X-XT.e.-..X3X2X=X=.2. X-X|.X.@.&.@.#.O.4.L. X;.*.-X-X-X-X-X-X-X=X=X-X-X-X2X<Xg..XoXf.x.H.g.f.#.@.#.h h @.T M J -.=.-.-.2.i.f.x.s.f.s.f.f.f.g.s.s.f.f.f.f.s.s.s.s.5.s.p.#.#.@.@.#.#.&.p @ 7 =.$.$.#.p.x.g.s.s.s.g.g.s.s.p.@.#.@.@.1   fX'.o l -.9.K.P.C @ 8 t.- $ VXKXKXKXKXKXKXKXKXKXKXKXKXKXKXKXKXKXKXKXKXKXKXKXKXKXKXKXKXKX",
"KXKXKXKXKXKXKXKXKXKXKXKXKXKXKXKXKXKXKXKXKXKXKXKXKXKXKXKXKXKXKXKXKXKXKXKXKXKXKXKXKXKXKXKXKXKXKXKXKXKXKXKXKXKXKXKXKXKXKXKXKXKXKXKXKXKXKXKXeX. - tXw @ M T - 1 T T T U @.g.1.#.p.x.g.1.O.r.s.f.x.-.$.g..X#XK.-.;. X2X2Xi.U @.t.&Xt.@.$.@.@.@.@.g.K.;.R =X-X-X=X&X=X=X-X-X-X-X-X-X2X#Xa..Xg.g.f.s.s.-.@.$.P - J @.N G $.-.-.-.-.-.1.p.s.f.f.f.s.s.s.s.s.f.g.x.f.f.f.s.1.4.f.#.#.@.@.@.@.=.P $ $ C -.#.&.$.p.x.s.s.s.s.x.s.f.g.5.@.@.@.@.1 + CXcXO 1 &.R 7.R.t.; @ R k   yXKXKXKXKXKXKXKXKXKXKXKXKXKXKXKXKXKXKXKXKXKXKXKXKXKXKXKXKXKX",
"KXKXKXKXKXKXKXKXKXKXKXKXKXKXKXKXKXKXKXKXKXKXKXKXKXKXKXKXKXKXKXKXKXKXKXKXKXKXKXKXKXKXKXKXKXKXKXKXKXKXKXKXKXKXKXKXKXKXKXKXKXKXKXKXKXKXKXKXKX_ . yXM.  : G ; @ k @.T T T -.f.=.@.t.K.f.@.@.p.g.f.r.O.@.a.XXT.p.#.#.V.4XE.@.#.@.9.V.#.@.@.@.@.C f.g.-.T -X-XXX-X=X=X=X-X-X=X-X-X2X-X2XI.K.K.p.i.p.J.9.@.@.@.: y T U m O.&.&.r.f.s.x.s.f.f.f.f.s.s.s.f.f.H.x.i.g.g.f.1.=.r.=.#.=.@.@.@.#.@.1 @ 7 #.@.#.$.#.p.x.f.s.s.s.s.s.f.s.4.#.@.@.@.1 , FXHX> @ U 9.s I.K.7 + 9 R . ] KXKXKXKXKXKXKXKXKXKXKXKXKXKXKXKXKXKXKXKXKXKXKXKXKXKXKXKXKX",
"KXKXKXKXKXKXKXKXKXKXKXKXKXKXKXKXKXKXKXKXKXKXKXKXKXKXKXKXKXKXKXKXKXKXKXKXKXKXKXKXKXKXKXKXKXKXKXKXKXKXKXKXKXKXKXKXKXKXKXKXKXKXKXKXKXKXKXKXKXGX0 ( GX4 @ s p $ - U O.O.T O.;.-.@.O.e.H.e.@.#.2.p.f.-.@.=.p.L.g.#.#.O.V.2X1.@.=.#.#.&.@.@.@.@.k t.f.-.O.2X#XP.-X=X=X-X=X=X-X-X-X-X-X<X-Xf.g.f.f.4.x.e.@.@.@.a - z G M J @.#.&.r.g.g.a.f.a.f.f.f.f.g.g.f.r.1.f.x.d.-.@.=.=.#.=.=.@.@.@.=.s $ - U &.@.&.#.#.a.s.s.s.s.s.s.s.s.s.-.#.@.$.T - w PXJXe o P h.2 &.E.N @ - v * S KXKXKXKXKXKXKXKXKXKXKXKXKXKXKXKXKXKXKXKXKXKXKXKXKXKXKXKXKX",
"KXKXKXKXKXKXKXKXKXKXKXKXKXKXKXKXKXKXKXKXKXKXKXKXKXKXKXKXKXKXKXKXKXKXKXKXKXKXKXKXKXKXKXKXKXKXKXKXKXKXKXKXKXKXKXKXKXKXKXKXKXKXKXKXKXKXKXKXKXKXVXW JXuXO 1 2 - @ 7 O.T U k #.@.#.#.@.4.x.=.@.@.&.p.p.$.=.#.w.K.9.@.=.@.}.g.O.$.=.#.@.@.@.@.#.a T s.e.#.=X XK.=X=X=X-X=X=X-X-X-X-X-X-X-X Xp.g.x.4.1.p.O.@.@.M @ i J m J @.@.=.@.=.e.p.f.s.x.x.s.f.p.e.=.$.p.s.e.&.#.$.#.@.#.$.@.@.@.-.z $ $ d $.%.@.$.$.&.p.g.s.s.s.s.s.s.s.a.:.#.@.=.U O S KXKXS o M f.y l L.*.- @ 8 2 4 HXKXKXKXKXKXKXKXKXKXKXKXKXKXKXKXKXKXKXKXKXKXKXKXKXKXKXKXKX",
"KXKXKXKXKXKXKXKXKXKXKXKXKXKXKXKXKXKXKXKXKXKXKXKXKXKXKXKXKXKXKXKXKXKXKXKXKXKXKXKXKXKXKXKXKXKXKXKXKXKXKXKXKXKXKXKXKXKXKXKXKXKXKXKXKXKXKXKXKXKXKXHXGXKX( + ; ; > @ l @.O.2 l @.@.#.#.#.2.2.@.&.#.#.e.1.#.=.@.-.i.@.&.$.#.f.=.@.#.#.@.@.#.@.=.s k x.a.-.XXK.K.-X=X-X=X=X=X=X*X-X-X=X.X-X=Xx.s.x.f.#.w.@.O.@.U - p L V J #.@.#.&.$.@.$.-.2.1.1.2.-.@.@.-.r.9.$.#.=.#.@.$.$.@.@.@.#.=.P - - - l $.$.$.$.$.$.p.x.s.s.a.s.s.f.s.p.#.=.@.=.M . ` KXKXW O C r.1 i t.9.; - 1 2 > VXKXKXKXKXKXKXKXKXKXKXKXKXKXKXKXKXKXKXKXKXKXKXKXKXKXKXKXKX",
"KXKXKXKXKXKXKXKXKXKXKXKXKXKXKXKXKXKXKXKXKXKXKXKXKXKXKXKXKXKXKXKXKXKXKXKXKXKXKXKXKXKXKXKXKXKXKXKXKXKXKXKXKXKXKXKXKXKXKXKXKXKXKXKXKXKXKXKXKXKXKXKXKXKXBX4 * < ( - 1 G #.a @ G @.#.#.#.@.#.#.#.#.&.&.=.&.#.$.@.=.=.@.@.#.1.-.#.#.#.@.@.@.#.:.G 2 2.r.i.U.h.t.2X=X=X=X=X=X-X-X-X-X-X XT.4XI.f.x.x.&.#.#.T T T 1 ; O.Y V @.$.#.&.=.&.$.#.#.#.#.#.#.&.=.=.@.@.#.$.#.#.$.#.&.#.@.@.=.N - - ; - l =.@.$.#.$.$.f.g.s.s.a.s.s.f.H.r.1.=.#.$.s .  .KXKXQ O P 2.1 d T i.7 - ; : * bXKXKXKXKXKXKXKXKXKXKXKXKXKXKXKXKXKXKXKXKXKXKXKXKXKXKXKXKX",
"KXKXKXKXKXKXKXKXKXKXKXKXKXKXKXKXKXKXKXKXKXKXKXKXKXKXKXKXKXKXKXKXKXKXKXKXKXKXKXKXKXKXKXKXKXKXKXKXKXKXKXKXKXKXKXKXKXKXKXKXKXKXKXKXKXKXKXKXKXKXKXKXKXKXKXjX> . '.] O : P l + ; O.=.#.@.#.@.#.*.@.&.=.&.$.@.@.#.#.#.@.@.@.#.&.$.@.@.#.#.$.@.#.O.2 s 9.f.h.i.9.2X=X=X=X=X=X-X-X-X-X=X-Xx. X&Xs.g.g.2.@.T M T @.p $ N =.J J &.$.=.=.=.=.&.=.=.&.$.#.$.=.$.#.=.$.$.&.&.&.#.#.@.@.=.M - - - ; @ s &.@.#.#.$.&.d.s.s.s.s.s.s.s.x.e.r.@.@.#.8 . yXKXLXA O P *.1 d C j.f - ; - @ jXKXKXKXKXKXKXKXKXKXKXKXKXKXKXKXKXKXKXKXKXKXKXKXKXKXKXKXKX",
"KXKXKXKXKXKXKXKXKXKXKXKXKXKXKXKXKXKXKXKXKXKXKXKXKXKXKXKXKXKXKXKXKXKXKXKXKXKXKXKXKXKXKXKXKXKXKXKXKXKXKXKXKXKXKXKXKXKXKXKXKXKXKXKXKXKXKXKXKXKXKXKXKXKXKXKXgXo S HXe o - M 1 - 2 @.@.@.@.@.#.#.@.&.$.#.#.#.$.=.=.=.@.#.@.#.$.#.@.@.#.$.=.@.O.=.p @ *.f.d.p.9.=X=X=X=X=X=X-X-X-X-X-X<X Xs.oXK.s.s.e.@.O.J U T h + s &.$.T @.=.=.=.=.=.&.&.=.#.#.#.#.$.=.#.#.@.$.&.$.$.#.@.@.$.z - - - - * @ p $.@.#.&.=.$.i.s.s.s.s.s.s.s.p.p.r.@.#.@.1 o fXKXHX0 @ P P - h M t.j - - - @ jXKXKXKXKXKXKXKXKXKXKXKXKXKXKXKXKXKXKXKXKXKXKXKXKXKXKXKXKX",
"KXKXKXKXKXKXKXKXKXKXKXKXKXKXKXKXKXKXKXKXKXKXKXKXKXKXKXKXKXKXKXKXKXKXKXKXKXKXKXKXKXKXKXKXKXKXKXKXKXKXKXKXKXKXKXKXKXKXKXKXKXKXKXKXKXKXKXKXKXKXKXKXKXKXKXKXKXjX% fXBX> o 7 d ; - 1 U @.@.@.$.*.$.&.#.#.$.&.@.@.-.#.#.$.#.#.=.O.@.=.@.#.=.:.Y &.k + k f.p.a.p..X=X.X&X-X=X-X-X-X-X-X-X-XL.x.x.s.s.r.@.@.#.U s k + d =.$.&.$.$.=.=.=.=.=.=.$.#.$.&.#.=.$.#.$.$.#.$.&.$.#.#.@.k - - : @ 5 ( @ p @.@.@.&.=.@.r.x.s.s.s.s.s.s.a.s.2.@.=.@.- $ VXKXCX$ - P k - l M 7.k - - - - mXKXKXKXKXKXKXKXKXKXKXKXKXKXKXKXKXKXKXKXKXKXKXKXKXKXKXKXKX",
"KXKXKXKXKXKXKXKXKXKXKXKXKXKXKXKXKXKXKXKXKXKXKXKXKXKXKXKXKXKXKXKXKXKXKXKXKXKXKXKXKXKXKXKXKXKXKXKXKXKXKXKXKXKXKXKXKXKXKXKXKXKXKXKXKXKXKXKXKXKXKXKXKXKXKXKXKXKXCXsXKXjX> ; 1 ; - + - P #.@.&.#.s @.=.=.=.&.$.G O.$.@.O.#.#.$.#.J &.#.$.=.:.L T U @ > r.r.p.e.k.:XE.&X-X=X=X=X=X-X-X-X2X|.f.x.p.f.f.@.@.@.@.7 d - y =.=.#.#.&.=.=.=.=.=.=.=.=.=.=.=.#.#.&.&.&.#.$.@.@.#.T 7 - - 7 7 . { gX+ 1 @.@.#.&.&.@.w.x.s.s.s.s.s.s.f.p.=.$.=.U @ 0 HXKXdX+ 1 n d - l j R s @ 4 ; , BXKXKXKXKXKXKXKXKXKXKXKXKXKXKXKXKXKXKXKXKXKXKXKXKXKXKXKXKX",
"KXKXKXKXKXKXKXKXKXKXKXKXKXKXKXKXKXKXKXKXKXKXKXKXKXKXKXKXKXKXKXKXKXKXKXKXKXKXKXKXKXKXKXKXKXKXKXKXKXKXKXKXKXKXKXKXKXKXKXKXKXKXKXKXKXKXKXKXKXKXKXKXKXKXKXKXKXKXKXKXKXKXbXq * - q 0 . - M =.$.&.k - G O.=.-.-.L j T :.O.J @.$.=.L J =.=.#.&.T N O.7 o *.;.9.r.U =XI..X2X=X=X=X-X-X-X-X-X.Xf.g.e.w.H.#.@.@.@.s ; : y :.=.@.@.#.=.=.=.=.=.=.=.=.=.=.=.&.&.$.&.=.&.@.$.&.z ; - - y j ; @ CXCX+ - T &.U #.&.@.2.x.s.g.s.s.s.a.f.p.#.&.=.P @ S KXKXeXo 8 M 7 : l i R s + W 0 q GXKXKXKXKXKXKXKXKXKXKXKXKXKXKXKXKXKXKXKXKXKXKXKXKXKXKXKXKX",
"KXKXKXKXKXKXKXKXKXKXKXKXKXKXKXKXKXKXKXKXKXKXKXKXKXKXKXKXKXKXKXKXKXKXKXKXKXKXKXKXKXKXKXKXKXKXKXKXKXKXKXKXKXKXKXKXKXKXKXKXKXKXKXKXKXKXKXKXKXKXKXKXKXKXKXKXKXKXKXKXKXKXKXBXW . @ tXS . ; h O.#.#.1 @ n L T #.$.M h X.=.O.G #.;.@.N G #.&.@.@.N J M - a T P x.#.}.I.K.<X=X=X.X2X2X-X.X*X&XK.f.g.=.s.-.@.@.@.M - ; y O.$.#.$.#.=.=.=.=.&.=.=.=.=.=.=.&.&.&.&.&.=.-.T 7 - - : f B p @ ) KXFX5 @ P ;.l T &.@.=.s.g.g.s.s.s.f.s.e.#.#.#.C o ` KXKX} . a n - 1 z i C s @ ] w Q KXKXKXKXKXKXKXKXKXKXKXKXKXKXKXKXKXKXKXKXKXKXKXKXKXKXKXKXKX",
"KXKXKXKXKXKXKXKXKXKXKXKXKXKXKXKXKXKXKXKXKXKXKXKXKXKXKXKXKXKXKXKXKXKXKXKXKXKXKXKXKXKXKXKXKXKXKXKXKXKXKXKXKXKXKXKXKXKXKXKXKXKXKXKXKXKXKXKXKXKXKXKXKXKXKXKXKXKXKXKXKXKXKXKXLXeX# t FX` @ * - k @.@.1 - d N N T @.j d L O.J B O.-.@.k 7 J #.$.J B J p - 8 9 r.f.K.}.5.;X=X-XI.#X3X<X XI.*XP.f.J.1.4.1.@.@.@.T 1 - 7 J #.@.#.=.=.=.=.=.&.=.=.=.=.=.#.&.@.#.&.-.@.k ; - - 7 n B j , o sXKXKXW @ k -.s P =.&.#.r.x.f.f.s.g.s.s.1.@.#.=.k o  .KXKX` . h i @ 7 M h M 9 O rXA M.KXKXKXKXKXKXKXKXKXKXKXKXKXKXKXKXKXKXKXKXKXKXKXKXKXKXKXKXKX",
"KXKXKXKXKXKXKXKXKXKXKXKXKXKXKXKXKXKXKXKXKXKXKXKXKXKXKXKXKXKXKXKXKXKXKXKXKXKXKXKXKXKXKXKXKXKXKXKXKXKXKXKXKXKXKXKXKXKXKXKXKXKXKXKXKXKXKXKXKXKXKXKXKXKXKXKXKXKXKXKXKXKXKXKXKXKXHX{ uXKXuX5 . @ 1 M J 1 @ : l J U T 2 2 G L J M J T J p @ p T :.X.J l @ - + *.x.s.f.4.|.-X-XXXx.2X<X&Xg..X.XH.L.i.=.2.@.U T $.7 - i J $.#.$.$.=.=.=.&.=.=.#.=.=.$.#.&.-.-.@.k : $ - 1 g B n n f @ 0 HXKXKXM.O : @.a k -.$.#.1.g.f.f.g.s.f.s.-.=.@.=.s o tXKXKX) + k 7 @ a M h z : o fXW fXKXKXKXKXKXKXKXKXKXKXKXKXKXKXKXKXKXKXKXKXKXKXKXKXKXKXKXKXKX",
"KXKXKXKXKXKXKXKXKXKXKXKXKXKXKXKXKXKXKXKXKXKXKXKXKXKXKXKXKXKXKXKXKXKXKXKXKXKXKXKXKXKXKXKXKXKXKXKXKXKXKXKXKXKXKXKXKXKXKXKXKXKXKXKXKXKXKXKXKXKXKXKXKXKXKXKXKXKXKXKXKXKXKXKXKXKXKXKXJXKXKXHX| < o @ p 7 - $ - d U O.J @ : G Y J M N N N i @ - i N M N p - $ k L.g.f.1.w.&X<X=Xy.I.2X-XI.K.*XP.L.i.@.*.*.T p @.7 + d J #.=.=.=.=.$.$.=.#.&.&.$.#.=.-.@.U s : - - : u m N m n B p + ` KXKXKXgX@ @ l l 2 -.&.$.#.p.s.s.f.p.f.p.5.2.@.&.p + dXKXKX' + s : $ s M l h * 0 BX{ PXKXKXKXKXKXKXKXKXKXKXKXKXKXKXKXKXKXKXKXKXKXKXKXKXKXKXKXKXKX",
"KXKXKXKXKXKXKXKXKXKXKXKXKXKXKXKXKXKXKXKXKXKXKXKXKXKXKXKXKXKXKXKXKXKXKXKXKXKXKXKXKXKXKXKXKXKXKXKXKXKXKXKXKXKXKXKXKXKXKXKXKXKXKXKXKXKXKXKXKXKXKXKXKXKXKXKXKXKXKXKXKXKXKXKXKXKXKXKXKXKXKXKXKXBXM.w @ * - - ; - ; s J l @ ; k J J s l J J M 2 @ @ - 1 p : ; ; e.k.h.i.1.I.2X-Xk.5.XX2XXXf.XXT.H.d.T @.*.&.d i s + d N J J T @.@.$.$.$.&.=.-.-.@.U k 1 - $ - : y n B m m m m m 1 + uXKXKXKXFX5 @ 1 G - @.=.#.#.1.c.s.s.f.s.r.p.-.@.@.7 @ bXKXKX} + 8 ; - a z l 7 o ` JXjXKXKXKXKXKXKXKXKXKXKXKXKXKXKXKXKXKXKXKXKXKXKXKXKXKXKXKXKXKXKX",
"KXKXKXKXKXKXKXKXKXKXKXKXKXKXKXKXKXKXKXKXKXKXKXKXKXKXKXKXKXKXKXKXKXKXKXKXKXKXKXKXKXKXKXKXKXKXKXKXKXKXKXKXKXKXKXKXKXKXKXKXKXKXKXKXKXKXKXKXKXKXKXKXKXKXKXKXKXKXKXKXKXKXKXKXKXKXKXKXKXKXKXKXKXKXKXGXdXr @ ; - ; @ @ ; d 7 - - 1 l M 2 h J L J i : @ + @ - ; @ a g.i.p.f.p..X3X$Xf.k.2X=Xx.K.K.g.f.M U *.&.l 1 p - n J N N B J L X.@.@.@.T G k 2 - @ $ - 2 i n B n n m m m m n ; @ bXKXKXKXKX( + - l ; l =.@.;.$.r.x.s.g.s.p.p.&.$.#.1 @ mXKXKX'.O : - - d l h : o sXKXKXKXKXKXKXKXKXKXKXKXKXKXKXKXKXKXKXKXKXKXKXKXKXKXKXKXKXKXKXKXKX",
"KXKXKXKXKXKXKXKXKXKXKXKXKXKXKXKXKXKXKXKXKXKXKXKXKXKXKXKXKXKXKXKXKXKXKXKXKXKXKXKXKXKXKXKXKXKXKXKXKXKXKXKXKXKXKXKXKXKXKXKXKXKXKXKXKXKXKXKXKXKXKXKXKXKXKXKXKXKXKXKXKXKXKXKXKXKXKXKXKXKXKXKXKXKXKXKXKXsXo 7 z M h - @ $ - - - - @ 1 j 7 2 j M N M h y 7 2 ; - o I f.-.s.f.f.&X%XY.P.#X2XK.x.f.f.f.M T @.#.z - ; : j n j h z M M z s 8 1 - @ @ $ - : y h m B B m m m m m n B j @ 0 GXKXKXKXKXyXo : 1 ; : *.#.2.r.=.f.x.x.s.f.f.$.&.@.; > BXKXKXgX@ ; - @ 7 n i - , ZXKXKXKXKXKXKXKXKXKXKXKXKXKXKXKXKXKXKXKXKXKXKXKXKXKXKXKXKXKXKXKXKX",
"KXKXKXKXKXKXKXKXKXKXKXKXKXKXKXKXKXKXKXKXKXKXKXKXKXKXKXKXKXKXKXKXKXKXKXKXKXKXKXKXKXKXKXKXKXKXKXKXKXKXKXKXKXKXKXKXKXKXKXKXKXKXKXKXKXKXKXKXKXKXKXKXKXKXKXKXKXKXKXKXKXKXKXKXKXKXKXKXKXKXKXKXKXKXKXKXKXGX0 - O.=.#.U k p ; @ $ 1 ; @ - 2 : - - 7 i z V L J B 7 @ @ e.5.4.s.p.g.%XP.T.XX-XK.s.s.w.p.@.@.@.#.M @ - - - - - - - @ + o . @ - ; ; 2 d j m B B m n m m m M m m m B i @ W KXKXKXKXKXBX< - - - @ P ;.&.r.p.r.x.s.s.s.f.&.&.T - 5 HXKXKXFX, - 5 @ 2 M d + W KXKXKXKXKXKXKXKXKXKXKXKXKXKXKXKXKXKXKXKXKXKXKXKXKXKXKXKXKXKXKXKXKX",
"KXKXKXKXKXKXKXKXKXKXKXKXKXKXKXKXKXKXKXKXKXKXKXKXKXKXKXKXKXKXKXKXKXKXKXKXKXKXKXKXKXKXKXKXKXKXKXKXKXKXKXKXKXKXKXKXKXKXKXKXKXKXKXKXKXKXKXKXKXKXKXKXKXKXKXKXKXKXKXKXKXKXKXKXKXKXKXKXKXKXKXKXKXKXKXKXKXKX] o s #.O.O.O.@.T l 7 2 h d ; - - - $ $ $ - 2 d p 7 2 ; - d 1.#.r.g.r.|.XXT.XX*Xg.f.s.1.e.1.@.@.&.P @ , 4 q 4 , 4 0 0 e r _ q - d M m N B m m m m m m m m m m M m B d + ] KXKXKXKXKXKX) + 1 - $ 7 -.#.-.f.s.s.s.f.s.f.=.&.T * 0 GXKXKXKX) . W 4 ; l p . } KXKXKXKXKXKXKXKXKXKXKXKXKXKXKXKXKXKXKXKXKXKXKXKXKXKXKXKXKXKXKXKXKX",
"KXKXKXKXKXKXKXKXKXKXKXKXKXKXKXKXKXKXKXKXKXKXKXKXKXKXKXKXKXKXKXKXKXKXKXKXKXKXKXKXKXKXKXKXKXKXKXKXKXKXKXKXKXKXKXKXKXKXKXKXKXKXKXKXKXKXKXKXKXKXKXKXKXKXKXKXKXKXKXKXKXKXKXKXKXKXKXnX'.| sXGXKXKXKXKXKXKXgX. - T O.O.O.O.#.#.T U T L n h 7 ; ; - - - ; @ . . . . @ - P @.&.f.f.g.I.P.XX.Xg.f.s.r.-.-.=.U P P + ` BXGXHXFXFXHXHXGXJXKX| + p N m n M m B M M m m m m m M m M N d o  .KXKXKXKXKXKXdXo 1 M ; @ C =.*.r.x.f.f.f.s.s.&.&.T @ w PXKXKXKXgX  } W + s a o eXKXKXKXKXKXKXKXKXKXKXKXKXKXKXKXKXKXKXKXKXKXKXKXKXKXKXKXKXKXKXKXKXKX",
"KXKXKXKXKXKXKXKXKXKXKXKXKXKXKXKXKXKXKXKXKXKXKXKXKXKXKXKXKXKXKXKXKXKXKXKXKXKXKXKXKXKXKXKXKXKXKXKXKXKXKXKXKXKXKXKXKXKXKXKXKXKXKXKXKXKXKXKXKXKXKXKXKXKXKXKXKXKXKXKXKXKXKXKXKXKXrX+ .   o e bXKXKXKXKXKXGX0 . R 1.O.#.#.T T T T T J B B M n z h g 2 ; } eX|  .yX( @ a #.T t.g.f.g.g.P. XH.f.x.f.=.@.$.O.9 C . } KXKXKXKXKXKXKXKXKXKXgX+ 1 m M m M M B M M m m m M m B m M N p . eXKXKXKXKXKXKXJXr + P T 1 @ T =.&.p.s.f.s.s.f.&.=.U @ e JXKXKXKXKXS ` eXo d i o rXKXKXKXKXKXKXKXKXKXKXKXKXKXKXKXKXKXKXKXKXKXKXKXKXKXKXKXKXKXKXKXKXKX",
"KXKXKXKXKXKXKXKXKXKXKXKXKXKXKXKXKXKXKXKXKXKXKXKXKXKXKXKXKXKXKXKXKXKXKXKXKXKXKXKXKXKXKXKXKXKXKXKXKXKXKXKXKXKXKXKXKXKXKXKXKXKXKXKXKXKXKXKXKXKXKXKXKXKXKXKXKXKXKXKXKXKXKXKXKXCX+ @ ^ n.r . A bXPXKXKXKXKXM.  v J.;.X.w.2.L L T O.L B M n n n n B 7 @ bXKXKXKXKXCX; ; U O.;.g.f.s.f.g.P.g.s.s.f.-.@.@.@.1 9 .  .KXKXKXKXKXKXKXKXKXKXGXw - h M M M M M M M m M M M M B M M N 7 . tXKXKXKXKXKXKXKXrXo : @.#.k p &.&.&.f.x.s.s.f.&.=.T @ e JXKXKXKXKXmX( CX, 1 7 . '.KXKXKXKXKXKXKXKXKXKXKXKXKXKXKXKXKXKXKXKXKXKXKXKXKXKXKXKXKXKXKXKXKX",
"KXKXKXKXKXKXKXKXKXKXKXKXKXKXKXKXKXKXKXKXKXKXKXKXKXKXKXKXKXKXKXKXKXKXKXKXKXKXKXKXKXKXKXKXKXKXKXKXKXKXKXKXKXKXKXKXKXKXKXKXKXKXKXKXKXKXKXKXKXKXKXKXKXKXKXKXKXKXKXKXKXKXKXKXKXM.o Q vXkX,X0 o o q ` yXCXKXBX< 1 p.f.#.>.5.9.*.V V X.N M M m m m B 2 + fXKXJXKXKXKX` o s #.*.f.s.s.s.s.H.x.g.f.f.=.@.@.@.s - @ yXKXKXKXKXKXKXKXKXKXKXKX} o 7 N m m N M M B M M M B N B B M N 7 o tXKXKXKXKXKXKXKXHX0 @ P -.-.#.$.-.#.&.p.s.a.f.=.-.T @ e JXKXKXKXKXKXjXJXeX. , o ] KXKXKXKXKXKXKXKXKXKXKXKXKXKXKXKXKXKXKXKXKXKXKXKXKXKXKXKXKXKXKXKXKX",
"KXKXKXKXKXKXKXKXKXKXKXKXKXKXKXKXKXKXKXKXKXKXKXKXKXKXKXKXKXKXKXKXKXKXKXKXKXKXKXKXKXKXKXKXKXKXKXKXKXKXKXKXKXKXKXKXKXKXKXKXKXKXKXKXKXKXKXKXKXKXKXKXKXKXKXKXKXKXKXKXKXKXKXKXJXA . [.6X+.8.[.' w o     - S  .r @ *.J.4.m.AXSXFXAXaX*.n N N B N z n 1 + bXKXKXKXKXKXfXo : @.@.e.s.f.s.s.s.g.s.s.s.-.*.@.#.k ; - fXKXKXKXKXKXKXKXKXKXKXKXfX+ - G L z U J m N M M M N N N N N N p o eXKXKXKXKXKXKXKXKX .o p -.#.=.=.2.r.e.w.p.s.a.-.-.T * 0 GXKXKXKXKXKXKXKXKX( . ; A JXKXKXKXKXKXKXKXKXKXKXKXKXKXKXKXKXKXKXKXKXKXKXKXKXKXKXKXKXKXKXKXKX",
"KXKXKXKXKXKXKXKXKXKXKXKXKXKXKXKXKXKXKXKXKXKXKXKXKXKXKXKXKXKXKXKXKXKXKXKXKXKXKXKXKXKXKXKXKXKXKXKXKXKXKXKXKXKXKXKXKXKXKXKXKXKXKXKXKXKXKXKXKXKXKXKXKXKXKXKXKXKXKXKXKXKXKXKXbX+ < zXn.[ ~ l.7X,X,X].Q q +   o - 7 M n.BXM.A W | bXPXn.n G N m n i - $ BXKXKXKXKXKXJXA @ U 1.-.g.f.s.s.s.s.s.p.s.w.#.@.@.k $ , BXKXKXKXKXKXKXKXKXKXKXKXKXS + s -.n N O.m M N M N N N N N N V p . M.KXKXKXKXKXKXKXKXBX< @ P =.&.&.#.p.H.x.f.s.s.-.=.@.- 5 FXKXKXKXKXKXKXKXKXJX` @ . yXKXKXKXKXKXKXKXKXKXKXKXKXKXKXKXKXKXKXKXKXKXKXKXKXKXKXKXKXKXKXKXKX",
"KXKXKXKXKXKXKXKXKXKXKXKXKXKXKXKXKXKXKXKXKXKXKXKXKXKXKXKXKXKXKXKXKXKXKXKXKXKXKXKXKXKXKXKXKXKXKXKXKXKXKXKXKXKXLXBXbXgXsXgXbXVXJXKXKXKXKXKXKXKXKXKXKXKXKXKXKXKXKXKXKXKXKXKXM.. ^ zX9.n ;.;.+.;.l.}.,X,X[.n.D 3 +   # 4 . . O o O } KXn.B G M n u @ 0 GXKXKXKXKXKXKX'.o a r.=.f.g.s.s.s.s.s.p.r.e.$.@.@.s + r GXKXKXKXKXKXKXKXKXKXKXKXKXyX+ : T #.M @.T n T G M N N N N N N d . } KXKXKXKXKXKXKXKXKX} o 8 =.=.=.$.1.s.f.s.s.s.-.=.@.; - VXKXKXKXKXKXKXKXKXKXKXsXS 0 BXKXKXKXKXKXKXKXKXKXKXKXKXKXKXKXKXKXKXKXKXKXKXKXKXKXKXKXKXKXKXKX",
"KXKXKXKXKXKXKXKXKXKXKXKXKXKXKXKXKXKXKXKXKXKXKXKXKXKXKXKXKXKXKXKXKXKXKXKXKXKXKXKXKXKXKXKXKXKXKXKXKXKXKXHXdX} A < o   . o . + e ] sXHXKXKXKXKXKXKXKXKXKXKXKXKXKXKXKXKXKXJXA o [.6Xo.-.l p k R +.O.+.z.k.oXkXhX[.^ c - A [.,X[ ; o  .HXP N N j y @ S KXKXKXKXKXKXKXmX@ - -.w.r.g.f.s.s.s.s.f.9.2.#.@.C k % M.KXKXKXKXKXKXKXKXKXKXKXKXKXGXe @ k ;.O.@.:.M U #.N B B B N B N h + ) KXKXKXKXKXKXKXKXKXVX> @ U -.$.&.#.i.f.f.s.s.-.#.#.1 @ bXKXKXKXKXKXKXKXKXKXKXKXKXCXBXKXKXKXKXKXKXKXKXKXKXKXKXKXKXKXKXKXKXKXKXKXKXKXKXKXKXKXKXKXKXKX",
"KXKXKXKXKXKXKXKXKXKXKXKXKXKXKXKXKXKXKXKXKXKXKXKXKXKXKXKXKXKXKXKXKXKXKXKXKXKXKXKXKXKXKXKXKXKXKXKXLXfX] 0 .   + , t W ) ) S 0 @   . 0  .FXKXKXKXKXKXKXKXKXKXKXKXKXKXKXKXcXo 0 zXm.O.p + - o * : p C R +.>.,.t.m.7X,X,X6Xm.7.oXC * # IXn.g G M 2 = yXKXKXKXKXKXKXKXKXS o U f.e.x.s.s.s.s.s.f.-.-.*.*.s i < BXKXKXKXKXKXKXKXKXKXKXKXKXKXKXrXo 1 @.$.#.$.O.N $.*.M N N N N N l @ A LXKXKXKXKXKXKXKXKXKX} o 8 &.#.9.=.=.f.f.f.s.;.#.#.8 + dXKXKXKXKXKXKXKXKXKXKXKXKXKXKXKXKXKXKXKXKXKXKXKXKXKXKXKXKXKXKXKXKXKXKXKXKXKXKXKXKXKXKXKXKXKX",
"KXKXKXKXKXKXKXKXKXKXKXKXKXKXKXKXKXKXKXKXKXKXKXKXKXKXKXKXKXKXKXKXKXKXKXKXKXKXKXKXKXKXKXKXKXKXHXtXA o   @ S M.jXGXKXKXKXLXGXHXCXrXS + . 4 tXKXKXKXKXKXKXKXKXKXKXKXKXKXKXM.  ^ zXz.O.- ; @ S e @ o + - 1 h U Y o.:.z.l...] tXn U ; . UXiXg G N 2 + fXKXKXKXKXKXKXKXKX'.. k x.r.x.s.s.g.s.f.f.-.@.#.@.p ; e PXKXKXKXKXKXKXKXKXKXKXKXKXKXKXGXe + k 1.=.@.$.T #.:.T B N N B N l - < FXKXKXKXKXKXKXKXKXKXBX, @ M &.-.f.;.r.x.s.s.1.@.=.s o tXKXKXKXKXKXKXKXKXKXKXKXKXKXKXKXKXKXKXKXKXKXKXKXKXKXKXKXKXKXKXKXKXKXKXKXKXKXKXKXKXKXKXKXKXKX",
"KXKXKXKXKXKXKXKXKXKXKXKXKXKXKXKXKXKXKXKXKXKXKXKXKXKXKXKXKXKXKXKXKXKXKXKXKXKXKXKXKXKXKXKXFX} 4 . . q  .bXKXKXKXVXsXrXM.|  .eXuXfXnXdX) @ . ( HXKXKXKXKXKXKXKXKXKXKXKXKXA . [.6X:.C - * ) KXGXfXM.S > o o @ - 3 z O.;.N ' '.l n 1 O bXiXn U N 1 @ jXKXKXKXKXKXKXKXKXjX+ 1 p.p.f.s.s.s.s.f.f.;.@.&.$.8 @ W KXKXKXKXKXKXKXKXKXKXKXKXKXKXKXKXyXo ; O.w.=.:.#.#.$.$.J B N M M M : @ fXKXKXKXKXKXKXKXKXKXKXM.o 1 &.$.y.x.p.s.s.s.1.#.=.v o ] KXKXKXKXKXKXKXKXKXKXKXKXKXKXKXKXKXKXKXKXKXKXKXKXKXKXKXKXKXKXKXKXKXKXKXKXKXKXKXKXKXKXKXKXKX",
"KXKXKXKXKXKXKXKXKXKXKXKXKXKXKXKXKXKXKXKXKXKXKXKXKXKXKXKXKXKXKXKXKXKXKXKXKXKXKXKXKXKXKXJXS . @ ( sXJXKXKXVXyX .] ] { { { } | { ` { rXfXtXe . e VXKXKXKXKXKXKXKXKXKXKXbXO 0 kXm.+.a - + gXKXKXKXKXKXBXsX{ r + . - @ k :.N Y %.g ; 0 GXn.B G N - > BXKXKXKXKXKXKXKXKXGX0 @ 9.x.f.g.s.f.s.s.f.-.@.@.#.8 + ] KXKXKXKXKXKXKXKXKXKXKXKXKXKXKXKXKXS + p w.;.4.;.@.$.$.@.N B B M N 7 o M.KXKXKXKXKXKXKXKXKXKXGXq @ M ;.-.f.f.s.f.c.w.@.=.C @ S KXKXKXKXKXKXKXKXKXKXKXKXKXKXKXKXKXKXKXKXKXKXKXKXKXKXKXKXKXKXKXKXKXKXKXKXKXKXKXKXKXKXKXKXKX",
"KXKXKXKXKXKXKXKXKXKXKXKXKXKXKXKXKXKXKXKXKXKXKXKXKXKXKXKXKXKXKXKXKXKXKXKXKXKXKXKXKXKXKXFX0 @ tXKXKXPXfXeX{ { { } } } | ` Q A r e e r S ] eXS + q BXKXKXKXKXKXKXKXKXKXM.. ^ lX%.Y : @ e JXKXKXLXKXKXKXKXKXJXbX| - - - +.;.w.Z g + } SXL N N l * e PXKXKXKXKXKXKXKXKXKX) . T J.f.g.g.g.g.f.s.-.@.@.@.9 . rXKXKXKXKXKXKXKXKXKXKXKXKXKXKXKXKXKXfX@ @ T y.9.w.-.@.#.=.L m N m B i @ Q KXKXKXKXKXKXKXKXKXKXKXrXo 9 &.#.i.s.s.s.c.e.@.#.T - , FXKXKXKXKXKXKXKXKXKXKXKXKXKXKXKXKXKXKXKXKXKXKXKXKXKXKXKXKXKXKXKXKXKXKXKXKXKXKXKXKXKXKXKXKX",
"KXKXKXKXKXKXKXKXKXKXKXKXKXKXKXKXKXKXKXKXKXKXKXKXKXKXKXKXKXKXKXKXKXKXKXKXKXKXKXKXKXKXKXVX% @ ` KXfX| ] { | | } { } { r > , , , > - - - + > S q + W KXKXKXKXKXKXKXKXLXA o {.6XO.C $ * A CXKXKXKXKXKXKXKXKXKXKXJXe * q j.;.+.j 7 o bXhXV G N k O S KXKXKXKXKXKXKXKXKXKXtX. v J.g.s.s.s.g.g.s.=.#.@.T : + fXKXKXKXKXKXKXKXKXKXKXKXKXKXKXKXKXKXKX{ . 8 r.e.w.w.:.@.=.@.M M m m h - > VXKXKXKXKXKXKXKXKXKXKXGXe + I 1.1.H.s.s.s.r.@.@.@.7 + gXKXKXKXKXKXKXKXKXKXKXKXKXKXKXKXKXKXKXKXKXKXKXKXKXKXKXKXKXKXKXKXKXKXKXKXKXKXKXKXKXKXKXKXKX",
"KXKXKXKXKXKXKXKXKXKXKXKXKXKXKXKXKXKXKXKXKXKXKXKXKXKXKXKXKXKXKXKXKXKXKXKXKXVXtXyXHXKXBX)   S r bXdX` | | } } } } | e @ 4 > @ + o o o + @ - ; ; - $ CXKXKXKXKXKXKXKXbXo 0 zX_.+.R - * @ @ A } gXHXKXKXKXKXKXJXKX] o ^ k.:.Z f * r JXj.L J B 2 + | KXKXKXKXKXKXKXKXKXKXbXo 8 g.f.s.s.s.g.g.f.$.#.@.T - > BXKXKXKXKXKXKXKXKXKXKXKXKXKXKXKXKXKXKXSX4 @ P y.w.w.w.=.$.$.N M M m n 1 o tXKXKXKXKXKXKXKXKXKXKXKXyXo 3 r.4.f.x.s.s.p.$.#.#.k o  .KXKXKXKXKXKXKXKXKXKXKXKXKXKXKXKXKXKXKXKXKXKXKXKXKXKXKXKXKXKXKXKXKXKXKXKXKXKXKXKXKXKXKXKX",
"KXKXKXKXKXKXKXKXKXKXKXKXKXKXKXKXKXKXKXKXKXKXKXKXKXKXKXKXKXKXKXKXKXKXGXsX) > .   e ( > o % r S { FX{ } } } } { | ` - : O # W } eXeX| _ e - + @ . e PXKXKXKXKXKXKXKXM.  ^ lX2.+.%.%.m.^ w .   o 9 ' rXcXGXKXKXLXS o n.:.O.i 7 . eXDX4.#.B ^ uXGXKXGXFXJXKXKXKXKXKXKXKXGX0 ; r.s.f.s.s.s.f.f.$.@.#.U @ 0 GXKXKXKXKXKXKXKXKXKXKXKXKXKXKXKXKXKXKXKXyX+ - -.w.w.w.9.#.$.Y M M m m d + S KXKXKXKXKXKXKXKXKXKXKXJXA o U s.r.x.s.x.s.;.@.@.P @ A LXKXKXKXKXKXKXKXKXKXKXKXKXKXKXKXKXKXKXKXKXKXKXKXKXKXKXKXKXKXKXKXKXKXKXKXKXKXKXKXKXKXKXKX",
"KXKXKXKXKXKXKXKXKXKXKXKXKXKXKXKXKXKXKXKXKXKXKXKXKXKXKXKXKXKXKXKXJX .0   . , ] W   o 0 ] BXyX5 0 CXyX{ | } } } } _ $ ; M.ZXKXKXKXKXKXKXJXnXM.S ( bXKXKXKXKXKXKXKXKXW + [.1Xo.:.V o.l.}.7X`.n.~ 3 o   . w ` tX) . 5 j.>.R u - + BX,X>.#.aXKXHXrXW 5 , S VXKXKXKXKXKXKXKXQ + &.x.f.s.a.f.f.p.$.@.$.P @ A JXKXKXKXKXKXKXKXKXKXKXKXKXKXKXKXKXKXKXKXKX( o s r.w.w.w.#.#.O.B B m m j ; @ fXKXKXKXKXKXKXKXKXKXKXKXuXo 1 i.g.f.g.x.x.4.@.@.*.1 @ jXKXKXKXKXKXKXKXKXKXKXKXKXKXKXKXKXKXKXKXKXKXKXKXKXKXKXKXKXKXKXKXKXKXKXKXKXKXKXKXKXKXKXKX",
"KXKXKXKXKXKXKXKXKXKXKXKXKXKXKXKXKXKXKXKXKXKXKXKXKXKXKXKXKXKXKXKX{ o > S rXBXKXKX}   uXKXGXgXt . | BX{ | } } } { ` > - BXKXKXKXKXKXKXKXKXKXKXKXKXKXKXKXKXKXKXKXKXBX> 3 zX_.:.l A 0 M O.+.z.m.OX7Xm.^ c - o . . + ].w.:.M i o _ KXi.l.AXLX ., .   + - o { KXKXKXKXKXKXKX}   R J.s.f.a.f.f.p.#.@.=.P O Q KXKXKXKXKXKXKXKXKXKXKXKXKXKXKXKXKXKXKXKXKXbX@ - O.r.4.w.1.#.:.J m n N m p + ` KXKXKXKXKXKXKXKXKXKXKXJXr o R P.g.g.g.x.r.$.@.-.k . ] KXKXKXKXKXKXKXKXKXKXKXKXKXKXKXKXKXKXKXKXKXKXKXKXKXKXKXKXKXKXKXKXKXKXKXKXKXKXKXKXKXKXKX",
"KXKXKXKXKXKXKXKXKXKXKXKXKXKXKXKXKXKXKXKXKXKXKXKXKXKXKXKXKXKXKXCX@ , eXJXKXKXKXGXVXS e yX} { ` > 0 BXeX{ } } { { } e . sXKXKXKXKXKXKXKXKXKXKXKXKXKXKXKXKXKXKXKXKXbX. w zXt.Z e DX].* 7.%.+.o.o.+.t.}.7X7Xn.q.[ [.m.+.O.f y o fXvXi.JXVXe . - ' fXrX+ o M.KXKXKXKXKXKXKXFX( s Y.s.f.f.f.f.p.=.@.=.C o ` KXKXKXKXKXKXKXKXKXKXKXKXKXKXKXKXKXKXKXKXKXKX| o p 4.1.w.w.;.#.T m n N J h - $ bXKXKXKXKXKXKXKXKXKXKXKXtX. 8 H.x.x.s.s.p.:.O.@.U * < BXKXKXKXKXKXKXKXKXKXKXKXKXKXKXKXKXKXKXKXKXKXKXKXKXKXKXKXKXKXKXKXKXKXKXKXKXKXKXKXKXKXKX",
"KXKXKXKXKXKXKXKXKXKXKXKXKXKXKXKXKXKXKXKXKXKXKXKXKXKXKXKXKXKXKXuX. > 5 ` KXVXyX|  .eX@ W | } ] q @ eXbX` } { { {  .(   ] KXKXKXKXKXKXKXKXKXKXKXKXKXKXKXKXKXKXKXKXCX@ 0 kX9.Z > j.R 1 %.%.:.:.+.o.o.+.+.z.j.}._.t.+.Z i f = r KXhXAXCX>   r bXKXKX` @ # CXKXKXKXKXKXbX .CXKX[.s.g.f.f.f.f.a.-.@.=.z . ] KXKXKXKXKXKXKXKXKXKXKXKXKXKXKXKXKXKXKXKXKXKXHX0 @ R e.w.w.w.:.#.N M z J M 7 + ` KXKXKXKXKXKXKXKXKXKXKXHX0 @ 9.J.g.x.s.s.1.O.J #.8 o  .KXKXKXKXKXKXKXKXKXKXKXKXKXKXKXKXKXKXKXKXKXKXKXKXKXKXKXKXKXKXKXKXKXKXKXKXKXKXKXKXKXKX",
"KXKXKXKXKXKXKXKXKXKXKXKXKXKXKXKXKXKXKXKXKXKXKXKXKXKXKXKXKXKXKXtX. e } < eXgX) | | M.w 5 ` _ ` e > e BX .} | { ` W w @ r KXKXKXKXKXKXKXKXKXKXKXKXKXKXKXKXKXKXKXKXFXq o ].}.X.p @ 2 O.+.+.+.+.+.O.U :.:.:.o.V M h 2 - 2 : o sXKXKXHXe . ( JXGXVXfX0 - W KXKXKXKXKXJXe   # sXKX,Xu.g.s.s.s.s.-.*.=.z . { KXKXKXKXKXKXKXKXKXKXKXKXKXKXKXKXKXKXKXKXKXKXKXeX. 9 e.w.4.w.;.:.T N i N L h - @ fXKXKXKXKXKXKXKXKXKXKXKX} . v J.s.x.s.x.r.#.N #.C * < VXKXKXKXKXKXKXKXKXKXKXKXKXKXKXKXKXKXKXKXKXKXKXKXKXKXKXKXKXKXKXKXKXKXKXKXKXKXKXKXKXKX",
"KXKXKXKXKXKXKXKXKXKXKXKXKXKXKXKXKXKXKXKXKXKXKXKXKXKXKXKXKXKXKXpX. A  .] 5 bX'.| } } A - W W A 9 4 X yXbX` ) r > . - @ M.KXKXKXKXKXKXKXKXKXKXKXKXKXKXKXKXKXKXKXKXbX- * q ,Xt.+.U +.:.z.9.l.j.l.t.:.C s 8 1 : - - - @ . @ rXKXKXKX} . S JXGXmXSX .< * uXKXKXKXKXKXdXO 4 - - bXKXU.s.x.f.f.s.1.@.&.v . ] KXKXKXKXKXKXKXKXKXKXKXKXKXKXKXKXKXKXKXKXKXKXKXFX4 @ @.r.w.w.w.;.:.N i d Y J 7 + ( KXKXKXKXKXKXKXKXKXKXKXgX+ 1 p.x.s.s.x.f.:.N T =.p . ) KXKXKXKXKXKXKXKXKXKXKXKXKXKXKXKXKXKXKXKXKXKXKXKXKXKXKXKXKXKXKXKXKXKXKXKXKXKXKXKXKX",
"KXKXKXKXKXKXKXKXKXKXKXKXKXKXKXKXKXKXKXKXKXKXKXKXKXKXKXKXKXKXKXbX@ q { } r } sX{ ) ( A ; 0 $ o - 4 0 r { $ @ * ; 8 - + mXKXKXKXKXKXKXKXKXKXKXKXKXKXKXKXKXKXKXKXKX| + > * c 0.w.t.k._._.l.*.v a 2 ; @ o + @ - @ ; ; r | nXKXKXKXCX- , CXPXVXZXVXt @ q GXKXKXKXKXKX) . tX] . t KXvXc.K.s.f.f.9.@.#.C o ` KXKXKXKXKXKXKXKXKXKXKXKXKXKXKXKXKXKXKXKXKXKXKXKX .o s w.4.4.5.4.;.T z 1 G J N : @ jXKXKXKXKXKXKXKXKXKXKXHX0 @ %.x.s.x.c.c.2.U G =.R - @ fXKXKXKXKXKXKXKXKXKXKXKXKXKXKXKXKXKXKXKXKXKXKXKXKXKXKXKXKXKXKXKXKXKXKXKXKXKXKXKXKX",
"KXKXKXKXKXKXKXKXKXKXKXKXKXKXKXKXKXKXKXKXKXKXKXKXKXKXKXKXKXKXKXJXe @ ) } ] r | _ W S A : - % S < - r , o + 9 U ;.5.a   '.KXKXKXKXKXKXKXKXKXKXKXKXKXKXKXKXKXKXKXKXr o rXe o + 2 h h 7 ; = @ o o @ - , q S ) M.( o M.KXKXKXKXKXKX|    .KXMXVXHXsX> . { KXKXKXKXKXBX# % HXfX. . sXKXP.x.x.c.a.w.@.@.U + W KXKXKXKXKXKXKXKXKXKXKXKXKXKXKXKXKXKXKXKXKXKXKXKXbX@ 1 :.w.4.4.;.1.O.J d d J J s . M.KXKXKXKXKXKXKXKXKXKXKXS + U a.s.c.s.s.r.#.N T =.k + ` KXKXKXKXKXKXKXKXKXKXKXKXKXKXKXKXKXKXKXKXKXKXKXKXKXKXKXKXKXKXKXKXKXKXKXKXKXKXKXKX",
"KXKXKXKXKXKXKXKXKXKXKXKXKXKXKXKXKXKXKXKXKXKXKXKXKXKXKXKXKXKXKXKX| . A | } W ] W ( ) ( @ A VXKX'.o 9 : ; M r.5.,.,.O.* w GXKXKXKXKXKXKXKXKXKXKXKXKXKXKXKXKXKXKXbX. 5 JXCXt . o @ @ + + - , w S ) } eXyXsXjXmXbX4 e JXKXKXKXKXKXr . bXPXVXVXFX) - @ bXKXKXKXKXKXtX  _ LXBXr o ( KX7Xu.x.x.x.f.#.O.*.- 0 GXKXKXKXKXKXKXKXKXKXKXKXKXKXKXKXKXKXKXKXKXKXKXKXJXw @ T 5.4.1.;.;.T J M 7 J J k + ] KXKXKXKXKXKXKXKXKXKXKX` o P e.p.a.s.s.c.w.J N -.T * q GXKXKXKXKXKXKXKXKXKXKXKXKXKXKXKXKXKXKXKXKXKXKXKXKXKXKXKXKXKXKXKXKXKXKXKXKXKXKXKX",
"KXKXKXKXKXKXKXKXKXKXKXKXKXKXKXKXKXKXKXKXKXKXKXKXKXKXKXKXKXKXKXKXmX+ - ]  .W ` ] } ` r   | KXKXGX5 o = - O.,.;.:.,.5.h o tXKXKXKXKXKXKXKXKXKXKXKXKXKXKXKXKXKXKX'.. ] KXFXyX} _ W W ( ` } '.uXsXfXcXbXmXnXbXbXFXtXo M.KXKXKXKXBX; w GXSXBXSXjX5 * W KXKXKXKXKXKXW . sXHXSX{ - 0 GXhX6.g.s.c.x.e.T -.a + gXKXKXKXKXKXKXKXKXKXKXKXKXKXKXKXKXKXKXKXKXKXKXKXKX( . P 4.4.;.;.;.Y J J k G J s + ` KXKXKXKXKXKXKXKXKXKXKX| . C ;.r.a.s.c.x.e.#.N &.#.; % BXKXKXKXKXKXKXKXKXKXKXKXKXKXKXKXKXKXKXKXKXKXKXKXKXKXKXKXKXKXKXKXKXKXKXKXKXKXKXKX",
"KXKXKXKXKXKXKXKXKXKXKXKXKXKXKXKXKXKXKXKXKXKXKXKXKXKXKXKXKXKXKXKXKX| o q { } { ( r : O + bXKXKXKXfX` Q o a >.k.y.4.u.O.+ r JXKXKXKXKXKXKXKXKXKXKXKXKXKXKXKXKXKXW o sXLXjX'.bXnXgXsXdXjXcXbXnXMXmXnXnXnXmXNXnXuXW   e JXKXKXKXbX+ ( KXZXBXFXdX+ + eXKXKXKXKXKXbX@ A GXMXFX ., + bXvXu.x.x.x.x.p.@.;.P o ) KXKXKXKXKXKXKXKXKXKXKXKXKXKXKXKXKXKXKXKXKXKXKXKX] . C :.w.;.;.:.J U N N J J s .  .KXKXKXKXKXKXKXKXKXKXKX .. l ;.5.c.f.s.s.4.-.T #.*.- > BXKXKXKXKXKXKXKXKXKXKXKXKXKXKXKXKXKXKXKXKXKXKXKXKXKXKXKXKXKXKXKXKXKXKXKXKXKXKXKX",
"KXKXKXKXKXKXKXKXKXKXKXKXKXKXKXKXKXKXKXKXKXKXKXKXKXKXKXKXKXKXKXKXKXJXS . 4 S q + . @ W fXKXKXKXKXKXKXBX% - X.k. X,.5.5.8 . sXKXKXKXKXKXKXKXKXKXKXKXKXKXKXKXKXCX$ 4 BXHXsXyXmXmXmXnXmXmXmXnXmXnXnXnXnXmXjX .t   5 M.BXKXKXKXKXfX  ) KXZXZXZXCX0 @ ` KXKXKXKXKX} . '.KXmXFX .4 . dXAXu.H.H.x.H.p.#.&.*.- > BXKXKXKXKXKXKXKXKXKXKXKXKXKXKXKXKXKXKXKXKXKXKXKX] o C $.-.;.4.:.:.:.M G G J 7 + pXKXKXKXKXKXKXKXKXKXKXKX'.. l 4.;.a.a.a.p.5.e.@.#.T @ 0 HXKXKXKXKXKXKXKXKXKXKXKXKXKXKXKXKXKXKXKXKXKXKXKXKXKXKXKXKXKXKXKXKXKXKXKXKXKXKXKX",
"KXKXKXKXKXKXKXKXKXKXKXKXKXKXKXKXKXKXKXKXKXKXKXKXKXKXKXKXKXKXKXKXKXKXFXS . . + 0 { bXKXKXKXKXKXKXKXKXKX] o J ,.oXy.4.u.R o S KXKXKXKXKXKXKXKXKXKXKXKXKXKXKXKXrX  ) KXFXyXgXVXbXbXnXnXnXmXnXnXnXnXnXbXNXpX. + rXJXKXKXKXKXKXKXbX. S JXZXZXBXJX} o # tXKXKXKXgX< + CXGXVXSX{ 0 O gXvX5.L.H.H.J.p.O.#.*.9 + gXKXKXKXKXKXKXKXKXKXKXKXKXKXKXKXKXKXKXKXKXKXKXKX| . C -.=.,.;.;.5.=.G G J z - , BXKXKXKXKXKXKXKXKXKXKXKXuXo s =.;.a.a.s.a.s.r.@.&.P @ A LXKXKXKXKXKXKXKXKXKXKXKXKXKXKXKXKXKXKXKXKXKXKXKXKXKXKXKXKXKXKXKXKXKXKXKXKXKXKXKX",
"KXKXKXKXKXKXKXKXKXKXKXKXKXKXKXKXKXKXKXKXKXKXKXKXKXKXKXKXKXKXKXKXKXKXKXJXsX .pXGXKXKXKXKXKXKXKXKXKXKXKXjX* d >.}.|.,.r.4.3 o fXKXKXKXKXKXKXKXKXKXKXKXKXKXKXKX(   yXKXbXtXbXmXnXmXmXmXnXmXmXnXnXnXnXnXbXZX} . sXKXLXKXKXKXKXKXBX, w GXSXZXZXSXFXr . @ Q | Q o   } PXNXBXBX( 0 * CXhX>.L.H.K.H.e.@.#.$.k o tXKXKXKXKXKXKXKXKXKXKXKXKXKXKXKXKXKXKXKXKXKXKXKXtXo l 4.;.4.;.4.4.$.G J J a o ) KXKXKXKXKXKXKXKXKXKXKXKXfXo 1 =.4.s.a.s.s.a.w.*.-.C o ` KXKXKXKXKXKXKXKXKXKXKXKXKXKXKXKXKXKXKXKXKXKXKXKXKXKXKXKXKXKXKXKXKXKXKXKXKXKXKXKX",
"KXKXKXKXKXKXKXKXKXKXKXKXKXKXKXKXKXKXKXKXKXKXKXKXKXKXKXKXKXKXKXKXKXKXKXKXKXKXKXKXKXKXKXKXKXKXKXKXKXKXKXKXS + O.5.1X5.4.5.U o ' KXKXKXKXKXKXKXKXKXKXKXKXKXKXVX- , BXKXpXuXNXmXmXmXnXnXmXnXnXnXnXnXnXbXbXmXBXA 6 FXKXKXKXKXKXKXKXS @ bXPXBXZXNXSXHX{ , o     5 rXJXNXBXSXbXt < < PX[.;.L.H.K.f.4.1.#.&.k . M.KXKXKXKXKXKXKXKXKXKXKXKXKXKXKXKXKXKXKXKXKXKXKXfXo a 4.4.4.;.;.1.O.N J N : O gXKXKXKXKXKXKXKXKXKXKXKXKXBX> - #.y.a.a.p.p.p.2.@.-.s o yXKXKXKXKXKXKXKXKXKXKXKXKXKXKXKXKXKXKXKXKXKXKXKXKXKXKXKXKXKXKXKXKXKXKXKXKXKXKXKXKX",
"KXKXKXKXKXKXKXKXKXKXKXKXKXKXKXKXKXKXKXKXKXKXKXKXKXKXKXKXKXKXKXKXKXKXKXKXKXKXKXKXKXKXKXKXKXKXKXKXKXKXLXKXeX  k ,.OXU.5.5.,.1 @ bXKXKXKXKXKXKXKXKXKXKXKXKXKXtXo ) KXZXrXgXVXmXmXmXnXnXnXnXnXnXnXnXnXmXMXbXyXA   M.KXKXKXKXKXKXKXM.  | KXBXZXZXZXSXLXCXsXtXgXHXJXVXNXVXGXrXt + ( KXq.1.J.x.g.p.a.e.@.&.k . eXKXKXKXKXKXKXKXKXKXKXKXKXKXKXKXKXKXKXKXKXKXKXKXBX> 1 :.4.4.;.4.4.U N J s @ A LXKXKXKXKXKXKXKXKXKXKXKXKXKXQ + C y.p.a.p.p.a.-.&.&.1 - mXKXKXKXKXKXKXKXKXKXKXKXKXKXKXKXKXKXKXKXKXKXKXKXKXKXKXKXKXKXKXKXKXKXKXKXKXKXKXKXKX",
"KXKXKXKXKXKXKXKXKXKXKXKXKXKXKXKXKXKXKXKXKXKXKXKXKXKXKXKXKXKXKXKXKXKXKXKXKXKXKXKXKXKXKXKXKXKXKXKXKXKXKXKXHX0 ; +.i.#X5.5.5.Z . ` KXKXKXKXKXKXKXKXKXKXKXKXKX( o tXKXfXrXbXMXmXmXmXmXnXnXnXnXnXnXnXnXjXM.0 . q M.HXKXKXKXKXKXKXKXCX+ > ZXPXBXZXZXZXNXFXPXPXGXZXNXZXVXBXVXW A . sXAXV -.J.s.s.f.f.e.@.=.s o pXKXKXKXKXKXKXKXKXKXKXKXKXKXKXKXKXKXKXKXKXKXKXKXGXw ; $.4.1.,.4.=.N J N : o yXKXKXKXKXKXKXKXKXKXKXKXKXKXKXyXo 3 4.p.a.a.s.y.#.-.U @ A LXKXKXKXKXKXKXKXKXKXKXKXKXKXKXKXKXKXKXKXKXKXKXKXKXKXKXKXKXKXKXKXKXKXKXKXKXKXKXKXKX",
"KXKXKXKXKXKXKXKXKXKXKXKXKXKXKXKXKXKXKXKXKXKXKXKXKXKXKXKXKXKXKXKXKXKXKXKXKXKXKXKXKXKXKXKXKXKXKXKXKXBXtX] { c @ M ,.oXg.,.,.;.- > ] | M.rXuXdXfXbXCXBXFXJXCX# $ VXKXuXuXmXmXmXmXmXmXnXnXnXnXnXnXbXNX( . r sXPXKXKXKXKXKXKXKXKXKXKX) o yXJXFXBXZXZXZXZXNXNXVXBXBXBXNXHX| S ; e LXn.L -.x.s.s.f.f.w.@.&.7 @ bXKXKXKXKXKXKXKXKXKXKXKXKXKXKXKXKXKXKXKXKXKXKXKXJXw - #.w.4.4.;.J N J k @ e GXKXKXKXKXKXKXKXKXKXKXKXKXKXKXHX0 + *.x.p.a.5.:.@.=.v . } KXKXKXKXKXKXKXKXKXKXKXKXKXKXKXKXKXKXKXKXKXKXKXKXKXKXKXKXKXKXKXKXKXKXKXKXKXKXKXKXKX",
"KXKXKXKXKXKXKXKXKXKXKXKXKXKXKXKXKXKXKXKXKXKXKXKXKXKXKXKXKXKXKXKXKXKXKXKXKXKXKXKXKXKXKXKXKXKXKXKXrX% o     o + 7 >.k.oX5.;.5.l @ O       . . o + @ > 0 w 0 . W KXFXrXfXMXmXmXmXmXmXmXnXnXmXnXnXnXVXsX@ ( KXKXKXKXKXKXKXKXKXKXKXHX0 - gXsXHXHXBXBXZXZXZXZXBXBXMXZXGX .t 0 . cXCX@ @.9.p.g.x.s.f.&.#.T - 5 HXKXKXKXKXKXKXKXKXKXKXKXKXKXKXKXKXKXKXKXKXKXKXKXPXw * *.w.z.;.Y N N G 9 o eXKXKXKXKXKXKXKXKXKXKXKXKXKXKXKXKXeX. s s.f.f.4.@.$.&.p + sXKXKXKXKXKXKXKXKXKXKXKXKXKXKXKXKXKXKXKXKXKXKXKXKXKXKXKXKXKXKXKXKXKXKXKXKXKXKXKXKXKX",
"KXKXKXKXKXKXKXKXKXKXKXKXKXKXKXKXKXKXKXKXKXKXKXKXKXKXKXKXKXKXKXKXKXKXKXKXKXKXKXKXKXKXKXKXKXKXKXsX. @ Q N.n.n.w @ ..,.#Xy.5.,.:.@ , ^ ^ ~ ! D c q 4 > $ - ; . eXKXfXrXnXmXmXnXmXmXmXmXnXnXmXnXnXbXcXZX'.o | gXfXnXVXBXHXJXKXKXKXeX  ) KXgXeXMXPXHXSXBXNXVXNXSXPXVX` 0 0   eXKXW . U p.p.x.p.p.4.@.#.C o ( KXKXKXKXKXKXKXKXKXKXKXKXKXKXKXKXKXKXKXKXKXKXKXKXGXq - #.w.;.:.G N G l - < BXKXKXKXKXKXKXKXKXKXKXKXKXKXKXKXKXFX4 - t.s.p.f.-.#.@.1 > VXKXKXKXKXKXKXKXKXKXKXKXKXKXKXKXKXKXKXKXKXKXKXKXKXKXKXKXKXKXKXKXKXKXKXKXKXKXKXKXKXKX",
"KXKXKXKXKXKXKXKXKXKXKXKXKXKXKXKXKXKXKXKXKXKXKXKXKXKXKXKXKXKXKXKXKXKXKXKXKXKXKXKXKXKXKXKXKXKXFX0 o N.vX5X7XoX^ o h >.}.U.5.;.,.s . n.lX5X5X9X9X9X5X6X6X{.1 - bXKXuXuXMXmXmXmXnXmXmXmXmXmXmXnXmXNXmXsX] ; * O + @ + > 0 e A Q ) 4 . fXPXBXfXeXuXnXFXGXGXJXGXbXM.q < > . eXKXKX} o k s.p.s.p.#.#.@.$.k . M.KXKXKXKXKXKXKXKXKXKXKXKXKXKXKXKXKXKXKXKXKXKXKXKXFX, : -.w.4.;.J N J p o ` KXKXKXKXKXKXKXKXKXKXKXKXKXKXKXKXKXKX` . *.H.a.s.w.#.T * e JXKXKXKXKXKXKXKXKXKXKXKXKXKXKXKXKXKXKXKXKXKXKXKXKXKXKXKXKXKXKXKXKXKXKXKXKXKXKXKXKXKX",
"KXKXKXKXKXKXKXKXKXKXKXKXKXKXKXKXKXKXKXKXKXKXKXKXKXKXKXKXKXKXKXKXKXKXKXKXKXKXKXKXKXKXKXKXKXKX) . Q zXOXx @ + - - ; +.w. X,.w.>.O.* ; v I ~ ^ ^ n.n.`.[.n.+ W KXZXrXfXVXmXmXmXmXmXmXmXmXmXmXnXcX'.W + . 1 2 ; 9 , < > @ @ O o @ @ ( KXVXVXSXMXpX'.'.rXuXM.r - @ @ . r fXKXKXKXBX, - &.s.f.s.r.#.&.$.8 + gXKXKXKXKXKXKXKXKXKXKXKXKXKXKXKXKXKXKXKXKXKXKXKXKXCX$ 1 ;.w.w.:.N J N : + dXKXKXKXKXKXKXKXKXKXKXKXKXKXKXKXKXKXKXtX. v H.a.s.w.@.P + Q KXKXKXKXKXKXKXKXKXKXKXKXKXKXKXKXKXKXKXKXKXKXKXKXKXKXKXKXKXKXKXKXKXKXKXKXKXKXKXKXKXKX",
"KXKXKXKXKXKXKXKXKXKXKXKXKXKXKXKXKXKXKXKXKXKXKXKXKXKXKXKXKXKXKXKXKXKXKXKXKXKXKXKXKXKXKXKXKXuX. 5 hX3Xv ; - - - - @ M >.U.y.,.>.,.k - 2 i h l h g g f h : . eXKXjXtXmXmXmXmXmXmXmXmXmXmXmXnXMXgX% @ 1 k J &._.6X6X6X,X7X7X`.`., . gXJXMXSXBXVXZXMXbXcX'.+ > : : S tXJXKXKXKXKXKX'.. 8 g.s.x.J.r.@.@.: $ CXKXKXKXKXKXKXKXKXKXKXKXKXKXKXKXKXKXKXKXKXKXKXKXKXjX+ 7 1.;.4.#.N J k @ w GXKXKXKXKXKXKXKXKXKXKXKXKXKXKXKXKXKXKXcXo p x.f.s.w.#.C o ] KXKXKXKXKXKXKXKXKXKXKXKXKXKXKXKXKXKXKXKXKXKXKXKXKXKXKXKXKXKXKXKXKXKXKXKXKXKXKXKXKXKX",
"KXKXKXKXKXKXKXKXKXKXKXKXKXKXKXKXKXKXKXKXKXKXKXKXKXKXKXKXKXKXKXKXKXKXKXKXKXKXKXKXKXKXKXKXBX5 . ].lX8.2 i $ - - - - 2 >.r.v.,.;.,.:.- : u f Z Z Z U J J : + bXKXuXsXVXmXmXmXmXmXmXmXnXmXnXmXbXNXM.o 7 j M ^ q.n.`.`.[.7X7X6X`.o S JXBXBXfXbXSXVXBXZXSXW r 4 - ; c S S { BXKXKXKXHX5 @ r.J.g.H.d.@.*.- 4 HXKXKXKXKXKXKXKXKXKXKXKXKXKXKXKXKXKXKXKXKXKXKXKXKXuX. s 4.;.,.O.N J p . } KXKXKXKXKXKXKXKXKXKXKXKXKXKXKXKXKXKXKXBX% : f.s.s.w.&.v . M.KXKXKXKXKXKXKXKXKXKXKXKXKXKXKXKXKXKXKXKXKXKXKXKXKXKXKXKXKXKXKXKXKXKXKXKXKXKXKXKXKXKX",
"KXKXKXKXKXKXKXKXKXKXKXKXKXKXKXKXKXKXKXKXKXKXKXKXKXKXKXKXKXKXKXKXKXKXKXKXKXKXKXKXKXKXKXKX` . Q zX}.1 j y - 1 - - - - K :.k.5.5.>.5.p @ 7 i n U N M N k @ A KXSXtXjXMXmXmXmXmXmXmXmXmXmXmXnXnXmXZXW @ y u 1 d f f d d s p a , o uXKXfXt X 0  .FXVXFXtX5 r - + + - @ o . 0 VXKXLXKX` . *.J.g.x.i.&.*.- e GXKXKXKXKXKXKXKXKXKXKXKXKXKXKXKXKXKXKXKXKXKXKXKXKXM.. l 4.;.;.T N N : + fXKXKXKXKXKXKXKXKXKXKXKXKXKXKXKXKXKXKXKXGX0 - p.s.s.w.=.k . eXKXKXKXKXKXKXKXKXKXKXKXKXKXKXKXKXKXKXKXKXKXKXKXKXKXKXKXKXKXKXKXKXKXKXKXKXKXKXKXKXKXKX",
"KXKXKXKXKXKXKXKXKXKXKXKXKXKXKXKXKXKXKXKXKXKXKXKXKXKXKXKXKXKXKXKXKXKXKXKXKXKXKXKXKXKXKXpXo , hX5Xc u j y - 2 ; - - @ h >.e.u.5.:.>.Y @ ; y f Z Y J U 8 . M.KXjXyXMXmXmXmXmXmXmXmXmXmXnXnXNXBXgX{ q - 1 f d M U U Z Z N M s o e GXHXW 5 } ` 5 uXFXSXW e > + Q ,XkX{.[ a @ Q KXKXKXsXo k H.g.H.f.&.@.* t JXKXKXKXKXKXKXKXKXKXKXKXKXKXKXKXKXKXKXKXKXKXKXKXKX` . U 4.;.;.J J l @ e PXKXKXKXKXKXKXKXKXKXKXKXKXKXKXKXKXKXKXKXJXr @ e.x.s.w.=.k o yXKXKXKXKXKXKXKXKXKXKXKXKXKXKXKXKXKXKXKXKXKXKXKXKXKXKXKXKXKXKXKXKXKXKXKXKXKXKXKXKXKXKX",
"KXKXKXKXKXKXKXKXKXKXKXKXKXKXKXKXKXKXKXKXKXKXKXKXKXKXKXKXKXKXKXKXKXKXKXKXKXKXKXKXKXKXFX0 o ].zXq.; j g y - y 2 - - - ; +.:.x.5.,.X.5.2 @ - ; 2 y 7 p ; @ bXKXpXsXVXmXmXmXmXmXnXnXmXmXmXmXtX( > . @ ; y i i l N M M M M n 3 . rXKXyX+ '.sXyXS tXHXuX0 r . S zX9X`.C n n : + CXKXKXBX> : h.H.x.f.#.T @ t JXKXKXKXKXKXKXKXKXKXKXKXKXKXKXKXKXKXKXKXKXKXKXKXKXA @ O.4.;.:.N J s o ] KXKXKXKXKXKXKXKXKXKXKXKXKXKXKXKXKXKXKXKXKXS + 9.x.s.e.&.s o sXKXKXKXKXKXKXKXKXKXKXKXKXKXKXKXKXKXKXKXKXKXKXKXKXKXKXKXKXKXKXKXKXKXKXKXKXKXKXKXKXKXKX",
"KXKXKXKXKXKXKXKXKXKXKXKXKXKXKXKXKXKXKXKXKXKXKXKXKXKXKXKXKXKXKXKXKXKXKXKXKXKXKXKXKXKX`   Q zXOX, g g g u - y y - - ; @ M >.y.u.,.X.5.U @ - - - - - - @ r JXFXtXcXMXmXmXmXmXmXmXmXmXmXnXZX]   ; - - 7 g i l Z N N M M B h @ 0 FXBXr t uXyXtX( VXMXW q : - hX2Xj.i B n j 1 . tXKXKXJXA @ e.J.g.f.$.T * t JXKXKXKXKXKXKXKXKXKXKXKXKXKXKXKXKXKXKXKXKXKXKXKXFX< ; :.;.;.#.N G 1 o sXKXKXKXKXKXKXKXKXKXKXKXKXKXKXKXKXKXKXKXKXKXQ o 9.H.g.e.$.a + gXKXKXKXKXKXKXKXKXKXKXKXKXKXKXKXKXKXKXKXKXKXKXKXKXKXKXKXKXKXKXKXKXKXKXKXKXKXKXKXKXKXKX",
"KXKXKXKXKXKXKXKXKXKXKXKXKXKXKXKXKXKXKXKXKXKXKXKXKXKXKXKXKXKXKXKXKXKXKXKXKXKXKXKXKXsX+ < hX5Xc F n g g u - 2 i 1 - ; - 7 >.>.u.5.:.+.4.; - - - - - , o | KXcXyXMXmXMXMXMXmXmXmXmXmXmXmXmXnXS @ - - 2 y y h l M M M N N 3 o eXLXtX.  .uXpX) tXJXyX& 0 o N.lX}.z n u y n i O ' KXJXKX] o &.J.f.f.=.T - q GXKXKXKXKXKXKXKXKXKXKXKXKXKXKXKXKXKXKXKXKXKXKXKXjXo 8 4.;.;.O.N M - 5 FXKXKXKXKXKXKXKXKXKXKXKXKXKXKXKXKXKXKXKXKXKX( o 9.J.g.e.#.a + fXKXKXKXKXKXKXKXKXKXKXKXKXKXKXKXKXKXKXKXKXKXKXKXKXKXKXKXKXKXKXKXKXKXKXKXKXKXKXKXKXKXKX",
"KXKXKXKXKXKXKXKXKXKXKXKXKXKXKXKXKXKXKXKXKXKXKXKXKXKXKXKXKXKXKXKXKXKXKXKXKXKXKXKXHXq o ].zXq.; n j g g u - 2 f y - - ; - L X.,.5.5...5.C @ ; - - - ; @ fXKXuXdXNXMXMXMXmXmXmXmXmXmXmXMXVXSXsX- - - - - - - - - ; : 1 1 * w HXZXS 0 yXyXtX( ZXBX( > + r zX&X^ i f - * j n - 0 GXKXKXrX. I L.s.s.-.@.- 0 HXKXKXKXKXKXKXKXKXKXKXKXKXKXKXKXKXKXKXKXKXKXKXKXrX. k 5.;.;.Y N k + ( KXKXKXKXKXKXKXKXKXKXKXKXKXKXKXKXKXKXKXKXKXKX( o 9.H.x.e.#.p + fXKXKXKXKXKXKXKXKXKXKXKXKXKXKXKXKXKXKXKXKXKXKXKXKXKXKXKXKXKXKXKXKXKXKXKXKXKXKXKXKXKXKX",
"KXKXKXKXKXKXKXKXKXKXKXKXKXKXKXKXKXKXKXKXKXKXKXKXKXKXKXKXKXKXKXKXKXKXKXKXKXKXKXKX]   W zXOX> g j j g g u - 7 i i : - ; - s >.X.5.,.:.>.5.; - - - - @ e JXHXyXbXMXMXMXmXmXmXMXmXmXmXmXMXsX] e - - - - - - - - - - - - - o eXKXsX+ } yXuX) eXPXpX- : + {.4Xj.f j : - - i B 1 o jXKXKXgX. k H.s.x.2.@.; , FXKXKXKXKXKXKXKXKXKXKXKXKXKXKXKXKXKXKXKXKXKXKXKX` . U 5.;.;.J N a o eXKXKXKXKXKXKXKXKXKXKXKXKXKXKXKXKXKXKXKXKXKXKX( o 9.H.x.t.@.7 + jXKXKXKXKXKXKXKXKXKXKXKXKXKXKXKXKXKXKXKXKXKXKXKXKXKXKXKXKXKXKXKXKXKXKXKXKXKXKXKXKXKXKX",
"KXKXKXKXKXKXKXKXKXKXKXKXKXKXKXKXKXKXKXKXKXKXKXKXKXKXKXKXKXKXKXKXKXKXKXKXKXKXKXdXO % hX4XA 2 n j g g g u - y i u y - - - ; +...:.,.5.>.u.l @ ; - ; o | KXnXpXBXMXmXMXmXMXMXmXmXmXMXcXr - @ * - - - - - - - - - - - - - 5 BXFX( 0 yXyXtXW CXVX( @ @ ' lXOXC n u ; : ; 2 B y . eXKXKXmX+ 8 x.x.x.1.@.2 > BXKXKXKXKXKXKXKXKXKXKXKXKXKXKXKXKXKXKXKXKXKXKXJXw * #.4.;.:.J N 1 @ jXKXKXKXKXKXKXKXKXKXKXKXKXKXKXKXKXKXKXKXKXKXKXS + 9.x.s.e.$.8 + jXKXKXKXKXKXKXKXKXKXKXKXKXKXKXKXKXKXKXKXKXKXKXKXKXKXKXKXKXKXKXKXKXKXKXKXKXKXKXKXKXKXKX",
"KXKXKXKXKXKXKXKXKXKXKXKXKXKXKXKXKXKXKXKXKXKXKXKXKXKXKXKXKXKXKXKXKXKXKXKXKXKXGXe o ].lXq.@ j j j g g g i - 7 i u i 1 - - @ B X.X.5.5.,.>.;.- - - - @ jXKXdXjXBXMXMXMXMXMXMXMXmXMXmXNX` o : - - - - - - - - - - - - , o  .KXpX+ ` uXsX` M.GXsX+ - 4 kX-X8.i g 1 u 1 1 ; n h O ) KXKXFX5 ; f.x.x.5.@.7 @ bXKXKXKXKXKXKXKXKXKXKXKXKXKXKXKXKXKXKXKXKXKXKXbX+ 7 ,.;.;.$.N M * 0 GXKXKXKXKXKXKXKXKXKXKXKXKXKXKXKXKXKXKXKXKXKXKXA @ e.x.s.e.#.8 + jXKXKXKXKXKXKXKXKXKXKXKXKXKXKXKXKXKXKXKXKXKXKXKXKXKXKXKXKXKXKXKXKXKXKXKXKXKXKXKXKXKXKX",
"KXKXKXKXKXKXKXKXKXKXKXKXKXKXKXKXKXKXKXKXKXKXKXKXKXKXKXKXKXKXKXKXKXKXKXKXLXdXS + 0 {.`.6 u g j j j j j i - y i u i y - - - 2 +.J 5.5.5.X.5.k @ - @ t JXHXuXmXVXMXMXMXMXMXMXmXmXmXmXmXBXS @ - - - - - - - - - - - - - < VXFX( $ eXyXuXW mXBX) + + ].5X}.h j 2 7 f ; 2 - j n ; w GXKXJXr @ r.H.x.5.@.p o gXKXKXKXKXKXKXKXKXKXKXKXKXKXKXKXKXKXKXKXKXKXKXeX. v w.;.;.O.G k + ( KXKXKXKXKXKXKXKXKXKXKXKXKXKXKXKXKXKXKXKXKXKXJXe @ t.c.x.e.@.8 + jXKXKXKXKXKXKXKXKXKXKXKXKXKXKXKXKXKXKXKXKXKXKXKXKXKXKXKXKXKXKXKXKXKXKXKXKXKXKXKXKXKXKX",
"KXKXKXKXKXKXKXKXKXKXKXKXKXKXKXKXKXKXKXKXKXKXKXKXKXKXKXKXKXKXKXKXKXKXKXKX` . + @ @ . + - ; ; : 1 2 7 7 2 - 2 y y y u : - - @ L >.:.y.y.,.>.%.@ ; o } KXbXsXNXMXMXMXMXMXMXMXMXmXNXSXCXfX) @ ; - - - - - - - - - - - + } KXdX+ ( yXpX]  .PXgX> + Q lX@XR g i : f y ; y - i V 2 @ fXKXKX( o 1.J.s.5.$.s . yXKXKXKXKXKXKXKXKXKXKXKXKXKXKXKXKXKXKXKXKXKXKXQ o R 5.1.;.T N a . M.KXKXKXKXKXKXKXKXKXKXKXKXKXKXKXKXKXKXKXKXKXKXHX5 - i.x.x.e.@.p + fXKXKXKXKXKXKXKXKXKXKXKXKXKXKXKXKXKXKXKXKXKXKXKXKXKXKXKXKXKXKXKXKXKXKXKXKXKXKXKXKXKXKX",
"KXKXKXKXKXKXKXKXKXKXKXKXKXKXKXKXKXKXKXKXKXKXKXKXKXKXKXKXKXKXKXKXKXKXKXfX. q [ ' ! A 0 5 - @ + o o o . o @ @ * - - ; : : ; - a L M #.;.5.X.4.s - @ bXKXfXbXZXVXMXmXmXmXmXmXmXMXfX} A + @ ; - - - - - - - - - - - - > CXHX) # eXyXuXS bXZX` O > hX2Xj.f n 2 y i y ; u 1 7 V p . '.KXKX} . &.J.a.r.$.l . '.KXKXKXKXKXKXKXKXKXKXKXKXKXKXKXKXKXKXKXKXKXBX> : =.4.1.;.J N 7 + dXKXKXKXKXKXKXKXKXKXKXKXKXKXKXKXKXKXKXKXKXKXKXBX> 1 f.g.x.e.@.a o gXKXKXKXKXKXKXKXKXKXKXKXKXKXKXKXKXKXKXKXKXKXKXKXKXKXKXKXKXKXKXKXKXKXKXKXKXKXKXKXKXKXKX",
"KXKXKXKXKXKXKXKXKXKXKXKXKXKXKXKXKXKXKXKXKXKXKXKXKXKXKXKXKXKXKXKXKXKXKXsX  Q vXlXzXzXlXkXhXhX{.].].[ ' Q A w 0 < $ + o o o + O @ * @ ; 2 1 7 p ; 9 tXpXM.gXcXbXMXNXZXZXZXZXBXZXjX> @ - - - - - - - - - - - - - ; o { KXfX$ _ uXpX{ } HXdX< o N.5XXXC g y 2 f i 2 : u 7 : B h + S LXKXM.. R H.f.p.=.P o ] KXKXKXKXKXKXKXKXKXKXKXKXKXKXKXKXKXKXKXKXKXyXo s 5.4.4.;.J N ; $ VXKXKXKXKXKXKXKXKXKXKXKXKXKXKXKXKXKXKXKXKXKXKXbX+ 8 s.f.x.e.$.s o sXKXKXKXKXKXKXKXKXKXKXKXKXKXKXKXKXKXKXKXKXKXKXKXKXKXKXKXKXKXKXKXKXKXKXKXKXKXKXKXKXKXKX",
"KXKXKXKXKXKXKXKXKXKXKXKXKXKXKXKXKXKXKXKXKXKXKXKXKXKXKXKXKXKXKXKXKXKXKXsX  Q 5X}.m._.OXoX#X3X5X9XlXzXzXzXzXzXzXhXhX{.[.].} ` Q D c 0 > + + . o O @ o . o $ < q A Q ) ] | '.yXpXjX .+ - - - - - - - - - - - - - - + bXJX] @ eXyXyXr bXSX{ . r kX;X8.i f : f f i 2 1 i y - h n 2 * } KXyX  I H.s.f.-.U @ Q KXKXKXKXKXKXKXKXKXKXKXKXKXKXKXKXKXKXKXKXKX( o U 5.1.w.$.N M @ e JXKXKXKXKXKXKXKXKXKXKXKXKXKXKXKXKXKXKXKXKXKXKXdX. k x.p.x.r.=.k . uXKXKXKXKXKXKXKXKXKXKXKXKXKXKXKXKXKXKXKXKXKXKXKXKXKXKXKXKXKXKXKXKXKXKXKXKXKXKXKXKXKXKX",
"KXKXKXKXKXKXKXKXKXKXKXKXKXKXKXKXKXKXKXKXKXKXKXKXKXKXKXKXKXKXKXKXKXKXKXsX  Q lX0.7 d p a a x v ~ ^ 8.0.m._.OXoX=X2X5X9X9XlXzXzXlXzXzXhX,X[.].N.[ ^ Q A q < $ + o . .   . o + + + 4 - ; : : , ; ; - - - - - - ; + ] KXfX> ) yXpX} { GXgX, @ [.<Xm.f n 2 y f i y @ ; h i ; 7 V n 1 o tXfX  v J.s.s.;.T - w GXKXKXKXKXKXKXKXKXKXKXKXKXKXKXKXKXKXKXKXVX- : -.4.;.4.@.N k o ) KXKXKXKXKXKXKXKXKXKXKXKXKXKXKXKXKXKXKXKXKXKXKXrX. P x.f.s.r.=.v . tXKXKXKXKXKXKXKXKXKXKXKXKXKXKXKXKXKXKXKXKXKXKXKXKXKXKXKXKXKXKXKXKXKXKXKXKXKXKXKXKXKXKX",
"KXKXKXKXKXKXKXKXKXKXKXKXKXKXKXKXKXKXKXKXKXKXKXKXKXKXKXKXKXKXKXKXKXKXKXsX  Q lX0.M +.O.V K B j j f i d p p p a x v I ~ 7.0.j.k.V.|..X;X-X4X5XlXlXlXlXlXlXkX,X{.[.].N.[ Q Q A 0 > @ @ @ + + + O @ @ * - - - - , - ` rX( + | rXyXW bXVXW   ' 5XOXI g i 2 f i f @ [ vXD F f - z V h @ e fX+ s H.s.x.1.O.1 - CXKXKXKXKXKXKXKXKXKXKXKXKXKXKXKXKXKXKXKX'.. s 5.;.;.;.T J s .  .KXKXKXKXKXKXKXKXKXKXKXKXKXKXKXKXKXKXKXKXKXKXKX} . T x.f.s.r.=.v . M.KXKXKXKXKXKXKXKXKXKXKXKXKXKXKXKXKXKXKXKXKXKXKXKXKXKXKXKXKXKXKXKXKXKXKXKXKXKXKXKXKXKX",
"KXKXKXKXKXKXKXKXKXKXKXKXKXKXKXKXKXKXKXKXKXKXKXKXKXKXKXKXKXKXKXKXKXKXKXsX  Q lXq.l Y 9 A 8 J +.+.+.+.+.O.o.K J N B n l g h i s s s k v I R 7.8.9.0.j._.OXoX;X2X5X5X9XlXlXlXzXzXkXhXaX{.].N.[ Q S e 0 > @ + + o o o . . + @ , < 4 Q A . & ,X-X0.f j 1 y i i i ; _.DX! 1 j 2 - j m ; 4 gX> 7 x.f.x.4.@.a + sXKXKXKXKXKXKXKXKXKXKXKXKXKXKXKXKXKXKXPXe @ T 5.;.;.;.Y J 8 . yXKXKXKXKXKXKXKXKXKXKXKXKXKXKXKXKXKXKXKXKXKXKXKXQ o -.x.a.s.r.#.C . } KXKXKXKXKXKXKXKXKXKXKXKXKXKXKXKXKXKXKXKXKXKXKXKXKXKXKXKXKXKXKXKXKXKXKXKXKXKXKXKXKXKX",
"KXKXKXKXKXKXKXKXKXKXKXKXKXKXKXKXKXKXKXKXKXKXKXKXKXKXKXKXKXKXKXKXKXKXKXsX  Q lX0.M 7 } DXq.1 +.o.o.O.O.Y o.o.O.O.+.+.+.+.O.O.O.Y U Z Z B n j h d 7 1 3 3 8 x c v I ^ 8.0.k.}. X&X2X4X5X9X9XlXlXlXzXzXhXhX{.[.N.[ [ Q A 0 4 - + . . o , `.>X_.j n 2 2 i u i u ; l G - 7 f f - d B ; , fX4 1 s.f.g.e.=.v o | KXKXKXKXKXKXKXKXKXKXKXKXKXKXKXKXKXKXM.. 8 1.;.1.4.;.J J 1 + fXKXKXKXKXKXKXKXKXKXKXKXKXKXKXKXKXKXKXKXKXKXKXGX0 - e.s.f.s.r.#.P + ) KXKXKXKXKXKXKXKXKXKXKXKXKXKXKXKXKXKXKXKXKXKXKXKXKXKXKXKXKXKXKXKXKXKXKXKXKXKXKXKXKXKX",
"KXKXKXKXKXKXKXKXKXKXKXKXKXKXKXKXKXKXKXKXKXKXKXKXKXKXKXKXKXKXKXKXKXKXKXsX  Q lX0.M 7 [.:X}.1 L O.o.o.o.o.o.o.o.o.O.o.Y o.o.Y Y Y o.Y Y o.O.O.o.O.O.o.K J M n l f y y 1 1 3 9 8 s c v I ^ 7.0.k.U.|.XX+X;X2X5X5X9XlXlXzXlXkXhX,X[.].[.zXzX_.h f y ; i u u u i 1 - - ; y u i ; d V ; < fX0 2 s.s.s.r.@.P @ W KXKXKXKXKXKXKXKXKXKXKXKXKXKXKXKXKXsX@ * T 1.;.;.4.=.J G ; + CXKXKXKXKXKXKXKXKXKXKXKXKXKXKXKXKXKXKXKXKXKXKXfX+ 8 s.f.f.s.r.#.U @ A KXKXKXKXKXKXKXKXKXKXKXKXKXKXKXKXKXKXKXKXKXKXKXKXKXKXKXKXKXKXKXKXKXKXKXKXKXKXKXKXKXKX",
"KXKXKXKXKXKXKXKXKXKXKXKXKXKXKXKXKXKXKXKXKXKXKXKXKXKXKXKXKXKXKXKXKXKXKXsX  Q lX0.N l v |.~ @ L K L O.O.+.+.o.o.o.o.o.o.O.O.o.Y Y Y o.Y K K L K Y K o.L o.O.O.O.+.+.+.O.O.Y K Z M l f i y y d d s h k v P R 7.7.9.l.k.V.}.oX&X;X>X6XlX7XR f g 7 - u f u y 2 2 7 7 y i u u f - i J ; > fX0 2 s.s.s.p.@.@.; > BXKXKXKXKXKXKXKXKXKXKXKXKXKXKXKXbX# @ P 5.;.;.;.4.#.J G - < FXKXKXKXKXKXKXKXKXKXKXKXKXKXKXKXKXKXKXKXKXKXKX] o I a.e.p.a.r.#.@.; 4 FXKXKXKXKXKXKXKXKXKXKXKXKXKXKXKXKXKXKXKXKXKXKXKXKXKXKXKXKXKXKXKXKXKXKXKXKXKXKXKXKXKX",
"KXKXKXKXKXKXKXKXKXKXKXKXKXKXKXKXKXKXKXKXKXKXKXKXKXKXKXKXKXKXKXKXKXKXKXsX  Q lX0.M O.y - - M ..J V K K L o.o.o.Y o.o.L ..o.o.o.o.o.o...o.L o.L K Y Y Y Y Y L Y L L ..L L Y o.o.O.O.O.O.O.O.O.O.L K Z M M n l h s i d 8 a s a x k j. XR u g 2 - 7 y 2 2 2 y y y i i u u i f - d V : < fX0 2 s.f.f.f.#.=.s o tXKXKXKXKXKXKXKXKXKXKXKXKXKXKXJXr o v 5.1.4.1.;.4.#.J J ; 0 GXKXKXKXKXKXKXKXKXKXKXKXKXKXKXKXKXKXKXKXKXKXcX@ - -.e.e.p.p.y.#.@.9 + fXKXKXKXKXKXKXKXKXKXKXKXKXKXKXKXKXKXKXKXKXKXKXKXKXKXKXKXKXKXKXKXKXKXKXKXKXKXKXKXKXKX",
"KXKXKXKXKXKXKXKXKXKXKXKXKXKXKXKXKXKXKXKXKXKXKXKXKXKXKXKXKXKXKXKXKXKXKXsX  ! 5Xj.N O.O.U O.+.O.o.Y K K K K K L L o.o.o.o.o...o.Y o.o.Y Y Y o.Y K K Y Y o.o.o.o.O.o...o...L L L o.L K K L Y o.o.o.o.o.o.O.O.O.O.O.T T Y B J l d + 0.XX7.g g - 7 7 7 y i f f i i u u u i i f - d V : , gX< 7 s.a.p.p.=.=.P @ S KXKXKXKXKXKXKXKXKXKXKXKXKXKXgX. 3 1.5.1.4.w.4.4.:.J G ; 5 HXKXKXKXKXKXKXKXKXKXKXKXKXKXKXKXKXKXKXKXKXKXW . I f.p.f.a.p.a.:.#.k . } KXKXKXKXKXKXKXKXKXKXKXKXKXKXKXKXKXKXKXKXKXKXKXKXKXKXKXKXKXKXKXKXKXKXKXKXKXKXKXKXKX",
"KXKXKXKXKXKXKXKXKXKXKXKXKXKXKXKXKXKXKXKXKXKXKXKXKXKXKXKXKXKXKXKXKXKXKXsX  ! 5Xj.J O.T +.O.+.O.Y Y L Y o.....L ..L L L o.o.....Y Y o.o.o.Y Y o.o.o.o.o.o.o.o.o.o.o.o.o.o.o.o.o.o.o.L L L o.o.o.o.Y L L L L Y Y Y Y M ; q 7 Y X.1 0. X^ g h ; i i i i i i i i i i i i i i f - u V ; 0 tX+ a x.p.p.p.-.@.@.1 + dXKXKXKXKXKXKXKXKXKXKXKXKXKX| o k &.=.w.w.w.w.w.O.N N - < FXKXKXKXKXKXKXKXKXKXKXKXKXKXKXKXKXKXKXKXKXfX@ 8 p.a.p.f.p.p.s.5.#.U @ w PXKXKXKXKXKXKXKXKXKXKXKXKXKXKXKXKXKXKXKXKXKXKXKXKXKXKXKXKXKXKXKXKXKXKXKXKXKXKXKXKX",
"KXKXKXKXKXKXKXKXKXKXKXKXKXKXKXKXKXKXKXKXKXKXKXKXKXKXKXKXKXKXKXKXKXKXKXsX  ! 5Xj.N O.O.+.+.O.o.Y o.o.o.o.o.O...o.o.o.o.o.o.o.o.Y Y o.o.o.o.o...o.O.o.o.Y Y Y Y Y Y o.Y o.o.L L L L L K Y o.L Y o.Y Y K Y L Y o.O.Y ; pXkXc 7 +.1 0..X^ g h - u i i i i i i i i i i i f i f - y B ; q ) . C x.a.a.a.e.T @.l o S KXKXKXKXKXKXKXKXKXKXKXKXKX` O G U M ;.1.w.;.=.G N N ; 0 HXKXKXKXKXKXKXKXKXKXKXKXKXKXKXKXKXKXKXKXKXM.. R J.r.f.p.f.f.p.r.@.@.7 @ bXKXKXKXKXKXKXKXKXKXKXKXKXKXKXKXKXKXKXKXKXKXKXKXKXKXKXKXKXKXKXKXKXKXKXKXKXKXKXKXKX",
"KXKXKXKXKXKXKXKXKXKXKXKXKXKXKXKXKXKXKXKXKXKXKXKXKXKXKXKXKXKXKXKXKXKXKXsX  ! 5Xj.n N V K J K Y o.o.o.....o.o.o.o.o.O.o...o.L Y o.o.o.Y o.o.o.o.o.o.o.o.o.o.L Y L Y Y Y Y o.o.Y ......o.o.L L L Y L L L L L o.o.o.N w kX+Xj.: +.; l.&X7.g f - u i i i i i i i i i i i i i f - d V : - < @ 9.s.p.a.a.p.@.@.@.1 + fXKXKXKXKXKXKXKXKXKXKXKXKX] . U ;.s U 4.1.=.T N J M - A JXKXKXKXKXKXKXKXKXKXKXKXKXKXKXKXKXKXKXKXKX{   s i.P -.J.i.r.p.e.O.#.s o sXKXKXKXKXKXKXKXKXKXKXKXKXKXKXKXKXKXKXKXKXKXKXKXKXKXKXKXKXKXKXKXKXKXKXKXKXKXKXKXKX",
"KXKXKXKXKXKXKXKXKXKXKXKXKXKXKXKXKXKXKXKXKXKXKXKXKXKXKXKXKXKXKXKXKXKXKXsX  ! 5Xl.M O.o.K K L L K K J J J L Y L ..o.O.O.o.o.o.o.Y L o.o.o.o.o.o.o.o.o.o.o.Y Y Y Y Y Y o.o.o...L K K L ......L K K Y L Y Y Y Y o.o.J - 8.|.v 2 +.; 0.&X8.g f - u i i i i i i i i i i i i i f - y B : - @ 9 g.a.f.f.p.r.T O.#.z o | KXKXKXKXKXKXKXKXKXKXKXPXS + T 5.-.-.w.:.N G G J a . { KXKXKXKXKXKXKXKXKXKXKXKXKXKXKXKXKXKXKXKXKX| . k J i 7 M G f.p.w.T @.s o pXKXKXKXKXKXKXKXKXKXKXKXKXKXKXKXKXKXKXKXKXKXKXKXKXKXKXKXKXKXKXKXKXKXKXKXKXKXKXKXKX",
"KXKXKXKXKXKXKXKXKXKXKXKXKXKXKXKXKXKXKXKXKXKXKXKXKXKXKXKXKXKXKXKXKXKXKXsX  ! 5X0.M +.O.O.o.+.O.+.O.Y o.L Y L K K J K K K K K K K L o.O.o.o.o.o.o.o.o.o.o.o.Y o.Y o.o.o.o.o.O.O.L ....X.X.X.X...........Y o.O.Y Y O.l $ : - J O.: 0..X^ g h - i i i f i i i i i i i i i i f ; u B : - @ k s.4.a.a.c.1.U O.O.P @ ( KXKXKXKXKXKXKXKXKXKXVXS o k w.1.1.1.1.:.J J L h @ % VXKXKXKXKXKXKXKXKXKXKXKXKXKXKXKXKXKXKXKXKXKXuXo P x.-.M M e.x.f.9.T T 1 + bXKXKXKXKXKXKXKXKXKXKXKXKXKXKXKXKXKXKXKXKXKXKXKXKXKXKXKXKXKXKXKXKXKXKXKXKXKXKXKXKX",
"KXKXKXKXKXKXKXKXKXKXKXKXKXKXKXKXKXKXKXKXKXKXKXKXKXKXKXKXKXKXKXKXKXKXKXsX  ! 5X0.M O.Y o.Y O.O.O.O.+.O.O.O.O.Y L Y Y L Y K V J V J K K L ..o.o.O.O.o.o.O.O.O.O.o.o.O.O.O.o.o.O.o.O.o...O.O.o.o.......L ..L ..L K K Y N l O.O.Y ; l.XX^ g f - i i i i i i i i f f i i i u i - y m : - $ P i.#.p.a.c.&.O.O.T C + Q KXKXKXKXKXKXKXKXJX'.> @ s -.w.w.w.1.;.1.Y J J 1 + dXKXKXKXKXKXKXKXKXKXKXKXKXKXKXKXKXKXKXKXKXKXKX_   R J.g.g.g.s.f.p.#.#.C + e JXKXKXKXKXKXKXKXKXKXKXKXKXKXKXKXKXKXKXKXKXKXKXKXKXKXKXKXKXKXKXKXKXKXKXKXKXKXKXKXKX",
"KXKXKXKXKXKXKXKXKXKXKXKXKXKXKXKXKXKXKXKXKXKXKXKXKXKXKXKXKXKXKXKXKXKXKXsX  ! 4X0.n Y Y O.O.O.Y O.O.O.O.O.o.Y Y Y o...O.O.o.o.o.O.O.L K o.O.o.o.o.o.o.o.O.O.o.O.o.o.O.O.O.o.......o.o...o.o.o.o.o.o.o.o.o.o.o.Y O.O.Y K K V Z N - 0..X7.g f - i i u i i i i i i i i u i i i - y B : - @ P f.#.4.f.p.#.@.O.@.k . ] KXKXKXKXKXKXKXVXS o - v r.5.C R y.4.;.1.U J J 2 @ pXKXKXKXKXKXKXKXKXKXKXKXKXKXKXKXKXKXKXKXKXGX`   > i.f.g.f.f.t.-.$.#.#.p . uXKXKXKXKXKXKXKXKXKXKXKXKXKXKXKXKXKXKXKXKXKXKXKXKXKXKXKXKXKXKXKXKXKXKXKXKXKXKXKXKXKX",
"KXKXKXKXKXKXKXKXKXKXKXKXKXKXKXKXKXKXKXKXKXKXKXKXKXKXKXKXKXKXKXKXKXKXKXsX  ! 4X0.j B B V V V V Y ..o.o.O.O.O.o.O.o.o.O.O.O.O.o.o.O.O.O.o.O.O.o.o.o.o.o.o.o.o.O.O.o.o.O.o.........o.o.o.o.o.o.o.o.o.o.Y o.L o.o.o.O.O.Y o.o.Y K - 0.XX8.g g - u i i i i i i i i i i i i i i - y B : $ + -.J.4.e.f.p.@.@.@.@.8 . sXKXKXKXKXKXKXCX0 O - - s $.M ; R *.w.5.;.U N L l @ 4 HXKXKXKXKXKXKXKXKXKXKXKXKXKXKXKXKXKXKXbXe @ a 9.r.p.t.9.h.i.O.T $.@.3 o sXKXKXKXKXKXKXKXKXKXKXKXKXKXKXKXKXKXKXKXKXKXKXKXKXKXKXKXKXKXKXKXKXKXKXKXKXKXKXKXKXKX",
"KXKXKXKXKXKXKXKXKXKXKXKXKXKXKXKXKXKXKXKXKXKXKXKXKXKXKXKXKXKXKXKXKXKXKXsX. ! 4X0.n O.Y J V V V V V V J L L o.o.o.L o.o.O.O.O.O.O.o.+.o.L L o.o.L o.o.o.O.O.o.O.O.O.O.O.O.O.o.o.L L o.....L ..o.o.o.o.o.o.Y Y o...o.Y L L Y Y Y ; 0.XX8.g g - u i i u i i i i i i i i i i i - d B : + v p.g.s.f.f.f.9.T $.U - A JXKXKXKXKXKXGXe O x q.~ a - - ; : x I -.1.N N N J 7   rXKXKXKXKXKXKXKXKXKXKXKXKXKXKXKXKXKXgX# @ 1 U 9.a.&.9 i.v.x.x.$.T #.l @ q FXKXKXKXKXKXKXKXKXKXKXKXKXKXKXKXKXKXKXKXKXKXKXKXKXKXKXKXKXKXKXKXKXKXKXKXKXKXKXKXKX",
"KXKXKXKXKXKXKXKXKXKXKXKXKXKXKXKXKXKXKXKXKXKXKXKXKXKXKXKXKXKXKXKXKXKXKXsX. ! :X0.n +.O.Y O.O.+.O.o.Y O.Y L K o.L L o.O.O.O.O.o.O.o.o.o.o.o.o.o...o.o.o.o.O.o.o.O.....K L L L K K L ..O.o.o.O.O.O.O.o.o.Y K L K K o.L Y L K Y K ; l.XX7.g f - u u i u u i i i i i i i i i f ; u B : - 9.p.p.J.f.f.f.r.T #.P + ) KXKXKXKXKXKX} . 0 n.8.k , + - ^ q.I v I #.J M l M a O _ KXKXKXKXKXKXKXKXKXKXKXKXKXKXKXKXbX% * ; 8 > x #.; v U P 9.g.9.T *.:.s . ` KXKXKXKXKXKXKXKXKXKXKXKXKXKXKXKXKXKXKXKXKXKXKXKXKXKXKXKXKXKXKXKXKXKXKXKXKXKXKXKX",
"KXKXKXKXKXKXKXKXKXKXKXKXKXKXKXKXKXKXKXKXKXKXKXKXKXKXKXKXKXKXKXKXKXKXKXsX  D :X0.n +.O.Y Y o.O.O.o.o.O.O.O.O.O.O.o.O.O.o.O.o.....o.o.o.o.o.O.O.O.o.o.o.o.o.o.o.o.o.O...o.Y L K K K J K L L L L o.O.O.O.O.L o.......L Y Y Y o.L ; 0.XX7.g i - u u u u u i i i i i i f i i f ; u B : - 9.r.i.7.p.g.f.f.@.@.T - @ gXKXKXKXKXBX< @ ^ ^ k 9 - @ ^ n.~ C C v z z s p a a - A LXKXKXKXKXKXKXKXKXKXKXKXKXKXKXJXr o w n.^ v x $ - ; w c x I e.T #.$.U @ % VXKXKXKXKXKXKXKXKXKXKXKXKXKXKXKXKXKXKXKXKXKXKXKXKXKXKXKXKXKXKXKXKXKXKXKXKXKXKXKX",
"KXKXKXKXKXKXKXKXKXKXKXKXKXKXKXKXKXKXKXKXKXKXKXKXKXKXKXKXKXKXKXKXKXKXKXsX  D <X0.l O.O.O.o.o.Y o.o.o.o.O.O.O.o.O.O.O.O.o.o.o.....o.o.O.o.O.O.+.O.o.o.Y o.o.o.o.o.o.o.O.O.o.X.O.O.o.o.o.o.O.Y L K K K K ....X.X.X...O.o.o.o.o.Y ; 0.XX7.g i - y u u u i i i i i i i i i i i - u B 1 $ R f.k k f.i.g.g.9.@.=.l O 0 FXKXKXKXrXo c n.v p - - D n.~ v I C v a s s s s a * r JXKXKXKXKXKXKXKXKXKXKXKXKXKXKXeX. , n.q.v v - @ $ ^ m.I v 8 U @.C k z 3 o yXKXKXKXKXKXKXKXKXKXKXKXKXKXKXKXKXKXKXKXKXKXKXKXKXKXKXKXKXKXKXKXKXKXKXKXKXKXKXKX",
"KXKXKXKXKXKXKXKXKXKXKXKXKXKXKXKXKXKXKXKXKXKXKXKXKXKXKXKXKXKXKXKXKXKXKXsX  v -X0.l Y O.O.O.o.o.Y o.o.o.+.O.O.O.O.+.O.O.O.O.O.o.O.o.O.O.O.O.O.O.O.O.o.o.L ..o.o.o...o.o.o.o.O.O.O.O.O.o.O.O.+.O.O.o.K K ..K K J K L o.L ..o.Y Y - 0. XR g f - y u i i i i i i i i i i i i i - u V 1 - 1 v - s : 8 *.J.r.O.@.@.8 . | KXKXKX) . ~ ^ s ; - ; n.q.v C C I k a s s s s 9 @ W KXKXKXKXKXKXKXKXKXKXKXKXKXKXJXr @ ^ n.c v 7 - @ ! `.^ C C v s v s s s p + { KXKXKXKXKXKXKXKXKXKXKXKXKXKXKXKXKXKXKXKXKXKXKXKXKXKXKXKXKXKXKXKXKXKXKXKXKXKXKX",
"KXKXKXKXKXKXKXKXKXKXKXKXKXKXKXKXKXKXKXKXKXKXKXKXKXKXKXKXKXKXKXKXKXKXKXsX  v <X0.n K K L o.o.o.O.O.+.O.O.+.O.O.+.O.O.O.O.O.O.O.O.O.o.O.O.+.O.o.o.o.o.o.o...o.o.o...o.o.O.O.O.O.O.+.O.O.O.o.O.o.o.Y K ..O.O.O.o.o.O.O.+.O.....K - 9. XR g f - u i u u i u i i i i i i i i i - y B 1 ; s @ @ , D I C R i.@.@.C v * 4 FXKXKXW + v ~ p - @ 9 m.^ C v C v s s a s s p , . M.KXKXKXKXKXKXKXKXKXKXKXKXKXKXfX+ 9 m.^ c x 1 - , n.n.v C C C s s s s h a + ( KXKXKXKXKXKXKXKXKXKXKXKXKXKXKXKXKXKXKXKXKXKXKXKXKXKXKXKXKXKXKXKXKXKXKXKXKXKXKX",
"KXKXKXKXKXKXKXKXKXKXKXKXKXKXKXKXKXKXKXKXKXKXKXKXKXKXKXKXKXKXKXKXKXKXKXsX  D <X0.M o.K K Y L O.O.O.+.O.+.+.O.O.O.O...o.o.o.......O.O.O.O.O.O.o.o.o.o.....o.O.O.O.o.o.O.O.O.o.O.O.+.O.O.o.o.L L o.o.L ..O.O.o.O.o.o.o.O.O.O.o.Y - 0. XR g f - u i i u u u i u u i i i i u i ; u B ; - p - , n.n.v I v I P k p s 1 + dXKXKX{ o 8 a , - @ c n.I I I v p s s s p 7 : o r GXKXKXKXKXKXKXKXKXKXKXKXKXKXKXtX. c n.v v 8 1 @ D m.~ v C C C s s s s s a + ( KXKXKXKXKXKXKXKXKXKXKXKXKXKXKXKXKXKXKXKXKXKXKXKXKXKXKXKXKXKXKXKXKXKXKXKXKXKXKX",
"KXKXKXKXKXKXKXKXKXKXKXKXKXKXKXKXKXKXKXKXKXKXKXKXKXKXKXKXKXKXKXKXKXKXKXsX  D -X0.B O.L Y Y o.+.O.O.+.+.+.+.O.O.O.O.O.o.o.L K K K J K K K K K L o.o.....o.O.O.o.o.o.O.O.O.O.O.O.o.O.o.o.o.L L K L ....L Y O.O.O.o.o.o.o.o.Y Y K ; 0. XR g f - u i u u u u i i u i i i i i i ; u B ; - ; * ^ n.C v C v s a a s s 8 o M.KXKXZXA o o o @ - 9 D c v v x : 9 9 1 - @ o Q FXKXKXKXKXKXKXKXKXKXKXKXKXKXKXKXM.o x q.v v 7 : @ ^ m.C v v C k a s s s s 3 + } KXKXKXKXKXKXKXKXKXKXKXKXKXKXKXKXKXKXKXKXKXKXKXKXKXKXKXKXKXKXKXKXKXKXKXKXKXKXKX",
"KXKXKXKXKXKXKXKXKXKXKXKXKXKXKXKXKXKXKXKXKXKXKXKXKXKXKXKXKXKXKXKXKXKXKXdX. ! 2X0.n O.o.Y K Y Y Y o.O.+.+.O.O.O.+.O.O.O.O.O.O.O.O.O.O.Y K K V V V V V V K L L o.O.O.O...o.O.O.O.O.....o.o.o.L L ..O.o.o.O.o.O.O.o.L o.L L Y K K ; 0. XR g i - u i u u u u u i i i i i i i i ; u B ; - - 3 n.q.C C v v a s s s k p o } KXKXKXJXyX` S W 6 o . @ - - - @ @ o o # S sXKXKXKXKXKXKXKXKXKXKXKXKXKXKXKXKXKXsXo , w v c 2 ; @ ^ n.v I C v p s k h p : @ # nXKXKXKXKXKXKXKXKXKXKXKXKXKXKXKXKXKXKXKXKXKXKXKXKXKXKXKXKXKXKXKXKXKXKXKXKXKXKXKX",
"KXKXKXKXKXKXKXKXKXKXKXKXKXKXKXKXKXKXKXKXKXKXKXKXKXKXKXKXKXKXKXKXKXKXKXdX  ! 4X0.j o.o.+.+.+.O.O.O.O.o.O.O.O.O.O.O.O.O.O.o.O.O.O.O.O.O.O.+.O.o.Y Y K J K K J J V V V J K L ..O.O.o.O.L o.o.L ..o.o.o.O.o.O.O.O.O.o.o.o.O.Y K L ; 0. XR g i - y u u u u u u i i i u i i u i - y B : - - w n.^ C C v v a s s s s 9 . } KXKXKXKXKXKXKXKXVX| Q r 0 0 q r S ` rXCXKXKXKXKXKXKXKXKXKXKXKXKXKXKXKXKXKXKXKXKX) . + - - @ * : c ! c v v x 1 8 9 1 - o % sXKXKXKXKXKXKXKXKXKXKXKXKXKXKXKXKXKXKXKXKXKXKXKXKXKXKXKXKXKXKXKXKXKXKXKXKXKXKXKXKX",
"KXKXKXKXKXKXKXKXKXKXKXKXKXKXKXKXKXKXKXKXKXKXKXKXKXKXKXKXKXKXKXKXKXKXKXsX  ! 6Xj.k k h l n B Z K o.O.+.+.+.+.O.O.+.o.o.L o.O.O.+.O.O.O.O.O.o.o.o.o.o.O.O.O.o.o.K K K V V V V K K K K L L o.o.o.o.O.O.O.+.+.O.O.o.Y o.O.o.Y Y L ; 0. XR g f - y u u u u u u u i i u i u u u - y B : - - x n.I v v C v a s s s a , . yXKXKXKXKXKXKXKXKXKXKXKXJXGXGXGXJXKXKXKXKXKXKXKXKXKXKXKXKXKXKXKXKXKXKXKXKXKXKXKXKXKXsX' r 5 % q * + + * - - @ @ @ + O 4 } BXKXKXKXKXKXKXKXKXKXKXKXKXKXKXKXKXKXKXKXKXKXKXKXKXKXKXKXKXKXKXKXKXKXKXKXKXKXKXKXKXKX",
"KXKXKXKXKXKXKXKXKXKXKXKXKXKXKXKXKXKXKXKXKXKXKXKXKXKXKXKXKXKXKXKXKXKXKXsX. ! 3XoXoXOX_.j.q.7.R I v l l n M N V Y O.O.+.O.+.O.O.O.o.o.o.o.O.o.Y Y o.o.o.o.o.o.O.o.o.o.o.o...o...O...K K K L L ..o.O.O.O.O.O.O.O.O.O.O.O.O.o.Y Y ; 0. XR g f - u u u u u u u u u u u u u u i - y B : - - x 8.v v C I k s s a 3 ; o r JXKXKXKXKXKXKXKXKXKXKXKXKXKXKXKXKXKXKXKXKXKXKXKXKXKXKXKXKXKXKXKXKXKXKXKXKXKXKXKXKXKXKXKXJXFXSXPXpX( A q 0 0 q r ( | dXHXKXKXKXKXKXKXKXKXKXKXKXKXKXKXKXKXKXKXKXKXKXKXKXKXKXKXKXKXKXKXKXKXKXKXKXKXKXKXKXKXKXKXKX",
"KXKXKXKXKXKXKXKXKXKXKXKXKXKXKXKXKXKXKXKXKXKXKXKXKXKXKXKXKXKXKXKXKXKXKXbX@ 9 8.j._.oX&X-X4X4X<X&XoX}.m.j.8.^ I C v k l l M N J Y o.O.O.+.+.O.o.o.Y Y Y o.o.o.o.O.o.O.o...L L o.O.O.O.o.O.O.o.o.o.o.o.o.o.o.O.o.o.o.o.O.O.O.Y Y ; 9.|.I g f * u u u u u u u u u u u u i y 2 $ u B : - - 1 x x x x x 9 3 : - + . S BXKXKXKXKXKXKXKXKXKXKXKXKXKXKXKXKXKXKXKXKXKXKXKXKXKXKXKXKXKXKXKXKXKXKXKXKXKXKXKXKXKXKXKXKXKXKXKXKXKXKXLXGXHXHXGXJXKXKXKXKXKXKXKXKXKXKXKXKXKXKXKXKXKXKXKXKXKXKXKXKXKXKXKXKXKXKXKXKXKXKXKXKXKXKXKXKXKXKXKXKXKXKXKX",
"KXKXKXKXKXKXKXKXKXKXKXKXKXKXKXKXKXKXKXKXKXKXKXKXKXKXKXKXKXKXKXKXKXKXKXKX' . . + - 3 x v ~ 8.q.m.}.OX@X-X-X;X;XoX|.m.j.q.^ I C v k k l n M Z Y o.O.O.+.O.O.O.O.O.O.O.O.o.o.o.o.O.o.o.o.o.O.o.o.Y o.o.o.O.o.O.O.O.o.L o...o.o.Y ; 0. XI g f - y u u u u u u u u u u 7 ; - ; y j n 1 - 4 . o O + @ O o o O > ( sXKXKXKXKXKXKXKXKXKXKXKXKXKXKXKXKXKXKXKXKXKXKXKXKXKXKXKXKXKXKXKXKXKXKXKXKXKXKXKXKXKXKXKXKXKXKXKXKXKXKXKXKXKXKXKXKXKXKXKXKXKXKXKXKXKXKXKXKXKXKXKXKXKXKXKXKXKXKXKXKXKXKXKXKXKXKXKXKXKXKXKXKXKXKXKXKXKXKXKXKXKXKXKXKXKX",
"KXKXKXKXKXKXKXKXKXKXKXKXKXKXKXKXKXKXKXKXKXKXKXKXKXKXKXKXKXKXKXKXKXKXKXKXJX .r 0 $ + o . . o + @ , 9 c D ^ 8.j._.OXoX;X;X;X;X@XOX}.k.0.8.R I v k h h j M N V K o.O.+.+.O.O.o.o.o.o...o.o.o.L L o.o.o.Y L Y o.o.O.O.O.O.O.o.o.Y ; 0. XI g f - y u y y y u u u y 1 - - 1 u n B n j : < jXyX{ ) ( ( ) ` M.sXBXKXKXKXKXKXKXKXKXKXKXKXKXKXKXKXKXKXKXKXKXKXKXKXKXKXKXKXKXKXKXKXKXKXKXKXKXKXKXKXKXKXKXKXKXKXKXKXKXKXKXKXKXKXKXKXKXKXKXKXKXKXKXKXKXKXKXKXKXKXKXKXKXKXKXKXKXKXKXKXKXKXKXKXKXKXKXKXKXKXKXKXKXKXKXKXKXKXKXKXKXKXKXKXKXKXKXKX",
"KXKXKXKXKXKXKXKXKXKXKXKXKXKXKXKXKXKXKXKXKXKXKXKXKXKXKXKXKXKXKXKXKXKXKXKXKXKXKXHXmXfXyX .` W q > @ o . . . + @ - , w v ~ ^ 0.j.}.OX@X;X;X;X;XoXOXm.j.0.7.R I v k l l n B Z K K Y o.o.o.o.o.L L L Y Y Y Y Y Y o.O.+.o.o.o.Y L Y ; 0. XC g f - y y y u u y 2 ; - 1 y j n n B j y 1 @ 4 PXKXKXKXKXKXKXKXKXKXKXKXKXKXKXKXKXKXKXKXKXKXKXKXKXKXKXKXKXKXKXKXKXKXKXKXKXKXKXKXKXKXKXKXKXKXKXKXKXKXKXKXKXKXKXKXKXKXKXKXKXKXKXKXKXKXKXKXKXKXKXKXKXKXKXKXKXKXKXKXKXKXKXKXKXKXKXKXKXKXKXKXKXKXKXKXKXKXKXKXKXKXKXKXKXKXKXKXKXKXKXKXKXKXKXKXKXKX",
"KXKXKXKXKXKXKXKXKXKXKXKXKXKXKXKXKXKXKXKXKXKXKXKXKXKXKXKXKXKXKXKXKXKXKXKXKXKXKXKXKXKXKXKXKXKXGXVXbXsX'.] Q r 5 @ o o . . o @ * , 9 c v ^ 8.l._.}.oX;X>X;X;X;XOX}.m.0.8.^ I v k h h j n B V K o.O.O.O.O.o.Y o.o.o.O.o.o.o.o.O.K ; 0. XC g f - y u y 2 ; - : y g n n n j i 7 : @ o @ sXKXLXKXKXKXKXKXKXKXKXKXKXKXKXKXKXKXKXKXKXKXKXKXKXKXKXKXKXKXKXKXKXKXKXKXKXKXKXKXKXKXKXKXKXKXKXKXKXKXKXKXKXKXKXKXKXKXKXKXKXKXKXKXKXKXKXKXKXKXKXKXKXKXKXKXKXKXKXKXKXKXKXKXKXKXKXKXKXKXKXKXKXKXKXKXKXKXKXKXKXKXKXKXKXKXKXKXKXKXKXKXKXKXKXKXKXKXKX",
"KXKXKXKXKXKXKXKXKXKXKXKXKXKXKXKXKXKXKXKXKXKXKXKXKXKXKXKXKXKXKXKXKXKXKXKXKXKXKXKXKXKXKXKXKXKXKXKXKXKXKXKXKXJXBXbXdXrX| ) A 0 > @ o . . . o @ - , w v ~ ^ 0.j.}.OX@X;X>X>X;XoX}.m.j.0.7.R C k k h h l N V V Y o.O.+.+.+.O.O.o.K ; 0. XC g f - 2 ; - : 7 g n n n j f 7 : - o + e | CXKXKXKXKXKXKXKXKXKXKXKXKXKXKXKXKXKXKXKXKXKXKXKXKXKXKXKXKXKXKXKXKXKXKXKXKXKXKXKXKXKXKXKXKXKXKXKXKXKXKXKXKXKXKXKXKXKXKXKXKXKXKXKXKXKXKXKXKXKXKXKXKXKXKXKXKXKXKXKXKXKXKXKXKXKXKXKXKXKXKXKXKXKXKXKXKXKXKXKXKXKXKXKXKXKXKXKXKXKXKXKXKXKXKXKXKXKXKXKX",
"KXKXKXKXKXKXKXKXKXKXKXKXKXKXKXKXKXKXKXKXKXKXKXKXKXKXKXKXKXKXKXKXKXKXKXKXKXKXKXKXKXKXKXKXKXKXKXKXKXKXKXKXKXKXKXKXKXKXKXKXKXGXVXfXuX'.] Q e 5 @ + o . . o @ - , 9 c D ^ q.j._.|.XX@X;X;X&X.X X}.j.0.7.R I k s s d f l M Z J K K ; 0. Xv g g @ - 2 i j n n j g y 1 - O o 5 ` gXJXKXKXKXKXKXKXKXKXKXKXKXKXKXKXKXKXKXKXKXKXKXKXKXKXKXKXKXKXKXKXKXKXKXKXKXKXKXKXKXKXKXKXKXKXKXKXKXKXKXKXKXKXKXKXKXKXKXKXKXKXKXKXKXKXKXKXKXKXKXKXKXKXKXKXKXKXKXKXKXKXKXKXKXKXKXKXKXKXKXKXKXKXKXKXKXKXKXKXKXKXKXKXKXKXKXKXKXKXKXKXKXKXKXKXKXKXKXKXKXKXKX",
"KXKXKXKXKXKXKXKXKXKXKXKXKXKXKXKXKXKXKXKXKXKXKXKXKXKXKXKXKXKXKXKXKXKXKXKXKXKXKXKXKXKXKXKXKXKXKXKXKXKXKXKXKXKXKXKXKXKXKXKXKXKXKXKXKXKXKXKXJXBXbXdXrX} ) A 0 $ + . . . . + @ ; 9 x v ~ 7.0.j.}. X.X+X+X+XXX|.}.k.0.7.^ I v s p d @ 0. XC n g u j n n n j u 1 ; @ o - Q yXFXKXKXKXKXKXKXKXKXKXKXKXKXKXKXKXKXKXKXKXKXKXKXKXKXKXKXKXKXKXKXKXKXKXKXKXKXKXKXKXKXKXKXKXKXKXKXKXKXKXKXKXKXKXKXKXKXKXKXKXKXKXKXKXKXKXKXKXKXKXKXKXKXKXKXKXKXKXKXKXKXKXKXKXKXKXKXKXKXKXKXKXKXKXKXKXKXKXKXKXKXKXKXKXKXKXKXKXKXKXKXKXKXKXKXKXKXKXKXKXKXKXKXKXKX",
"KXKXKXKXKXKXKXKXKXKXKXKXKXKXKXKXKXKXKXKXKXKXKXKXKXKXKXKXKXKXKXKXKXKXKXKXKXKXKXKXKXKXKXKXKXKXKXKXKXKXKXKXKXKXKXKXKXKXKXKXKXKXKXKXKXKXKXKXKXKXKXKXKXKXKXKXHXCXfXyX .` S w > @ o . . . o @ - , 8 c ~ ^ 8.l.k.}. X.X+X@X+XXX|._.j.q.k.|.C g n n n j f 7 : * + + e M.CXKXKXKXKXKXKXKXKXKXKXKXKXKXKXKXKXKXKXKXKXKXKXKXKXKXKXKXKXKXKXKXKXKXKXKXKXKXKXKXKXKXKXKXKXKXKXKXKXKXKXKXKXKXKXKXKXKXKXKXKXKXKXKXKXKXKXKXKXKXKXKXKXKXKXKXKXKXKXKXKXKXKXKXKXKXKXKXKXKXKXKXKXKXKXKXKXKXKXKXKXKXKXKXKXKXKXKXKXKXKXKXKXKXKXKXKXKXKXKXKXKXKXKXKXKXKXKX",
"KXKXKXKXKXKXKXKXKXKXKXKXKXKXKXKXKXKXKXKXKXKXKXKXKXKXKXKXKXKXKXKXKXKXKXKXKXKXKXKXKXKXKXKXKXKXKXKXKXKXKXKXKXKXKXKXKXKXKXKXKXKXKXKXKXKXKXKXKXKXKXKXKXKXKXKXKXKXKXKXKXKXKXGXVXjXpXeX{ ( r 4 $ O o . o o @ @ ; 9 x v ~ 7.0.j.}.}.XX+X X+Xv f n i 7 : - + + 4 ` gXJXKXKXKXKXKXKXKXKXKXKXKXKXKXKXKXKXKXKXKXKXKXKXKXKXKXKXKXKXKXKXKXKXKXKXKXKXKXKXKXKXKXKXKXKXKXKXKXKXKXKXKXKXKXKXKXKXKXKXKXKXKXKXKXKXKXKXKXKXKXKXKXKXKXKXKXKXKXKXKXKXKXKXKXKXKXKXKXKXKXKXKXKXKXKXKXKXKXKXKXKXKXKXKXKXKXKXKXKXKXKXKXKXKXKXKXKXKXKXKXKXKXKXKXKXKXKXKXKXKX",
"KXKXKXKXKXKXKXKXKXKXKXKXKXKXKXKXKXKXKXKXKXKXKXKXKXKXKXKXKXKXKXKXKXKXKXKXKXKXKXKXKXKXKXKXKXKXKXKXKXKXKXKXKXKXKXKXKXKXKXKXKXKXKXKXKXKXKXKXKXKXKXKXKXKXKXKXKXKXKXKXKXKXKXKXKXKXKXKXKXKXJXIXnXgXrX| ) A 0 - + o . . o + @ - , 8 c I ^ 0.a 1 1 - @ o $ ( yXFXKXKXKXKXKXKXKXKXKXKXKXKXKXKXKXKXKXKXKXKXKXKXKXKXKXKXKXKXKXKXKXKXKXKXKXKXKXKXKXKXKXKXKXKXKXKXKXKXKXKXKXKXKXKXKXKXKXKXKXKXKXKXKXKXKXKXKXKXKXKXKXKXKXKXKXKXKXKXKXKXKXKXKXKXKXKXKXKXKXKXKXKXKXKXKXKXKXKXKXKXKXKXKXKXKXKXKXKXKXKXKXKXKXKXKXKXKXKXKXKXKXKXKXKXKXKXKXKXKXKXKXKX",
"KXKXKXKXKXKXKXKXKXKXKXKXKXKXKXKXKXKXKXKXKXKXKXKXKXKXKXKXKXKXKXKXKXKXKXKXKXKXKXKXKXKXKXKXKXKXKXKXKXKXKXKXKXKXKXKXKXKXKXKXKXKXKXKXKXKXKXKXKXKXKXKXKXKXKXKXKXKXKXKXKXKXKXKXKXKXKXKXKXKXKXKXKXKXKXKXKXKXHXCXfXyX .` W w < @ o . . o o o - @ o * A eXVXKXKXKXKXKXKXKXKXKXKXKXKXKXKXKXKXKXKXKXKXKXKXKXKXKXKXKXKXKXKXKXKXKXKXKXKXKXKXKXKXKXKXKXKXKXKXKXKXKXKXKXKXKXKXKXKXKXKXKXKXKXKXKXKXKXKXKXKXKXKXKXKXKXKXKXKXKXKXKXKXKXKXKXKXKXKXKXKXKXKXKXKXKXKXKXKXKXKXKXKXKXKXKXKXKXKXKXKXKXKXKXKXKXKXKXKXKXKXKXKXKXKXKXKXKXKXKXKXKXKXKXKXKXKXKX",
"KXKXKXKXKXKXKXKXKXKXKXKXKXKXKXKXKXKXKXKXKXKXKXKXKXKXKXKXKXKXKXKXKXKXKXKXKXKXKXKXKXKXKXKXKXKXKXKXKXKXKXKXKXKXKXKXKXKXKXKXKXKXKXKXKXKXKXKXKXKXKXKXKXKXKXKXKXKXKXKXKXKXKXKXKXKXKXKXKXKXKXKXKXKXKXKXKXKXKXKXKXKXKXKXKXGXBXbXsXeX} ) A 0 4 e } bXJXKXKXKXKXKXKXKXKXKXKXKXKXKXKXKXKXKXKXKXKXKXKXKXKXKXKXKXKXKXKXKXKXKXKXKXKXKXKXKXKXKXKXKXKXKXKXKXKXKXKXKXKXKXKXKXKXKXKXKXKXKXKXKXKXKXKXKXKXKXKXKXKXKXKXKXKXKXKXKXKXKXKXKXKXKXKXKXKXKXKXKXKXKXKXKXKXKXKXKXKXKXKXKXKXKXKXKXKXKXKXKXKXKXKXKXKXKXKXKXKXKXKXKXKXKXKXKXKXKXKXKXKXKXKXKXKXKX",
"KXKXKXKXKXKXKXKXKXKXKXKXKXKXKXKXKXKXKXKXKXKXKXKXKXKXKXKXKXKXKXKXKXKXKXKXKXKXKXKXKXKXKXKXKXKXKXKXKXKXKXKXKXKXKXKXKXKXKXKXKXKXKXKXKXKXKXKXKXKXKXKXKXKXKXKXKXKXKXKXKXKXKXKXKXKXKXKXKXKXKXKXKXKXKXKXKXKXKXKXKXKXKXKXKXKXKXKXKXKXKXKXKXHXFXJXKXKXKXKXKXKXKXKXKXKXKXKXKXKXKXKXKXKXKXKXKXKXKXKXKXKXKXKXKXKXKXKXKXKXKXKXKXKXKXKXKXKXKXKXKXKXKXKXKXKXKXKXKXKXKXKXKXKXKXKXKXKXKXKXKXKXKXKXKXKXKXKXKXKXKXKXKXKXKXKXKXKXKXKXKXKXKXKXKXKXKXKXKXKXKXKXKXKXKXKXKXKXKXKXKXKXKXKXKXKXKXKXKXKXKXKXKXKXKXKXKXKXKXKXKXKXKXKXKXKXKXKXKXKXKXKXKXKXKXKX",
"KXKXKXKXKXKXKXKXKXKXKXKXKXKXKXKXKXKXKXKXKXKXKXKXKXKXKXKXKXKXKXKXKXKXKXKXKXKXKXKXKXKXKXKXKXKXKXKXKXKXKXKXKXKXKXKXKXKXKXKXKXKXKXKXKXKXKXKXKXKXKXKXKXKXKXKXKXKXKXKXKXKXKXKXKXKXKXKXKXKXKXKXKXKXKXKXKXKXKXKXKXKXKXKXKXKXKXKXKXKXKXKXKXKXKXKXKXKXKXKXKXKXKXKXKXKXKXKXKXKXKXKXKXKXKXKXKXKXKXKXKXKXKXKXKXKXKXKXKXKXKXKXKXKXKXKXKXKXKXKXKXKXKXKXKXKXKXKXKXKXKXKXKXKXKXKXKXKXKXKXKXKXKXKXKXKXKXKXKXKXKXKXKXKXKXKXKXKXKXKXKXKXKXKXKXKXKXKXKXKXKXKXKXKXKXKXKXKXKXKXKXKXKXKXKXKXKXKXKXKXKXKXKXKXKXKXKXKXKXKXKXKXKXKXKXKXKXKXKXKXKXKXKXKXKXKX",
"KXKXKXKXKXKXKXKXKXKXKXKXKXKXKXKXKXKXKXKXKXKXKXKXKXKXKXKXKXKXKXKXKXKXKXKXKXKXKXKXKXKXKXKXKXKXKXKXKXKXKXKXKXKXKXKXKXKXKXKXKXKXKXKXKXKXKXKXKXKXKXKXKXKXKXKXKXKXKXKXKXKXKXKXKXKXKXKXKXKXKXKXKXKXKXKXKXKXKXKXKXKXKXKXKXKXKXKXKXKXKXKXKXKXKXKXKXKXKXKXKXKXKXKXKXKXKXKXKXKXKXKXKXKXKXKXKXKXKXKXKXKXKXKXKXKXKXKXKXKXKXKXKXKXKXKXKXKXKXKXKXKXKXKXKXKXKXKXKXKXKXKXKXKXKXKXKXKXKXKXKXKXKXKXKXKXKXKXKXKXKXKXKXKXKXKXKXKXKXKXKXKXKXKXKXKXKXKXKXKXKXKXKXKXKXKXKXKXKXKXKXKXKXKXKXKXKXKXKXKXKXKXKXKXKXKXKXKXKXKXKXKXKXKXKXKXKXKXKXKXKXKXKXKXKXKX",
"KXKXKXKXKXKXKXKXKXKXKXKXKXKXKXKXKXKXKXKXKXKXKXKXKXKXKXKXKXKXKXKXKXKXKXKXKXKXKXKXKXKXKXKXKXKXKXKXKXKXKXKXKXKXKXKXKXKXKXKXKXKXKXKXKXKXKXKXKXKXKXKXKXKXKXKXKXKXKXKXKXKXKXKXKXKXKXKXKXKXKXKXKXKXKXKXKXKXKXKXKXKXKXKXKXKXKXKXKXKXKXKXKXKXKXKXKXKXKXKXKXKXKXKXKXKXKXKXKXKXKXKXKXKXKXKXKXKXKXKXKXKXKXKXKXKXKXKXKXKXKXKXKXKXKXKXKXKXKXKXKXKXKXKXKXKXKXKXKXKXKXKXKXKXKXKXKXKXKXKXKXKXKXKXKXKXKXKXKXKXKXKXKXKXKXKXKXKXKXKXKXKXKXKXKXKXKXKXKXKXKXKXKXKXKXKXKXKXKXKXKXKXKXKXKXKXKXKXKXKXKXKXKXKXKXKXKXKXKXKXKXKXKXKXKXKXKXKXKXKXKXKXKXKXKXKX",
"KXKXKXKXKXKXKXKXKXKXKXKXKXKXKXKXKXKXKXKXKXKXKXKXKXKXKXKXKXKXKXKXKXKXKXKXKXKXKXKXKXKXKXKXKXKXKXKXKXKXKXKXKXKXKXKXKXKXKXKXKXKXKXKXKXKXKXKXKXKXKXKXKXKXKXKXKXKXKXKXKXKXKXKXKXKXKXKXKXKXKXKXKXKXKXKXKXKXKXKXKXKXKXKXKXKXKXKXKXKXKXKXKXKXKXKXKXKXKXKXKXKXKXKXKXKXKXKXKXKXKXKXKXKXKXKXKXKXKXKXKXKXKXKXKXKXKXKXKXKXKXKXKXKXKXKXKXKXKXKXKXKXKXKXKXKXKXKXKXKXKXKXKXKXKXKXKXKXKXKXKXKXKXKXKXKXKXKXKXKXKXKXKXKXKXKXKXKXKXKXKXKXKXKXKXKXKXKXKXKXKXKXKXKXKXKXKXKXKXKXKXKXKXKXKXKXKXKXKXKXKXKXKXKXKXKXKXKXKXKXKXKXKXKXKXKXKXKXKXKXKXKXKXKXKXKX",
"KXKXKXKXKXKXKXKXKXKXKXKXKXKXKXKXKXKXKXKXKXKXKXKXKXKXKXKXKXKXKXKXKXKXKXKXKXKXKXKXKXKXKXKXKXKXKXKXKXKXKXKXKXKXKXKXKXKXKXKXKXKXKXKXKXKXKXKXKXKXKXKXKXKXKXKXKXKXKXKXKXKXKXKXKXKXKXKXKXKXKXKXKXKXKXKXKXKXKXKXKXKXKXKXKXKXKXKXKXKXKXKXKXKXKXKXKXKXKXKXKXKXKXKXKXKXKXKXKXKXKXKXKXKXKXKXKXKXKXKXKXKXKXKXKXKXKXKXKXKXKXKXKXKXKXKXKXKXKXKXKXKXKXKXKXKXKXKXKXKXKXKXKXKXKXKXKXKXKXKXKXKXKXKXKXKXKXKXKXKXKXKXKXKXKXKXKXKXKXKXKXKXKXKXKXKXKXKXKXKXKXKXKXKXKXKXKXKXKXKXKXKXKXKXKXKXKXKXKXKXKXKXKXKXKXKXKXKXKXKXKXKXKXKXKXKXKXKXKXKXKXKXKXKXKXKX",
"KXKXKXKXKXKXKXKXKXKXKXKXKXKXKXKXKXKXKXKXKXKXKXKXKXKXKXKXKXKXKXKXKXKXKXKXKXKXKXKXKXKXKXKXKXKXKXKXKXKXKXKXKXKXKXKXKXKXKXKXKXKXKXKXKXKXKXKXKXKXKXKXKXKXKXKXKXKXKXKXKXKXKXKXKXKXKXKXKXKXKXKXKXKXKXKXKXKXKXKXKXKXKXKXKXKXKXKXKXKXKXKXKXKXKXKXKXKXKXKXKXKXKXKXKXKXKXKXKXKXKXKXKXKXKXKXKXKXKXKXKXKXKXKXKXKXKXKXKXKXKXKXKXKXKXKXKXKXKXKXKXKXKXKXKXKXKXKXKXKXKXKXKXKXKXKXKXKXKXKXKXKXKXKXKXKXKXKXKXKXKXKXKXKXKXKXKXKXKXKXKXKXKXKXKXKXKXKXKXKXKXKXKXKXKXKXKXKXKXKXKXKXKXKXKXKXKXKXKXKXKXKXKXKXKXKXKXKXKXKXKXKXKXKXKXKXKXKXKXKXKXKXKXKXKXKX",
"KXKXKXKXKXKXKXKXKXKXKXKXKXKXKXKXKXKXKXKXKXKXKXKXKXKXKXKXKXKXKXKXKXKXKXKXKXKXKXKXKXKXKXKXKXKXKXKXKXKXKXKXKXKXKXKXKXKXKXKXKXKXKXKXKXKXKXKXKXKXKXKXKXKXKXKXKXKXKXKXKXKXKXKXKXKXKXKXKXKXKXKXKXKXKXKXKXKXKXKXKXKXKXKXKXKXKXKXKXKXKXKXKXKXKXKXKXKXKXKXKXKXKXKXKXKXKXKXKXKXKXKXKXKXKXKXKXKXKXKXKXKXKXKXKXKXKXKXKXKXKXKXKXKXKXKXKXKXKXKXKXKXKXKXKXKXKXKXKXKXKXKXKXKXKXKXKXKXKXKXKXKXKXKXKXKXKXKXKXKXKXKXKXKXKXKXKXKXKXKXKXKXKXKXKXKXKXKXKXKXKXKXKXKXKXKXKXKXKXKXKXKXKXKXKXKXKXKXKXKXKXKXKXKXKXKXKXKXKXKXKXKXKXKXKXKXKXKXKXKXKXKXKXKXKXKX",
"KXKXKXKXKXKXKXKXKXKXKXKXKXKXKXKXKXKXKXKXKXKXKXKXKXKXKXKXKXKXKXKXKXKXKXKXKXKXKXKXKXKXKXKXKXKXKXKXKXKXKXKXKXKXKXKXKXKXKXKXKXKXKXKXKXKXKXKXKXKXKXKXKXKXKXKXKXKXKXKXKXKXKXKXKXKXKXKXKXKXKXKXKXKXKXKXKXKXKXKXKXKXKXKXKXKXKXKXKXKXKXKXKXKXKXKXKXKXKXKXKXKXKXKXKXKXKXKXKXKXKXKXKXKXKXKXKXKXKXKXKXKXKXKXKXKXKXKXKXKXKXKXKXKXKXKXKXKXKXKXKXKXKXKXKXKXKXKXKXKXKXKXKXKXKXKXKXKXKXKXKXKXKXKXKXKXKXKXKXKXKXKXKXKXKXKXKXKXKXKXKXKXKXKXKXKXKXKXKXKXKXKXKXKXKXKXKXKXKXKXKXKXKXKXKXKXKXKXKXKXKXKXKXKXKXKXKXKXKXKXKXKXKXKXKXKXKXKXKXKXKXKXKXKXKXKX",
"KXKXKXKXKXKXKXKXKXKXKXKXKXKXKXKXKXKXKXKXKXKXKXKXKXKXKXKXKXKXKXKXKXKXKXKXKXKXKXKXKXKXKXKXKXKXKXKXKXKXKXKXKXKXKXKXKXKXKXKXKXKXKXKXKXKXKXKXKXKXKXKXKXKXKXKXKXKXKXKXKXKXKXKXKXKXKXKXKXKXKXKXKXKXKXKXKXKXKXKXKXKXKXKXKXKXKXKXKXKXKXKXKXKXKXKXKXKXKXKXKXKXKXKXKXKXKXKXKXKXKXKXKXKXKXKXKXKXKXKXKXKXKXKXKXKXKXKXKXKXKXKXKXKXKXKXKXKXKXKXKXKXKXKXKXKXKXKXKXKXKXKXKXKXKXKXKXKXKXKXKXKXKXKXKXKXKXKXKXKXKXKXKXKXKXKXKXKXKXKXKXKXKXKXKXKXKXKXKXKXKXKXKXKXKXKXKXKXKXKXKXKXKXKXKXKXKXKXKXKXKXKXKXKXKXKXKXKXKXKXKXKXKXKXKXKXKXKXKXKXKXKXKXKXKXKX",
"KXKXKXKXKXKXKXKXKXKXKXKXKXKXKXKXKXKXKXKXKXKXKXKXKXKXKXKXKXKXKXKXKXKXKXKXKXKXKXKXKXKXKXKXKXKXKXKXKXKXKXKXKXKXKXKXKXKXKXKXKXKXKXKXKXKXKXKXKXKXKXKXKXKXKXKXKXKXKXKXKXKXKXKXKXKXKXKXKXKXKXKXKXKXKXKXKXKXKXKXKXKXKXKXKXKXKXKXKXKXKXKXKXKXKXKXKXKXKXKXKXKXKXKXKXKXKXKXKXKXKXKXKXKXKXKXKXKXKXKXKXKXKXKXKXKXKXKXKXKXKXKXKXKXKXKXKXKXKXKXKXKXKXKXKXKXKXKXKXKXKXKXKXKXKXKXKXKXKXKXKXKXKXKXKXKXKXKXKXKXKXKXKXKXKXKXKXKXKXKXKXKXKXKXKXKXKXKXKXKXKXKXKXKXKXKXKXKXKXKXKXKXKXKXKXKXKXKXKXKXKXKXKXKXKXKXKXKXKXKXKXKXKXKXKXKXKXKXKXKXKXKXKXKXKXKX",
"KXKXKXKXKXKXKXKXKXKXKXKXKXKXKXKXKXKXKXKXKXKXKXKXKXKXKXKXKXKXKXKXKXKXKXKXKXKXKXKXKXKXKXKXKXKXKXKXKXKXKXKXKXKXKXKXKXKXKXKXKXKXKXKXKXKXKXKXKXKXKXKXKXKXKXKXKXKXKXKXKXKXKXKXKXKXKXKXKXKXKXKXKXKXKXKXKXKXKXKXKXKXKXKXKXKXKXKXKXKXKXKXKXKXKXKXKXKXKXKXKXKXKXKXKXKXKXKXKXKXKXKXKXKXKXKXKXKXKXKXKXKXKXKXKXKXKXKXKXKXKXKXKXKXKXKXKXKXKXKXKXKXKXKXKXKXKXKXKXKXKXKXKXKXKXKXKXKXKXKXKXKXKXKXKXKXKXKXKXKXKXKXKXKXKXKXKXKXKXKXKXKXKXKXKXKXKXKXKXKXKXKXKXKXKXKXKXKXKXKXKXKXKXKXKXKXKXKXKXKXKXKXKXKXKXKXKXKXKXKXKXKXKXKXKXKXKXKXKXKXKXKXKXKXKXKX",
"KXKXKXKXKXKXKXKXKXKXKXKXKXKXKXKXKXKXKXKXKXKXKXKXKXKXKXKXKXKXKXKXKXKXKXKXKXKXKXKXKXKXKXKXKXKXKXKXKXKXKXKXKXKXKXKXKXKXKXKXKXKXKXKXKXKXKXKXKXKXKXKXKXKXKXKXKXKXKXKXKXKXKXKXKXKXKXKXKXKXKXKXKXKXKXKXKXKXKXKXKXKXKXKXKXKXKXKXKXKXKXKXKXKXKXKXKXKXKXKXKXKXKXKXKXKXKXKXKXKXKXKXKXKXKXKXKXKXKXKXKXKXKXKXKXKXKXKXKXKXKXKXKXKXKXKXKXKXKXKXKXKXKXKXKXKXKXKXKXKXKXKXKXKXKXKXKXKXKXKXKXKXKXKXKXKXKXKXKXKXKXKXKXKXKXKXKXKXKXKXKXKXKXKXKXKXKXKXKXKXKXKXKXKXKXKXKXKXKXKXKXKXKXKXKXKXKXKXKXKXKXKXKXKXKXKXKXKXKXKXKXKXKXKXKXKXKXKXKXKXKXKXKXKXKXKX",
"KXKXKXKXKXKXKXKXKXKXKXKXKXKXKXKXKXKXKXKXKXKXKXKXKXKXKXKXKXKXKXKXKXKXKXKXKXKXKXKXKXKXKXKXKXKXKXKXKXKXKXKXKXKXKXKXKXKXKXKXKXKXKXKXKXKXKXKXKXKXKXKXKXKXKXKXKXKXKXKXKXKXKXKXKXKXKXKXKXKXKXKXKXKXKXKXKXKXKXKXKXKXKXKXKXKXKXKXKXKXKXKXKXKXKXKXKXKXKXKXKXKXKXKXKXKXKXKXKXKXKXKXKXKXKXKXKXKXKXKXKXKXKXKXKXKXKXKXKXKXKXKXKXKXKXKXKXKXKXKXKXKXKXKXKXKXKXKXKXKXKXKXKXKXKXKXKXKXKXKXKXKXKXKXKXKXKXKXKXKXKXKXKXKXKXKXKXKXKXKXKXKXKXKXKXKXKXKXKXKXKXKXKXKXKXKXKXKXKXKXKXKXKXKXKXKXKXKXKXKXKXKXKXKXKXKXKXKXKXKXKXKXKXKXKXKXKXKXKXKXKXKXKXKXKXKX",
"KXKXKXKXKXKXKXKXKXKXKXKXKXKXKXKXKXKXKXKXKXKXKXKXKXKXKXKXKXKXKXKXKXKXKXKXKXKXKXKXKXKXKXKXKXKXKXKXKXKXKXKXKXKXKXKXKXKXKXKXKXKXKXKXKXKXKXKXKXKXKXKXKXKXKXKXKXKXKXKXKXKXKXKXKXKXKXKXKXKXKXKXKXKXKXKXKXKXKXKXKXKXKXKXKXKXKXKXKXKXKXKXKXKXKXKXKXKXKXKXKXKXKXKXKXKXKXKXKXKXKXKXKXKXKXKXKXKXKXKXKXKXKXKXKXKXKXKXKXKXKXKXKXKXKXKXKXKXKXKXKXKXKXKXKXKXKXKXKXKXKXKXKXKXKXKXKXKXKXKXKXKXKXKXKXKXKXKXKXKXKXKXKXKXKXKXKXKXKXKXKXKXKXKXKXKXKXKXKXKXKXKXKXKXKXKXKXKXKXKXKXKXKXKXKXKXKXKXKXKXKXKXKXKXKXKXKXKXKXKXKXKXKXKXKXKXKXKXKXKXKXKXKXKXKXKX",
"KXKXKXKXKXKXKXKXKXKXKXKXKXKXKXKXKXKXKXKXKXKXKXKXKXKXKXKXKXKXKXKXKXKXKXKXKXKXKXKXKXKXKXKXKXKXKXKXKXKXKXKXKXKXKXKXKXKXKXKXKXKXKXKXKXKXKXKXKXKXKXKXKXKXKXKXKXKXKXKXKXKXKXKXKXKXKXKXKXKXKXKXKXKXKXKXKXKXKXKXKXKXKXKXKXKXKXKXKXKXKXKXKXKXKXKXKXKXKXKXKXKXKXKXKXKXKXKXKXKXKXKXKXKXKXKXKXKXKXKXKXKXKXKXKXKXKXKXKXKXKXKXKXKXKXKXKXKXKXKXKXKXKXKXKXKXKXKXKXKXKXKXKXKXKXKXKXKXKXKXKXKXKXKXKXKXKXKXKXKXKXKXKXKXKXKXKXKXKXKXKXKXKXKXKXKXKXKXKXKXKXKXKXKXKXKXKXKXKXKXKXKXKXKXKXKXKXKXKXKXKXKXKXKXKXKXKXKXKXKXKXKXKXKXKXKXKXKXKXKXKXKXKXKXKXKX"
};
