/* XPM */
static const char *ptkdb_32[] = {
/* columns rows colors chars-per-pixel */
"32 32 205 2 ",
"   c #190900",
".  c #2D1000",
"X  c #391800",
"o  c #431F00",
"O  c #4A2602",
"+  c #472706",
"@  c #5A2D01",
"#  c #512703",
"$  c #593104",
"%  c #5C340A",
"&  c #4B2E12",
"*  c #402713",
"=  c #5C3F1D",
"-  c #553616",
";  c #663300",
":  c #6C3700",
">  c #683C0A",
",  c #743C01",
"<  c #793E04",
"1  c #713300",
"2  c #633C11",
"3  c #603E1A",
"4  c #703F11",
"5  c #513D2C",
"6  c #5F411C",
"7  c #6A400E",
"8  c #7B450D",
"9  c #7A4309",
"0  c #6C4312",
"q  c #6B451B",
"w  c #61401C",
"e  c #7A4612",
"r  c #7C4A14",
"t  c #764B1C",
"y  c #774A17",
"u  c #78511A",
"i  c #5B422C",
"p  c #4E4337",
"a  c #684A29",
"s  c #724C23",
"d  c #7B4D20",
"f  c #765129",
"g  c #674D33",
"h  c #6B5339",
"j  c #785A39",
"k  c #554C44",
"l  c #6B5845",
"z  c #775B40",
"x  c #7C6246",
"c  c #77634E",
"v  c #77695C",
"b  c #7C6C5A",
"n  c #766451",
"m  c #686059",
"M  c #7D6E60",
"N  c #7B7064",
"B  c #7B726B",
"V  c #6D6967",
"C  c #81450E",
"Z  c #844B09",
"A  c #914F02",
"S  c #87550A",
"D  c #93560E",
"F  c #9A5504",
"G  c #814710",
"H  c #834A13",
"J  c #8B5311",
"K  c #85511D",
"L  c #875215",
"P  c #975A12",
"I  c #955D1B",
"U  c #975A12",
"Y  c #8E6307",
"T  c #9C611B",
"R  c #916F14",
"E  c #A2661D",
"W  c #A66619",
"Q  c #B26D1A",
"!  c #8A5921",
"~  c #865F36",
"^  c #97672A",
"/  c #9D7D24",
"(  c #8B6333",
")  c #8A663E",
"_  c #996F35",
"`  c #946B3B",
"'  c #A36923",
"]  c #AC6E22",
"[  c #A16D2F",
"{  c #B16E21",
"}  c #A87624",
"|  c #B57324",
" . c #B97526",
".. c #B97728",
"X. c #BB7A2A",
"o. c #B77628",
"O. c #B77B34",
"+. c #A97836",
"@. c #C17907",
"#. c #C27E2D",
"$. c #836545",
"%. c #966F42",
"&. c #8D6F50",
"*. c #866F55",
"=. c #8D765C",
"-. c #967855",
";. c #9A754D",
":. c #A17D54",
">. c #827364",
",. c #887868",
"<. c #877D72",
"1. c #B89714",
"2. c #AA8E3A",
"3. c #BC8136",
"4. c #DF8C00",
"5. c #C59D10",
"6. c #DAAE13",
"7. c #ECAC00",
"8. c #E7BC17",
"9. c #C68738",
"0. c #CA8B3B",
"q. c #C68534",
"w. c #D18D3B",
"e. c #D1923E",
"r. c #AE8C4D",
"t. c #A8855F",
"y. c #BA8B50",
"u. c #A2935D",
"i. c #9B846C",
"p. c #9B8367",
"a. c #8D8174",
"s. c #8B847C",
"d. c #998877",
"f. c #A38766",
"g. c #B69260",
"h. c #A9937B",
"j. c #AEA176",
"k. c #CD9449",
"l. c #D49544",
"z. c #D5994B",
"x. c #DB9C4C",
"c. c #DC9F50",
"v. c #DEA04E",
"b. c #DAA156",
"n. c #E2A14E",
"m. c #E3A656",
"M. c #E9A956",
"N. c #E6AA5A",
"B. c #EAAD5D",
"V. c #E2A658",
"C. c #ECB05F",
"Z. c #ECB162",
"A. c #F2B563",
"S. c #8E8780",
"D. c #938B83",
"F. c #958F8A",
"G. c #98918C",
"H. c #939292",
"J. c #AC9C8C",
"K. c #AA9986",
"L. c #B19D86",
"P. c #A59E99",
"I. c #A19A94",
"U. c #B7A28A",
"Y. c #A8A39E",
"T. c #B5A899",
"R. c #AFAAA5",
"E. c #A4A3A3",
"W. c #B3AEA9",
"Q. c #B3ABA2",
"!. c #B4B1AF",
"~. c #BBB3A9",
"^. c #BCB7B2",
"/. c #BBBABA",
"(. c #C1B6AA",
"). c #C2B5A7",
"_. c #C4BFB8",
"`. c #C0BAB5",
"'. c #C6C2BD",
"]. c #C7C2BA",
"[. c #C6C4C3",
"{. c #CDCAC8",
"}. c #D0CDCA",
"|. c #D2CCC5",
" X c #D3D0CD",
".X c #CBCDD1",
"XX c #D3D2D3",
"oX c #D8D4D1",
"OX c #DBDBDB",
"+X c #DCD8D5",
"@X c #E1DFDE",
"#X c #E2E0DE",
"$X c #DCE0E5",
"%X c #E5E4E4",
"&X c #E4E6E9",
"*X c #E6E9ED",
"=X c #ECEBEA",
"-X c #EBE8E7",
";X c #EEEEF3",
":X c #EFF0F3",
">X c #F4F4F4",
",X c #F2F5F9",
"<X c #F5FAFE",
"1X c #FEFDFD",
"2X c #F9F8F7",
/* pixels */
"1X1X1X1X1X1X1X1X1X:X;X1X1X1X1X1X1X1X1X1X1X1X1X1X1X1X1X1X1X1X1X1X",
"1X1X1X1X1X1X1X1X].2./ j.:X1X1X1X1X1X1X1X1X1X1X1X1X1X1X1X1X1X1X1X",
"1X1X1X1X1X2X1X_.R 5.8.7.r.<X1X1X1X1X1X1X2X1X1X1X1X1X1X1X1X1X1X1X",
"1X1X1X1X1X1XoXu.1.1.6.4.@.OX1X1X1X1X1X1X1X1X1X1X1X1X1X1X1X1X1X1X",
"1X1X1X1X1X1XN u ^ } S I Y ].1X1X1X1X1XXX.X1X1X1X1X1X1X1X1X1X1X1X",
"1X1X1X1X%Xp.g.Z.y.i +.( 6 '.1X2X1XXXh y 0 v >X1X1X1X1X1X1X1X1X1X",
"1X1X2X1XQ._ b.B.C.k.v.u % /.1X1X<Xx W n.w.: a.1X1X1X1X1X1X1X1X1X",
"1X1X1X1X'._ +.^ z.m.^ ' 8 !.1X1X!.J M.Z.l.{ 3 %X1X1X1X1X1X1X1X1X",
"1X1X1X1X1X).(.n # 0 ^ q.2 XX1X,Xc T V.Z.l.q.9 P.1X2X1X1X1X1X1X1X",
"1X1X1X1X1X1X1Xv 9 z.A.U l 1X}.h J l.B.N.l.q.| t XX1X2X1X1X1X1X1X",
"1X1X1X1X1X1X,Xj  .Z.v., I.,X6 | M.B.B.N.v.X... .( '.1X1X1X1X1X1X",
"1X1X1X1X1X1X:Xa 3.Z.x.D =.b J B.B.N.m.N.9.|  ... .H }.1X1X1X1X1X",
"1X1X1X1X1X1X<Xg ] B.m.X.P P l.B.B.m.0.0. . . . .#.P =.1X1X1X1X1X",
"1X1X1X1X1X1X1XM Z x.Z.V.x.m.N.B.N.e.X. .X. .X...o.] s =X1X1X1X1X",
"1X1X1X1X1X2X1X[.# | v.B.A.B.0.N.B.q.T | X...#.T ' X.> p.1X1X1X1X",
"1X1X1X1X1X1X2X1XD.O E q.k.3.I c.Z.0.e T X...] 7 ' | a 0 '.1X1X1X",
"1X1X1X1X1X1X1X2X1XY.- , J I e O.A.9.> L E I 2 -  .E b + P.1X2X1X",
"1X1X1X1X1X1X1X1X1X1X&XR.i $ # $ l.9.% > e $ g ,.J } v * #X1X1X1X",
"1X1X1X1X1X1X>X=X1X1X|.h.$.s - s.[ Q c $Xg @ $..Xy E W.D.>X1X1X1X",
"1X1X1X1X2X'.F.m N 1Xi.z i.s j *Xt.F K.1XT.< a <Xf.A ~.1X>X1X1X1X",
"1X1X1X=XB k p G.+X&Xj d z x a./.U.D ~.1X,X;.; /.@XD -.1X1X1X1X1X",
"1X1X1X2X<.E.&.f.1XOXD.J.F.[.Y.W.D.E K.1X1XT.1 d.<X^ ! *X1X1X1X1X",
"1X1X1X1X1X>X*.H ,.a.{.oXd.T.^.R.s.U K.1X1X).;  X1X:.` 1X1X1X1X1X",
"1X1X1X1X1Xi.. 4 # N -XG.X a H.a >.` T.1X1Xh.f 1X1XL.-.1X1X1X1X1X",
"1X1X1X1X~.q = w q D._.p   V <.> 5 ) U.1X1X) p.1X1Xh.-.1X1X1X1X1X",
"1X1X1X1XJ.e K K K r t d f j f O & q f.1X|., T.1X1X:.%.1X1X1X1X1X",
"1X1X1X1XJ.< e 8 C G C C C y 2 O + r ` &X&.: ^.1XOX! ` ,X1X1X1X1X",
"1X1X1X1XK., G G H H H H G H 2 O + $ s S.& & '.1Xn o - %X1X1X1X1X",
"1X1X1X1X(.$.~ d e 9 < < 9 G % X X l >.-X%X%X1X1XoXQ.'.1X1X1X1X1X",
"1X1X1X1X1X1X:X@X|.).J.i.&.~ a >.{.1X1X1X1X1X1X1X1X1X1X1X1X1X1X1X",
"1X1X1X1X1X1X1X1X1X1X1X1X1X>X>X1X1X1X2X1X1X1X1X1X1X2X2X1X1X1X1X1X",
"1X1X1X1X1X1X1X1X2X2X2X1X1X1X1X2X2X1X1X1X1X1X1X1X1X1X1X1X1X1X1X1X"
};
