/* XPM */
static const char *ptkdb_64[] = {
/* columns rows colors chars-per-pixel */
"64 64 242 2 ",
"   c #1A0A00",
".  c #1B0500",
"X  c #260C00",
"o  c #2B1705",
"O  c #331400",
"+  c #351A02",
"@  c #3B1D01",
"#  c #361A04",
"$  c #3E2102",
"%  c #35210C",
"&  c #392817",
"*  c #2F231A",
"=  c #3A2D22",
"-  c #3E3228",
";  c #262020",
":  c #421E00",
">  c #432301",
",  c #4A2600",
"<  c #4C2903",
"1  c #4B2C0C",
"2  c #44290A",
"3  c #532C03",
"4  c #522E0A",
"5  c #5C2E01",
"6  c #5C3204",
"7  c #54320C",
"8  c #5A340A",
"9  c #5A350A",
"0  c #472C13",
"q  c #55391C",
"w  c #5B3B1A",
"e  c #553614",
"r  c #4C3112",
"t  c #6A3B05",
"y  c #643A0C",
"u  c #673907",
"i  c #643D12",
"p  c #653E16",
"a  c #783E09",
"s  c #473827",
"d  c #573E23",
"f  c #473C33",
"g  c #5F411E",
"h  c #7C430D",
"j  c #79450B",
"k  c #6C441A",
"l  c #734412",
"z  c #7E4611",
"x  c #7C4B13",
"c  c #754B1D",
"v  c #774A19",
"b  c #765317",
"n  c #725407",
"m  c #7F6209",
"M  c #5D4429",
"N  c #4C4137",
"B  c #564738",
"V  c #684826",
"C  c #6B502D",
"Z  c #7A552B",
"A  c #634C35",
"S  c #6B533A",
"D  c #775936",
"F  c #754D25",
"G  c #7A6435",
"H  c #584D44",
"J  c #5D5249",
"K  c #5A5450",
"L  c #645342",
"P  c #685848",
"I  c #735D44",
"U  c #635B54",
"Y  c #786349",
"T  c #6A615A",
"R  c #7C6C5B",
"E  c #766657",
"W  c #645F60",
"Q  c #6E6762",
"!  c #746E69",
"~  c #786D63",
"^  c #7C736A",
"/  c #7C7571",
"(  c #7E7875",
")  c #844B09",
"_  c #8A4F0B",
"`  c #81460A",
"'  c #8B510E",
"]  c #97560A",
"[  c #814710",
"{  c #834B13",
"}  c #844F19",
"|  c #855215",
" . c #8A5416",
".. c #85521A",
"X. c #8A541A",
"o. c #8D591A",
"O. c #815E1A",
"+. c #945914",
"@. c #9C5B14",
"#. c #935B1A",
"$. c #995E1A",
"%. c #925614",
"&. c #A25F1A",
"*. c #9C611D",
"=. c #9C6119",
"-. c #966C02",
";. c #A67804",
":. c #A6661B",
">. c #B06E0F",
",. c #835523",
"<. c #895A28",
"1. c #895D2D",
"2. c #9C6321",
"3. c #976627",
"4. c #81623B",
"5. c #896738",
"6. c #966A35",
"7. c #9A7138",
"8. c #886926",
"9. c #A56A23",
"0. c #AB6C23",
"q. c #A36824",
"w. c #B66E23",
"e. c #AE7025",
"r. c #AB702A",
"t. c #B47326",
"y. c #B97626",
"u. c #B4752A",
"i. c #B97728",
"p. c #BC7A2A",
"a. c #B8792A",
"s. c #B77C32",
"d. c #A87536",
"f. c #C17D2C",
"g. c #C27F30",
"h. c #876843",
"j. c #8A755B",
"k. c #947451",
"l. c #847669",
"z. c #857E79",
"x. c #857C74",
"c. c #8B7A66",
"v. c #B07C45",
"b. c #B88703",
"n. c #AE8C0B",
"m. c #B4882E",
"M. c #D18E09",
"N. c #EB9303",
"B. c #CBA715",
"V. c #D1AA14",
"C. c #F2B306",
"Z. c #C5802D",
"A. c #C9822D",
"S. c #C58432",
"D. c #C4863A",
"F. c #CC8C3B",
"G. c #CA8835",
"H. c #D2923E",
"J. c #D08F3A",
"K. c #CAA925",
"L. c #FCD004",
"P. c #F5CE29",
"I. c #AB8247",
"U. c #B38A51",
"Y. c #8C847C",
"T. c #8D8173",
"R. c #958979",
"E. c #8A816D",
"W. c #B4956B",
"Q. c #93844E",
"!. c #CA8E44",
"~. c #CA9147",
"^. c #D39444",
"/. c #D6994B",
"(. c #DA9C4B",
"). c #D49747",
"_. c #D89E51",
"`. c #C19658",
"'. c #E19F48",
"]. c #DEA14F",
"[. c #DEA253",
"{. c #DDA65C",
"}. c #D4BD5B",
"|. c #E2A554",
" X c #E6AA5A",
".X c #E9AD5D",
"XX c #E9A956",
"oX c #F5B45D",
"OX c #E8A753",
"+X c #EAAF60",
"@X c #E4AE63",
"#X c #ECB161",
"$X c #EFB86C",
"%X c #F6B966",
"&X c #D6AA69",
"*X c #FFC56E",
"=X c #DBCA6E",
"-X c #8B8785",
";X c #928B85",
":X c #968F88",
">X c #96908C",
",X c #9B938C",
"<X c #9C9794",
"1X c #A29C98",
"2X c #A1968C",
"3X c #A5A19D",
"4X c #A9A39E",
"5X c #ADAAAA",
"6X c #AAA6A3",
"7X c #B2ADAA",
"8X c #B8B3AE",
"9X c #BAB8B7",
"0X c #AFAEB7",
"qX c #C1BEBC",
"wX c #C5C0BD",
"eX c #BEBEC0",
"rX c #C0BFC0",
"tX c #CAC6C4",
"yX c #C9C7C8",
"uX c #D1CBC6",
"iX c #D3CECA",
"pX c #D6D1CE",
"aX c #D4D3D4",
"sX c #D6D9DC",
"dX c #DADADC",
"fX c #D8D6D6",
"gX c #CDCFD2",
"hX c #E0DEDD",
"jX c #E3E1DF",
"kX c #DDDEE0",
"lX c #E4E3E3",
"zX c #E8E8E9",
"xX c #EBEEF2",
"cX c #ECEFF8",
"vX c #EEF1F4",
"bX c #F4F4F5",
"nX c #F8F7F6",
"mX c #F7F8FC",
"MX c #FDFDFD",
"NX c #F5F7F9",
"BX c #F1EEEC",
"VX c #DDE2E8",
/* pixels */
"MXMXMXMXMXMXMXMXMXMXMXMXMXMXMXMXMXMXMXMXMXMXmXMXMXMXMXMXMXMXMXMXMXMXMXMXMXMXMXMXMXMXMXMXMXMXMXMXMXMXMXMXMXMXMXMXMXMXMXMXMXMXMXMX",
"MXMXMXMXMXMXMXMXMXMXMXMXMXMXMXMXmXMXMXcXxXmXMXMXMXMXMXMXMXMXMXMXMXMXMXMXMXMXMXMXMXMXMXMXMXMXMXMXMXMXMXMXMXMXMXMXMXMXMXMXMXMXMXMX",
"MXMXMXMXMXMXMXMXMXMXMXMXMXMXMXmXMXsXE.8.O.5.>XmXMXMXMXMXMXMXMXMXMXMXMXMXMXMXMXMXMXMXMXMXMXMXMXMXMXMXMXMXMXMXMXMXMXMXMXMXMXMXMXMX",
"MXMXMXMXMXMXMXMXMXMXMXMXMXMXMXMX5XG B.B.B.-.m G yXMXMXMXMXMXMXMXMXMXMXMXMXMXMXMXMXMXMXMXMXMXMXMXMXMXMXMXMXMXMXMXMXMXMXMXMXMXMXMX",
"MXMXMXMXMXMXMXMXMXMXMXMXMXmXMX8Xs K.n.K.m.P.L.L.m yXMXMXMXMXMXMXMXMXMXMXMXMXMXMXMXMXMXMXMXMXMXMXMXMXMXMXMXMXMXMXMXMXMXMXMXMXMXMX",
"MXMXMXMXMXMXMXMXMXMXMXMXmXMXxXY m.V.B.n.P.L.C.C.M.Y MXMXMXMXMXMXMXMXMXMXMXMXMXMXMXMXMXMXMXMXMXMXMXMXMXMXMXMXMXMXMXMXMXMXMXMXMXMX",
"MXMXMXMXMXMXMXMXMXMXMXMXMXMX0X8.m.n.n.n.V.B.N.M.N.] sXMXMXMXMXMXMXMXMXMXMXMXMXMXMXMXMXMXMXMXMXMXMXMXMXMXMXMXMXMXMXMXMXMXMXMXMXMX",
"MXMXMXMXMXMXMXMXMXMXMXMXlXR.Q.=X}.K.n.n.P.b.>.M.N.;.9XMXmXMXMXMXMXMXMXMXMXMXMXmXmXMXMXMXMXMXMXMXMXMXMXMXMXMXMXMXMXMXMXMXMXMXMXMX",
"MXMXMXMXMXMXMXMXMXMXnXMX~ + b b b m ;.;.b.b.;.-.;.-.9XMXmXMXMXMXMXMXMXMXmXMXMXMXMXMXMXMXMXMXMXMXMXMXMXMXMXMXMXMXMXMXMXMXMXMXMXMX",
"MXMXMXMXMXMXMXMXMXMXMXmXgXW e s.w 5.v.<.i < 2 7.Z n I MXMXMXMXMXMXMXMXMXMXmXlX1X:XgXMXMXmXMXMXMXMXMXMXMXMXMXMXMXMXMXMXMXMXMXMXMX",
"MXMXMXMXMXMXMXMXMXMX<Xj.U.W.&X$X#XU.C 5.p.:.U.D d.q Y.MXMXMXMXMXMXMXMXBX! B s > # M N tXMXMXMXMXMXMXMXMXMXMXMXMXMXMXMXMXMXMXMXMX",
"MXMXMXMXMXMXMXmXMX5X7.@XI.{.oX.X|.k.; = s.OX5.< d.o 7XMXmXMXMXMXMXMXnXY.% t #.9.a.{ 2 L wXMXMXMXMXMXMXMXMXMXMXMXMXMXMXMXMXMXMXMX",
"MXMXMXMXMXMXMXMXMXT V C C `.oX.X.X%XI.d.OX'.c c i > >XMXmXMXMXMXmXMX<XX *.i.G.(.F.p.#.O K mXMXMXMXMXMXMXMXMXMXMXMXMXMXMXMXMXMXMX",
"MXMXMXMXMXMXMXMXzXj.`.%X*X*X`./..X XoXXXXX~.e #.*.< U mXMXMXMXMXMXmXY 9.S.a.|.#X^.a.0.X.1 ,XMXMXMXMXMXMXMXMXMXMXMXMXMXMXMXMXMXMX",
"MXMXMXMXMXMXMXMXNXY G U.`.I.7.|.oX#X X XoX6.4 Z.*., :XMXMXMXMXmXMX,X3 S.J. X#X.X|.f.e.q.6 = lXMXMXMXMXMXMXMXMXMXMXMXMXMXMXMXMXMX",
"MXMXMXMXMXMXMXmXMX0XZ I.7.3.3.q.d.!.].^.s.r *.G.2.> Q MXmXMXMXMXMXf x a.)..X.X.X[.F.t.0. .q aXMXMXMXMXMXMXMXMXMXMXMXMXMXMXMXMXMX",
"MXMXMXMXMXMXMXMXMXMX:X4.h.T.N + 9 7 8 2 2 ..H.F.| 1 5XMXMXMXmXMXdXd $.9.^..X.X.X[.G.S.i.$.: T MXmXMXMXMXMXMXMXMXMXMXMXMXMXMXMXMX",
"MXMXMXMXMXMXMXMXMXMXMXxXvXMXlX2 9 j j  .s.'.).*.x o dXMXmXMXMXlXB u t.t.|..X+X.X/.S.G.a.9.z B zXMXMXMXMXMXMXMXMXMXMXMXMXMXMXMXMX",
"MXMXMXMXMXMXMXMXMXMXmXMXMXMX6XO 7  .0.(.#X.Xp.*.3 ^ mXMXMXMXqX* > e.t.F..X.X.X X).S.J.g.t.t.t f zXMXmXMXMXMXMXMXMXMXMXMXMXMXMXMX",
"MXMXMXMXMXMXMXMXMXMXMXMXmXMX-X@ $.f./.#X#X[.0.#.O 5XMXMXzXH , ..0.i.!..X.X.X.X|.^.^.^.p.t.i.t., -XMXmXMXMXMXMXMXMXMXMXMXMXMXMXMX",
"MXMXMXMXMXMXMXMXMXMXMXMXmXMX;Xu t.u.[.+X#XF.=.j s yXMXMXz.> :.S.^.|..X.X X X X|.(.|.G.t.t.i.p.p.v Y.bXMXmXMXMXMXMXMXMXMXMXMXMXMX",
"MXMXMXMXMXMXMXMXMXMXMXMXMXNXs j 9.!.XX#X#XD.*.t H MXMX1XO *.S.(. X.X.X.X.X XXX X|.^.a.i.i.i.i.i.i.` M fXMXMXMXMXMXMXMXMXMXMXMXMX",
"MXMXMXMXMXMXMXMXMXMXMXMXMXmXP t a./.|..X XJ.*.{ M kXmXB 6 0.^. X X X X.X.X X.X X(.S.i.i.i.i.i.i.t.a.+.M dXMXMXMXMXMXMXMXMXMXMXMX",
"MXMXMXMXMXMXMXMXMXMXMXMXMXmX- u r./.|..X.XF.t.#.j w M y #.m.|. X X.X.X X[.(.+X(.D.t.t.i.i.i.i.i.t.p.e.) E MXMXMXMXMXMXMXMXMXMXMX",
"MXMXMXMXMXMXMXMXMXMXMXMXMXbXJ t 2.D. X.X.X^.p.9.$. .| $.0.(..X X.X.XXX].J.F.[.!.p.i.i.i.i.t.i.i.i.i.t.x i yXMXMXMXMXMXMXMXMXMXMX",
"MXMXMXMXMXMXMXMXMXMXMXMXmXMXx., *.p.[.#X#X|.F.p.t.0.0.t.F. X.X.X.X.X.X^.G.p.^.p.i.i.i.i.i.i.p.p.i.i.f.X.3 2XMXmXMXMXMXMXMXMXMXMX",
"MXMXMXMXMXMXMXMXMXMXMXMXmXMX/ > *.e.D..X.X.X X^.^.F.^.(. X.X X.X.X].[.).S.a.a.f.i.i.i.i.i.p.p.p.t.i.p.2.6 E MXMXMXMXMXMXMXMXMXMX",
"MXMXMXMXMXMXMXMXMXMXMXMXMXMXsXd y :.a.|..X.X.X.X.X X+X#X#X(.|..X#X[.G.G.m.9.t.p.p.i.i.i.i.i.p.t.*.p.p.0.i i 9XMXmXMXMXMXMXMXMXMX",
"MXMXMXMXMXMXMXMXMXMXMXMXMXMXMXH + X.0.G.[. X.X.X.X.X.X.X/.F. X.X+X[.S.p.t.o.t.p.p.p.i.p.p.p.p.*.X.f.p.i.8 #.Z sXMXMXMXMXMXMXMXMX",
"MXMXMXMXMXMXMXMXMXMXMXMXMXMXMX9XB 4 $.0.F.).XX.X.X.X.X[.a.a..X X X#X(.p.q.| 9.p.p.i.i.i.p.p.t.l ..Z.p.e.9 v *.I MXMXMXMXMXMXMXMX",
"MXMXMXMXMXMXMXMXMXMXMXMXMXMXmXMX7X. i X.t.p.F.^.|.|.|.!.#.u.(..X.X X(.p. .x $.i.p.p.p.p.f.0.$.7 o.Z.p.0.7 e r.< 8XMXmXMXMXMXMXMX",
"MXMXMXMXMXMXMXMXMXMXMXMXMXMXMXMXmXQ & 3 #.9.9.9.s.s.m.q...$.D..X X.X!.t...8 | 0.p.p.p.a.:.$.l 7 *.p.p.=.V T o.3 ~ MXmXMXMXMXMXMX",
"MXMXMXMXMXMXMXMXMXMXMXMXMXMXMXMXMXMX3Xo 3 l *.o.#.#.#. . .l u.[..X.X(.t.| 4 x #.*.*.$.#.#.{ O l *.p.p.+.S ;X6 8 B MXMXMXMXMXMXMX",
"MXMXMXMXMXMXMXMXMXMXMXMXMXMXMXMXMXMXMXyXE   u { X. . ...#.y ..^..X#X(.t.| < ..#.X. .#.#.l @ - l $.p.f.] E Y.: < B MXMXMXMXMXMXMX",
"MXMXMXMXMXMXMXMXMXMXMXMXMXMXMXMXMXMXMXMXmX6Xl.1 $ y y x y y 2 r./.[.(.t.| < ..*.$.#.x 7 > e 0X1  .t.p.` x.~ @ 2 <XMXmXMXMXMXMXMX",
"MXMXMXMXMXMXMXMXMXMXMXMXMXMXMXMXMXMXMXmXMXMXMXBXJ @ # @ 2 > X 8 S.^.^.0.l + < 6 9 1 > 9 u L MX- 9 0.Z.j ,Xz.. S mXMXMXMXMXMXMXMX",
"MXMXMXMXMXMXMXMXMXMXMXmXMXMXMXMXMXmXMXMXMXwXl.vX9Xt #.y < @ P J z G.G.9.6 ( tXeXs 6 t t 3 R MXz.@ 2.Z.j ,XdXo T MXmXMXMXMXMXMXMX",
"MXMXMXMXMXMXMXMXMXmXMXMXMXzXaXlXMXMXMXMXMXR ,.V R V h.j.,.: qXvXw t.f.e.3 8XMXMXY.5 l y 5 R MXfXw $.p.` Y.MXtXQ MXMXMXMXMXMXMXMX",
"MXMXMXMXMXMXMXMXMXMXMXyX;XY.z./ z.dXMXMXaX4.V I p k 4.A Y < aXMXR :.f.=.q lXMXMXdXw %.v 5 P MXMXl.j S._ l.MXMXbXmXMXMXMXMXMXMXMX",
"MXMXMXMXMXMXMXMXMXhXtXJ 1X-XU f = o fXMX3X} B sXVX;Xy V 4.V xXMX1X%.S.%.A MXMXmXMX;Xh 2.t r zXMXsXp f.@.S MXMXMXMXMXMXMXMXMXMXMX",
"MXMXMXMXMXMXMXNXz.Y.U ! z.Q N wXpX1XlXMXc.1.F Z j.c.u S W.E / MXaX<.Z.' Y MXMXMXMXbXA @.{ > 3XMXMXx.:.i.8 aXMXmXMXMXMXMXMXMXMXMX",
"MXMXMXMXMXMXMXfXf 3XU * K H N mXMXMXMXMXL p x h 5 4 d 8X-X1XQ MX! W.G._ R MXmXMXmXMX5Xj q.6 M NXMXgXv A.t l.MXMXMXMXMXMXMXMXMXMX",
"MXMXMXMXMXMXMXMXK f = ,X- j c sXMXbXMXaX^ E L ~ >X! 9XtX7XY.9XfX! ^ ).@.S MXMXMXMXMXzXV :.l 1 gXMXxXC y.$.w zXMXMXMXMXMXMXMXMXMX",
"MXMXMXMXMXMXMXMXiX^ qXMXaX<.@.Y.MXmXMX1X6XfXpXfXuX~ mX8X8X6Xx.z.tXT ~.w.w dXMXMXMXMXmXC @.{ q xXMXmXS w.:.V xXMXMXMXMXMXMXMXMXMX",
"MXMXMXMXMXMXMXMXMXMXMXMX9XM w.V 3X8X9X( qXuXuXpX;X<XMXdXz.BXwXlX:XJ s.t.i sXMXMXMXMXMXY @.u x.MXnXMXx.@.+.E MXMXMXMXMXMXMXMXMXMX",
"MXMXMXMXMXMXMXMXMXNXMX5XC & #.%.1 ,.p x.iXuXiXtXB I c.P 6XpXwXU / 5X| :.A mXMXMXMXMXMXY ' 1 aXMXmXMXyXX._ :XMXmXMXMXMXMXMXMXMXMX",
"MXMXMXMXMXMXMXMXMXMXsXY k   4 w.4 3 4 5XiXuXfX,X# l l L ;X6XT r I gXh.:.Y MXMXMXMXMXvXC ` L MXMXMXMXzX1._ 6XMXmXMXMXMXMXMXMXMXMX",
"MXMXMXMXMXMXMXMXMXMXT.,.3 $ + @. .  f yXuXiXuXf X 2 @ z.( -XB 7.X <XR.] Y MXMXMXMXMXsXc t ;XMXmXMXMXxX5.) 7XMXmXMXMXMXMXMXMXMXMX",
"MXMXMXMXMXMXMXMXMX:XM 4 : + X 3 :.O ( lXfXlX>XX o   B Y.>XT 6.1 X R 1X] I MXMXMXmXMX5Xh 8 rXMXmXMXMXzX1.` 7XMXmXMXMXMXMXMXMXMXMX",
"MXMXMXMXMXMXMXMXsXD 6.4.4.D S C Z g E Y.:X,X=     . ! / -Xh.v $ > q z.@.C xXMXMXMXMXl._ w zXMXMXMXMXsX<.' 6XMXmXMXMXMXMXMXMXMXMX",
"MXMXMXMXMXMXMXMXsX4.Z c { ..<.<.<.6.<.Z Z D 4.4.D S S P Y 1.@ e q : f 9.l aXMXmXMXaXk ] A MXMXMXmXMX9Xo.' <XMXmXMXMXMXMXMXMXMXMX",
"MXMXMXMXMXMXMXMXsXD ..l h h h h h a h h h h z { X.<.,.,.6.$ > > > , f q.` <XMXnXMXP %.' L MXMXMXMXMXl.:.+.^ MXmXMXMXMXMXMXMXMXMX",
"MXMXMXMXMXMXMXMXsX4.| z z h [ z [ { { [ { [ [ h h a V p ,.> 3 < < > % 0.@.A mXMXdXk *.t ~ MXmXMXMXNXA =.:.S MXMXMXMXMXMXMXMXMXMX",
"MXMXMXMXMXMXMXMXdXD { h z z z [ [ [ [ [ [ [ [ [ [ [ h l <.> < < < $ 1 p.%.A MXpXs y 2.5 ,XMXmXMXMX<Xl e._ E MXMXMXMXMXMXMXMXMXMX",
"MXMXMXMXMXMXMXMXdXZ { z [ { { { { { [ [ [ [ [ { [ h ` l ,.> < < < > 8 #.=.A vXA @ M k : U MXmXMX9Xr r V v e lXMXMXMXMXMXMXMXMXMX",
"MXMXMXMXMXMXMXMXsX1.{ h [ { [ [ [ [ h [ [ { { [ [ [ [ l ,.> < < < > # M c @ 6Xl.% r @ & 7XMXnXMX^ O 0 p @ X aXMXMXMXMXMXMXMXMXMX",
"MXMXMXMXMXMXMXMXsXV X...X.X.X.| { z z h h h h [ { { { l ,.> < < < > # 7 + O wXMXlXqXtXBXMXMXMXMXdX;X^ L T 8XMXMXMXMXMXMXMXMXMXMX",
"MXMXMXMXMXMXMXMXMX4XT.j.Y D F c v { } X.X.| { { z z [ l v $ < > @ O ~ 3X1XfXMXMXMXMXMXMXMXMXMXMXMXMXMXMXMXMXMXMXMXMXMXMXMXMXMXMX",
"MXMXMXMXMXMXMXMXMXMXMXMXNXlXaX9X4X;Xl.Y D F c v x x { } X.@ + 0 E 9XmXMXMXMXMXMXMXmXmXMXMXMXMXMXMXmXmXMXmXmXMXMXMXMXMXMXMXMXMXMX",
"MXMXMXMXMXMXMXMXMXmXmXMXMXMXMXMXMXMXMXmXxXdXtX5X>Xc.E D M A 3XzXMXMXMXmXmXMXMXMXMXMXMXMXMXMXMXMXMXMXMXMXMXMXMXMXMXMXMXMXMXMXMXMX",
"MXMXMXMXMXMXMXMXMXMXMXMXMXMXMXmXmXmXMXMXMXMXMXMXMXMXMXbXzXMXMXMXmXmXMXMXMXMXMXMXMXMXMXMXMXMXMXMXMXMXMXMXMXMXMXMXMXMXMXMXMXMXMXMX",
"MXMXMXMXMXMXMXMXMXMXMXMXMXMXMXMXMXMXMXMXMXMXmXmXmXMXMXMXMXMXmXMXMXMXMXMXMXMXMXMXMXMXMXMXMXMXMXMXMXMXMXMXMXMXMXMXMXMXMXMXMXMXMXMX",
"MXMXMXMXMXMXMXMXMXMXMXMXMXMXMXMXMXMXMXMXMXMXMXMXMXMXMXMXMXMXMXMXMXMXMXMXMXMXMXMXMXMXMXMXMXMXMXMXMXMXMXMXMXMXMXMXMXMXMXMXMXMXMXMX",
"MXMXMXMXMXMXMXMXMXMXMXMXMXMXMXMXMXMXMXMXMXMXMXMXMXMXMXMXMXMXMXMXMXMXMXMXMXMXMXMXMXMXMXMXMXMXMXMXMXMXMXMXMXMXMXMXMXMXMXMXMXMXMXMX"
};
