/* XPM */
static const char *ptkdb_128[] = {
/* columns rows colors chars-per-pixel */
"128 128 255 2 ",
"   c #0B0000",
".  c #140300",
"X  c #1C0C00",
"o  c #190701",
"O  c #1E1105",
"+  c #1D1714",
"@  c #230D00",
"#  c #290D00",
"$  c #251302",
"%  c #2A1401",
"&  c #2D1903",
"*  c #2C1B0B",
"=  c #25170C",
"-  c #321500",
";  c #331B02",
":  c #3B1C01",
">  c #341C08",
",  c #281C14",
"<  c #3C2103",
"1  c #34210C",
"2  c #3B2508",
"3  c #2E2115",
"4  c #2D231B",
"5  c #33251B",
"6  c #3B2B1B",
"7  c #362716",
"8  c #3F301D",
"9  c #3A2E24",
"0  c #352B24",
"q  c #3D332B",
"w  c #3D3224",
"e  c #3B3430",
"r  c #411E00",
"t  c #442402",
"y  c #4B2601",
"u  c #4D2902",
"i  c #4B2C0A",
"p  c #442809",
"a  c #532C02",
"s  c #532E09",
"d  c #5A2D02",
"f  c #4A3207",
"g  c #5B3204",
"h  c #54320C",
"j  c #5B340B",
"k  c #5B370B",
"l  c #432D15",
"z  c #493319",
"x  c #573815",
"c  c #633504",
"v  c #653A0A",
"b  c #6B3D0B",
"n  c #663807",
"m  c #733D0A",
"M  c #663E13",
"N  c #443628",
"B  c #4A3E33",
"V  c #443B35",
"C  c #533D23",
"Z  c #5C4608",
"A  c #6A4408",
"S  c #74430D",
"D  c #7C440E",
"F  c #7B480C",
"G  c #6C4212",
"H  c #684419",
"J  c #734512",
"K  c #7E4611",
"L  c #7D4C14",
"P  c #784B1A",
"I  c #74560E",
"U  c #4C4239",
"Y  c #54483B",
"T  c #574326",
"R  c #684925",
"E  c #785429",
"W  c #775A37",
"Q  c #6E532E",
"!  c #77642B",
"~  c #4D4543",
"^  c #534B44",
"/  c #564D48",
"(  c #5B534B",
")  c #5C5146",
"_  c #5C5754",
"`  c #645C56",
"'  c #645648",
"]  c #6A625C",
"[  c #67605B",
"{  c #786447",
"}  c #6D6765",
"|  c #736C67",
" . c #7A726D",
".. c #7C7774",
"X. c #675F61",
"o. c #82480D",
"O. c #814710",
"+. c #834A12",
"@. c #884D16",
"#. c #855115",
"$. c #8B5516",
"%. c #8B5619",
"&. c #8E591A",
"*. c #895519",
"=. c #935B1A",
"-. c #9A5E1B",
";. c #945716",
":. c #895701",
">. c #A55D17",
",. c #987705",
"<. c #9C611D",
"1. c #96601D",
"2. c #8C6A0A",
"3. c #A2651E",
"4. c #A7671E",
"5. c #B17110",
"6. c #895825",
"7. c #925D24",
"8. c #845E34",
"9. c #9C6422",
"0. c #996429",
"q. c #89643A",
"w. c #976936",
"e. c #8E6B30",
"r. c #A36621",
"t. c #A56922",
"y. c #AB6C23",
"u. c #A96A27",
"i. c #B26F24",
"p. c #AE7025",
"a. c #AD732A",
"s. c #B57325",
"d. c #B97627",
"f. c #BC7927",
"g. c #B57529",
"h. c #B97728",
"j. c #BC7A2A",
"k. c #B7792B",
"l. c #A56C34",
"z. c #A87439",
"x. c #B87C35",
"c. c #C17D2C",
"v. c #C17A23",
"b. c #C07F31",
"n. c #C97802",
"m. c #866A45",
"M. c #97784D",
"N. c #A67A44",
"B. c #B47F42",
"V. c #837C78",
"C. c #B38D09",
"Z. c #B78734",
"A. c #998438",
"S. c #DB8803",
"D. c #CA9A05",
"F. c #E99504",
"G. c #F0B106",
"H. c #C4812E",
"J. c #CA852E",
"K. c #C48433",
"L. c #CA8632",
"P. c #CC8A35",
"I. c #CC8C3B",
"U. c #C5873B",
"Y. c #D3923D",
"T. c #D79135",
"R. c #D18E3A",
"E. c #D0AD1E",
"W. c #FCC803",
"Q. c #FFD405",
"!. c #FED416",
"~. c #FFE30B",
"^. c #FAD52C",
"/. c #FFEA27",
"(. c #958655",
"). c #BA8547",
"_. c #AF8A55",
"`. c #89827D",
"'. c #9D8563",
"]. c #B7976A",
"[. c #BAA751",
"{. c #CA8D42",
"}. c #D39444",
"|. c #DB9A45",
" X c #DB9C4C",
".X c #D69848",
"XX c #C69558",
"oX c #D0954D",
"OX c #DEA04E",
"+X c #DEA152",
"@X c #DAA45B",
"#X c #CCB65A",
"$X c #E3A24C",
"%X c #E2A554",
"&X c #E6A857",
"*X c #E6AA5A",
"=X c #E9AD5D",
"-X c #E5A757",
";X c #F0B15D",
":X c #C49A64",
">X c #C09D75",
",X c #D5AB70",
"<X c #EAAF60",
"1X c #E2AD64",
"2X c #ECB162",
"3X c #E8B46B",
"4X c #F6B966",
"5X c #E5B878",
"6X c #E19D46",
"7X c #FEE84D",
"8X c #FEC36D",
"9X c #FCC676",
"0X c #E7CE53",
"qX c #8B8582",
"wX c #8C8786",
"eX c #928E8B",
"rX c #918B86",
"tX c #98918C",
"yX c #9B9795",
"uX c #A29D9A",
"iX c #A89B8D",
"pX c #A6A19E",
"aX c #BFAB95",
"sX c #ABA8A6",
"dX c #B2AEAB",
"fX c #B1ABA6",
"gX c #B7B2AD",
"hX c #BAB8B6",
"jX c #B0ACB0",
"kX c #A19FA0",
"lX c #C1BEBB",
"zX c #FDF892",
"xX c #C5C1BE",
"cX c #F2CD95",
"vX c #C5C4C3",
"bX c #CDCBCA",
"nX c #CAC7C5",
"mX c #D1CAC6",
"MX c #D3CDCA",
"NX c #D7D1CD",
"BX c #D5D3D2",
"VX c #D9D6D3",
"CX c #DDDBDB",
"ZX c #DAD8D7",
"AX c #CFCFD2",
"SX c #E2DEDB",
"DX c #E4E0DE",
"FX c #E4E3E3",
"GX c #ECECEC",
"HX c #E9E6E4",
"JX c #F5F4F4",
"KX c #FDFDFD",
"LX c #F8F7F7",
"PX c #F2F0EF",
"IX c #DFDFE1",
/* pixels */
"KXKXKXKXKXKXKXKXKXKXKXKXKXKXKXKXKXKXKXKXKXKXKXKXKXKXKXKXKXKXKXKXKXKXKXKXKXKXKXKXKXKXKXKXKXKXKXKXKXKXKXKXKXKXKXKXKXKXKXKXKXKXKXKXKXKXKXKXKXKXKXKXKXKXKXKXKXKXKXKXKXKXKXKXKXKXKXKXKXKXKXKXKXKXKXKXKXKXKXKXKXKXKXKXKXKXKXKXKXKXKXKXKXKXKXKXKXKXKXKXKXKXKXKXKXKXKXKX",
"KXKXKXKXKXKXKXKXKXKXKXKXKXKXKXKXKXKXKXKXKXKXKXKXKXKXKXKXKXKXKXKXKXKXKXKXKXKXKXKXKXKXKXKXKXKXKXKXKXKXKXKXKXKXKXKXKXKXKXKXKXKXKXKXKXKXKXKXKXKXKXKXKXKXKXKXKXKXKXKXKXKXKXKXKXKXKXKXKXKXKXKXKXKXKXKXKXKXKXKXKXKXKXKXKXKXKXKXKXKXKXKXKXKXKXKXKXKXKXKXKXKXKXKXKXKXKXKX",
"KXKXKXKXKXKXKXKXKXKXKXKXKXKXKXKXKXKXKXKXKXKXKXKXKXKXKXKXKXKXKXKXKXKXKXKXKXKXKXKXKXKXKXKXKXKXKXKXKXKXKXKXKXKXKXKXKXKXKXKXKXKXKXKXKXKXKXKXKXKXKXKXKXKXKXKXKXKXKXKXKXKXKXKXKXKXKXKXKXKXKXKXKXKXKXKXKXKXKXKXKXKXKXKXKXKXKXKXKXKXKXKXKXKXKXKXKXKXKXKXKXKXKXKXKXKXKXKX",
"KXKXKXKXKXKXKXKXKXKXKXKXKXKXKXKXKXKXKXKXKXKXKXKXKXKXKXKXKXKXKXKXKXKXKXKXKXKXKXKXLXKXKXKXKXKXKXKXKXKXKXKXKXKXKXKXKXKXKXKXKXKXKXKXKXKXKXKXKXKXKXKXKXKXKXKXKXKXKXKXKXKXKXKXKXKXKXKXKXKXKXKXKXKXKXKXKXKXKXKXKXKXKXKXKXKXKXKXKXKXKXKXKXKXKXKXKXKXKXKXKXKXKXKXKXKXKXKX",
"KXKXKXKXKXKXKXKXKXKXKXKXKXKXKXKXKXKXKXKXKXKXKXKXKXKXKXKXKXKXKXKXKXKXKXKXCX..~ N N V } wXbXKXKXKXKXKXKXKXKXKXKXKXKXKXKXKXKXKXKXKXKXKXKXKXKXKXKXKXKXKXKXKXKXKXKXKXKXKXKXKXKXKXKXKXKXKXKXKXKXKXKXKXKXKXKXKXKXKXKXKXKXKXKXKXKXKXKXKXKXKXKXKXKXKXKXKXKXKXKXKXKXKXKXKX",
"KXKXKXKXKXKXKXKXKXKXKXKXKXKXKXKXKXKXKXKXKXKXKXKXKXKXKXKXKXKXKXKXKXKXKXtX= T C.C.:.:.:.I <  .KXKXKXKXKXKXKXKXKXKXKXKXKXKXKXKXKXKXKXKXKXKXKXKXKXKXKXKXKXKXKXKXKXKXKXKXKXKXKXKXKXKXKXKXKXKXKXKXKXKXKXKXKXKXKXKXKXKXKXKXKXKXKXKXKXKXKXKXKXKXKXKXKXKXKXKXKXKXKXKXKXKX",
"KXKXKXKXKXKXKXKXKXKXKXKXKXKXKXKXKXKXKXKXKXKXKXKXKXKXKXKXKXKXKXKXKXLXV., #X/.,.:.G.~.D.2.Z . V dXKXKXKXKXKXKXKXKXKXKXKXKXKXKXKXKXKXKXKXKXKXKXKXKXKXKXKXKXKXKXKXKXKXKXKXKXKXKXKXKXKXKXKXKXKXKXKXKXKXKXKXKXKXKXKXKXKXKXKXKXKXKXKXKXKXKXKXKXKXKXKXKXKXKXKXKXKXKXKXKX",
"KXKXKXKXKXKXKXKXKXKXKXKXKXKXKXKXKXKXKXKXKXKXKXKXKXKXKXKXKXKXKXKXxX7 + 5X~.2.A 7X0XA g ,.D.D.2.& / GXKXKXKXKXKXKXKXKXKXKXKXKXKXKXKXKXKXKXKXKXKXKXKXKXKXKXKXKXKXKXKXKXKXKXKXKXKXKXKXKXKXKXKXKXKXKXKXKXKXKXKXKXKXKXKXKXKXKXKXKXKXKXKXKXKXKXKXKXKXKXKXKXKXKXKXKXKXKX",
"KXKXKXKXKXKXKXKXKXKXKXKXKXKXKXKXKXKXKXKXKXKXKXKXKXKXKXKXKXKXKXhX, 5 (./.D.x 7X0Xf ,.7X/.!.Q.Q.W.A e PXKXKXKXKXKXKXKXKXKXKXKXKXKXKXKXKXKXKXKXKXKXKXKXKXKXKXKXKXKXKXKXKXKXKXKXKXKXKXKXKXKXKXKXKXKXKXKXKXKXKXKXKXKXKXKXKXKXKXKXKXKXKXKXKXKXKXKXKXKXKXKXKXKXKXKXKXKX",
"KXKXKXKXKXKXKXKXKXKXKXKXKXKXKXKXKXKXKXKXKXKXKXKXKXKXKXKXKXKXHX4 (.Y 0XQ.A E.Q.A ,.7X^.W.W.W.W.W.Q.Z _ KXKXKXKXKXKXKXKXKXKXKXKXKXKXKXKXKXKXKXKXKXKXKXKXKXKXKXKXKXKXKXKXKXKXKXKXKXKXKXKXKXKXKXKXKXKXKXKXKXKXKXKXKXKXKXKXKXKXKXKXKXKXKXKXKXKXKXKXKXKXKXKXKXKXKXKXKX",
"KXKXKXKXKXKXKXKXKXKXKXKXKXKXKXKXKXKXKXKXKXKXKXKXKXKXKXKXKXKXX.{ Z.{ /.D.Q /.C.A 7X^.W.W.W.W.W.G.F.F.; jXKXKXKXKXKXKXKXKXKXKXKXKXKXKXKXKXKXKXKXKXKXKXKXKXKXKXKXKXKXKXKXKXKXKXKXKXKXKXKXKXKXKXKXKXKXKXKXKXKXKXKXKXKXKXKXKXKXKXKXKXKXKXKXKXKXKXKXKXKXKXKXKXKXKXKXKX",
"KXKXKXKXKXKXKXKXKXKXKXKXKXKXKXKXKXKXKXKXKXKXKXKXKXKXKXKXKXHX, 0XI [.~.2.Z.~.A D.7XW.W.W.W.G.S.S.S.F.:.~ KXKXKXKXKXKXKXKXKXKXKXKXKXKXKXKXKXKXKXKXKXKXKXKXKXKXKXKXKXKXKXKXKXKXKXKXKXKXKXKXKXKXKXKXKXKXKXKXKXKXKXKXKXKXKXKXKXKXKXKXKXKXKXKXKXKXKXKXKXKXKXKXKXKXKXKX",
"KXKXKXKXKXKXKXKXKXKXKXKXKXKXKXKXKXKXKXKXKXKXKXKXKXKXKXLXKXuXT ^.R ^.Q.I ^.G.A !.^.W.W.Q.G.S.S.S.S.S.S.1 CXKXKXKXKXKXKXKXKXKXKXKXKXKXKXKXKXKXKXKXKXKXKXKXKXKXKXKXKXKXKXKXKXKXKXKXKXKXKXKXKXKXKXKXKXKXKXKXKXKXKXKXKXKXKXKXKXKXKXKXKXKXKXKXKXKXKXKXKXKXKXKXKXKXKXKX",
"KXKXKXKXKXKXKXKXKXKXKXKXKXKXKXKXKXKXKXKXKXKXKXKXKXKXKXKXKX_ M.E.w D.,.Z Q.,.,.~.Z.A.2.C.S.S.S.S.S.S.F.f jXKXKXKXKXKXKXKXKXKXKXKXKXKXKXKXKXKXKXKXKXKXKXKXKXKXKXKXKXKXKXKXKXKXKXKXKXKXKXKXKXKXKXKXKXKXKXKXKXKXKXKXKXKXKXKXKXKXKXKXKXKXKXKXKXKXKXKXKXKXKXKXKXKXKXKX",
"KXKXKXKXKXKXKXKXKXKXKXKXKXKXKXKXKXKXKXKXKXKXKXKXKXKXLXsX~ 4 [._.(.(.! E R 2 Z 2.(.^.G.F S.F.S.S.S.S.F.A wXKXKXKXKXKXKXKXKXKXKXKXKXKXKXKXKXKXKXKXKXKXKXKXKXKXKXKXKXKXKXKXKXKXKXKXKXKXKXKXKXKXKXKXKXKXKXKXKXKXKXKXKXKXKXKXKXKXKXKXKXKXKXKXKXKXKXKXKXKXKXKXKXKXKXKX",
"KXKXKXKXKXKXKXKXKXKXKXKXKXKXKXKXKXKXKXKXKXKXKXKXKXsXw T _.zXzXzXzX7X~.!.!.W.D.,.E.W.G.A :.n.S.F.F.S.F.I ..KXKXKXKXKXKXKXKXKXKXKXKXKXKXKXKXKXKXKXKXKXKXKXKXKXKXKXKXKXKXKXKXKXKXKXKXKXKXKXKXKXKXKXKXKXKXKXKXKXKXKXKXKXKXKXKXKXKXKXKXKXKXKXKXKXKXKXKXKXKXKXKXKXKXKX",
"KXKXKXKXKXKXKXKXKXKXKXKXKXKXKXKXKXKXKXKXKXKXKXKXdX. Z e.2.I I 2.t.C.E.E.!.!.!.~.Q.Q.W.D.,.I A :.5.n.G.:.| KXKXKXKXKXKXKXKXKXKXKXKXKXKXKXKXKXKXKXKXKXKXKXKXKXKXKXKXKXKXKXKXKXKXKXKXKXKXKXKXKXKXKXKXKXKXKXKXKXKXKXKXKXKXKXKXKXKXKXKXKXKXKXKXKXKXKXKXKXKXKXKXKXKXKX",
"KXKXKXKXKXKXKXKXKXKXKXKXKXKXKXKXKXKXKXKXKXKXKXKXdXo o o X X : : X % X X < 2 2 f Z A :.5.D.G.G.C.,.2.5.A | KXKXKXKXKXKXKXKXKXKXKXKXKXKXKXKXKXKXKXKXKXKXKXKXKXKXKXKXKXKXKXKXKXKXKXKXKXKXKXKXKXKXKXKXKXKXKXKXKXKXKXKXKXKXKXKXKXKXKXKXKXKXKXKXKXKXKXKXKXKXKXKXKXKXKX",
"KXKXKXKXKXKXKXKXKXKXKXKXKXKXKXKXKXKXKXKXKXKXKXKXKXBXuX] < k.s.<.F $ 1 H E P j : i p ; X o % : t Z I C.,.7 nXKXKXKXKXKXKXKXKXKXKXKXKXKXKXKXKXKXKXKXKXKXKXKXKXCXFXKXSXBXLXKXKXKXKXKXKXKXKXKXKXKXKXKXKXKXKXKXKXKXKXKXKXKXKXKXKXKXKXKXKXKXKXKXKXKXKXKXKXKXKXKXKXKXKX",
"KXKXKXKXKXKXKXKXKXKXKXKXKXKXKXKXKXKXKXKXKXKXKXKXPXBXsX_ X T oX X6.W 1X8X8X8X4XU.F -.$.S ; 6 (.:X_.W 1 2.A V KXKXKXKXKXKXKXKXKXKXKXKXKXKXKXKXKXKXKXKXKXBXKXhXN ..V & V.KXKXKXKXKXKXKXKXKXKXKXKXKXKXKXKXKXKXKXKXKXKXKXKXKXKXKXKXKXKXKXKXKXKXKXKXKXKXKXKXKXKXKXKXKX",
"KXKXKXKXKXKXKXKXKXKXKXKXKXKXKXKXKXKXKXKXKXxX| U 9 6 T m.].5X9X3X@X4X9X1Xq.R 8. X|.4.d.v T cX1Xq.H oXq.  . V.KXKXKXKXKXKXKXKXKXKXKXKXKXKXKXKXKXKXnXrXyX( V.9 o u ; 0 ../ '  .hXKXKXKXKXKXKXKXKXKXKXKXKXKXKXKXKXKXKXKXKXKXKXKXKXKXKXKXKXKXKXKXKXKXKXKXKXKXKXKXKXKX",
"KXKXKXKXKXKXKXKXKXKXKXKXKXKXKXKXKXKXKXKX[ * W '.,X5XcX9X4X2X=X=X2X=X).* . 0 0 $ Z.L.s.0.1X@X* % F .XR 5 vXKXKXKXKXKXKXKXKXKXKXKXKXKXKXKXKXKXKXuX3 . : : o i j L & 1 a c % * ) NXKXKXKXKXKXKXKXKXKXKXKXKXKXKXKXKXKXKXKXKXKXKXKXKXKXKXKXKXKXKXKXKXKXKXKXKXKXKXKXKX",
"KXKXKXKXKXKXKXKXKXKXKXKXKXKXKXKXKXKXKXeX6 5X9X9X9X8X4X=X<X2X2X=X=X).x ] > ` eX6 h I.P.|.4Xx o j k.@X1 # eXKXKXKXKXKXKXKXKXKXKXKXKXKXKXKXKXKXKXvX ., < #.L *.<.*.=.s.-.i X B `.lXKXKXKXKXKXKXKXKXKXKXKXKXKXKXKXKXKXKXKXKXKXKXKXKXKXKXKXKXKXKXKXKXKXKXKXKXKXKXKXKX",
"KXKXKXKXKXKXKXKXKXKXKXKXKXKXKXKXKXKXKXe M.8X2X_.m.W N.2X*X=X*X=X*X=X;XcX, .   H %XY.|.6Xz.$ ; 6.$XT . 6 O nXKXKXKXKXKXKXKXKXKXKXKXKXKXKXKXGX` % < b G =.f.p.c.H.R.P.r.L *.v : $ U BXKXKXKXKXKXKXKXKXKXKXKXKXKXKXKXKXKXKXKXKXKXKXKXKXKXKXKXKXKXKXKXKXKXKXKXKXKXKX",
"KXKXKXKXKXKXKXKXKXKXKXKXKXKXKXKXKXKXyX@ C ).Q   o X Q 2X*X=X=X*X*X*X*X4X_.z x N.&X X X|.6.7.z.z.l < s 4 pXnXKXKXKXKXKXKXKXKXKXKXKXKXKXKXFXq o & s =.s.d.y.s.j.k.j.j.K.g.-.J p 2 w U ZXKXKXKXKXKXKXKXKXKXKXKXKXKXKXKXKXKXKXKXKXKXKXKXKXKXKXKXKXKXKXKXKXKXKXKXKXKX",
"KXKXKXKXKXKXKXKXKXKXKXKXKXKXKXKXKXKX`.z Q X x N.].,X4X<X2X=X*X=X=X2X=X=X4X2X&X$X|.$X X$X7.% p 1 s +.J y B KXKXKXKXKXKXKXKXKXKXKXKXKXKXKXhXV.3 i a.K.s.s.U.OX*X2X+Xk.3.s.<.b j & ^ hXJXKXKXKXKXKXKXKXKXKXKXKXKXKXKXKXKXKXKXKXKXKXKXKXKXKXKXKXKXKXKXKXKXKXKXKXKXKX",
"KXKXKXKXKXKXKXKXKXKXKXKXKXKXKXKXKXKX^ (.5XM.8X4X4X2X<X2X<X4X;X*X=X2X=X=X*X%X$XOX%X-X%XU.Z.$ %.c.t.+.p p . qXKXKXKXKXKXKXKXKXKXKXKXKXKXKXZX5 G T.c.y.y.i.{.%X2X*X X X{.s.h.t.;.L y = fXKXKXKXKXKXKXKXKXKXKXKXKXKXKXKXKXKXKXKXKXKXKXKXKXKXKXKXKXKXKXKXKXKXKXKXKXKX",
"KXKXKXKXKXKXKXKXKXKXKXKXKXKXKXKXKXGX0 5X_.,X2X<X=X2X<X2X8XQ ).;X*X*X=X=X=X=X=X*X&X&X;XE M p t.c.-.+.S 7 [ V KXKXKXKXKXKXKXKXKXKXKXKXKXGX4 v L.h.h.L.h.}.=X<X=X-X|.I.k.y.y.s.=.L G h X dXKXKXKXKXKXKXKXKXKXKXKXKXKXKXKXKXKXKXKXKXKXKXKXKXKXKXKXKXKXKXKXKXKXKXKXKX",
"KXKXKXKXKXKXKXKXKXKXKXKXKXKXKXKXKXLX0 ,XW _.9X4X4X4X4X*XE l z.;X-X*X=X=X=X*X*X*X*X&X;XR X M y.L.<.+.L : V.vXFXKXKXKXKXKXKXKXKXKXKXKXKX} t 9.9.j.|.P.+X2X=X<X=X<X*X XR.y.y.s.-.*.M & & = CXKXKXKXKXKXKXKXKXKXKXKXKXKXKXKXKXKXKXKXKXKXKXKXKXKXKXKXKXKXKXKXKXKXKXKX",
"KXKXKXKXKXKXKXKXKXKXKXKXKXKXKXKXKXKXrX$ z 7 q.).).N.Q 6 E ;X;X-X-X*X=X*X*X*X&X&X*X.X$X2 k -.g.L.y.#.j t 6 JXKXKXKXKXKXKXKXKXKXKXKXKXBX> h M y.Y.Y. X=X*X<X2X=X=X=X{.P.P.s.i.g.=.%.v 5  .yXKXKXKXKXKXKXKXKXKXKXKXKXKXKXKXKXKXKXKXKXKXKXKXKXKXKXKXKXKXKXKXKXKXKXKX",
"KXKXKXKXKXKXKXKXKXKXKXKXKXKXKXKXKXKXKX/ m.5XR z z x q.@X;X}.|.6X6X&X&X*X*X*X&X%XY.P.x.o P f.k.j.p.*.G % @ vXKXKXKXKXKXKXKXKXKXKXKXKX`.. p s.k.g.k.2X=X=X=X=X=X=X*X<XI.H.s.i.s.y.%.=.y / KXKXKXKXKXKXKXKXKXKXKXKXKXKXKXKXKXKXKXKXKXKXKXKXKXKXKXKXKXKXKXKXKXKXKXKX",
"KXKXKXKXKXKXKXKXKXKXKXKXKXKXKXKXKXKXKXsX7 2X8X8X4X8X&X0.h k k x G &.k.Y.6X6X|.P.P k.h X <.J.P.K.y.#.S 7 = fXKXKXKXKXKXKXKXKXKXKXKXFXY X *.y.y.3.}.%X*X=X=X=X=X=X}. X%XH.c.i.s.t.<.J G - `.KXKXKXKXKXKXKXKXKXKXKXKXKXKXKXKXKXKXKXKXKXKXKXKXKXKXKXKXKXKXKXKXKXKXKX",
"KXKXKXKXKXKXKXKXKXKXKXKXKXKXKXKXKXKXKXKX_ @ P 9.9.v % = . @ t i t ; & p M P G 2 x p p L t.|.$XK.;.L S z | fXKXKXKXKXKXKXKXKXKXKXKXFX[ p 9.-.3.g.I.{.2X=X=X=X*X=X<XK.}.K.P.K.i.s.=.&.s < @ vXKXKXKXKXKXKXKXKXKXKXKXKXKXKXKXKXKXKXKXKXKXKXKXKXKXKXKXKXKXKXKXKXKXKX",
"KXKXKXKXKXKXKXKXKXKXKXKXKXKXKXKXKXKXKXKXKXpX~ w N _ dXGXhXN % h +.F S g t ; o X ; i g.s.Y.|.Y.p.$.#.t % hXLXKXKXKXKXKXKXKXKXKXKXKXnX= L =.r.r.t.x.2X=X=X2X2X=X%X=X%XL.K.s.}.L.g.r.*.#.% 4 ` LXKXKXKXKXKXKXKXKXKXKXKXKXKXKXKXKXKXKXKXKXKXKXKXKXKXKXKXKXKXKXKXKXKX",
"KXKXKXKXKXKXKXKXKXKXKXKXKXKXKXKXKXKXKXKXKXKXKXKXKXKXKXKXKXBX& t < b F F #.#.+.*.=.L.L.I.&X}.r.-.*.#.; X xXKXKXKXKXKXKXKXKXKXKXKXnX, v J =.h.t.t.%X<X*X=X=X2X=X*X}.&Xj.P.P.g.K.f.s.&.&.G 3 sXLXKXKXKXKXKXKXKXKXKXKXKXKXKXKXKXKXKXKXKXKXKXKXKXKXKXKXKXKXKXKXKXKXKX",
"KXKXKXKXKXKXKXKXKXKXKXKXKXKXKXKXKXKXKXKXKXKXKXKXKXKXKXKXKXFX* n % v n S +.#.<.j.Y.|.|.=X%XP.;.=.#.S 1 = nXKXKXKXKXKXKXKXKXKXKXyX= t < L L.h.y.}.%X&X=X<X=X<X=X2X}.P.I.c.T.P.i.i.s.3.=.=.v 4 nXKXKXKXKXKXKXKXKXKXKXKXKXKXKXKXKXKXKXKXKXKXKXKXKXKXKXKXKXKXKXKXKXKX",
"KXKXKXKXKXKXKXKXKXKXKXKXKXKXKXKXKXKXKXKXKXKXKXKXKXKXKXKXKXtX% < p v s $.t.$.k. X=X%X=X2XI.s.<.3.J a U } CXKXKXKXKXKXKXKXKXBX( o $ ; *.P.H.y.g.K.+X=X=X=X=X=X=X*X*XK.}.h.L.Y.R.i.h.s.s.&.&.k = gXKXKXKXKXKXKXKXKXKXKXKXKXKXKXKXKXKXKXKXKXKXKXKXKXKXKXKXKXKXKXKXKX",
"KXKXKXKXKXKXKXKXKXKXKXKXKXKXKXKXKXKXKXKXKXKXKXKXKXKXKXKXKXN % & S g +.j.<.k.&X2X<X2X=X%XK.y.r.-.M - ) IXLXKXKXKXKXKXKXKXvX} 9 $ s 9.f.g.3.i.K.%X=X=X=X=X=X=X=X+X%XI.P.P.Y.L.I.j.h.s.h.y.$.G : X eXKXKXKXKXKXKXKXKXKXKXKXKXKXKXKXKXKXKXKXKXKXKXKXKXKXKXKXKXKXKXKX",
"KXKXKXKXKXKXKXKXKXKXKXKXKXKXKXKXKXKXKXKXKXKXKXKXKXKXKXKXhXO = h S L H.j.K.2X*X<X2X2X=X%Xj.y.;.*.M o ] KXKXKXKXKXKXKXhXU ; t k J -.<.3.y.j..X=X=X=X=X=X=X*X2X*X X X.XK.|.|.I.h.H.h.g.d.h.y.=.t = ] CXKXKXKXKXKXKXKXKXKXKXKXKXKXKXKXKXKXKXKXKXKXKXKXKXKXKXKXKXKXKX",
"KXKXKXKXKXKXKXKXKXKXKXKXKXKXKXKXKXKXKXKXKXKXKXKXKXKXKXKXvXV.> S #.d.P.K.oX*X2X2X2X=X<XI.3.3.;.L k   ] KXKXKXKXKXKXeXX X s L t.s.s.g.K.K.I.+X*X=X*X=X=X=X=X=X2X.X X XI.$XY.|.d.g.h.s.d.h.g.h.t.t U ZXKXKXKXKXKXKXKXKXKXKXKXKXKXKXKXKXKXKXKXKXKXKXKXKXKXKXKXKXKXKX",
"KXKXKXKXKXKXKXKXKXKXKXKXKXKXKXKXKXKXKXKXKXKXKXKXKXKXKXKXKX( y *.3.P.s.r.{.*X=X<X2X2XOXf.-.-.<.v ; U [ KXKXKXKXKXJX} = < G t.s.d.j.K.}.*X=X=X=X=X=X=X=X=X=XOX=X%XY.%X$X$XI.I.h.s.s.s.d.h.h.h.f.d.a = pXKXKXKXKXKXKXKXKXKXKXKXKXKXKXKXKXKXKXKXKXKXKXKXKXKXKXKXKXKX",
"KXKXKXKXKXKXKXKXKXKXKXKXKXKXKXKXKXKXKXKXKXKXKXKXKXKXKXKXhX@ G L c.9.$.}. X%X<X<X<X=XY.j.;.<.-.v . qXvXJXKXKXKXKXuX7 j <.v.y.K. X%X-X%X-X*X=X=X=X=X*X=X-X*X&X*X*X X-X%X$XI.s.d.s.s.d.d.h.h.h.h.h.c.%.# / CXKXKXKXKXKXKXKXKXKXKXKXKXKXKXKXKXKXKXKXKXKXKXKXKXKXKXKX",
"KXKXKXKXKXKXKXKXKXKXKXKXKXKXKXKXKXKXKXKXKXKXKXKXKXKXKXKX` - k t.-.+. X|.}.2X=X<X2X*X+Xg.-.=.=.M .  .KXKXKXKXKXyXX s &.<.-.s.L.Y. X*X=X=X=X=X=X=X*X*X=X&X-X*X*X=X%X-X-XU.I.s.s.h.d.d.d.h.d.d.h.d.t.s.s.a = uXKXKXKXKXKXKXKXKXKXKXKXKXKXKXKXKXKXKXKXKXKXKXKXKXKXKX",
"KXKXKXKXKXKXKXKXKXKXKXKXKXKXKXKXKXKXKXKXKXKXKXKXKXKXKXGX0 2 b 3.#.U.OXK.=X=X<X2X2X2X}.i.s.#.*.b 1 | LXKXKXKXxXo % h L =.s.}.%X&X*X*X*X=X=X=X=X=X=X=X=X*X&X=X*X*X=X}.%XK.x.h.d.h.h.d.d.d.d.d.h.s.h.3.3.t.S o  .KXKXKXKXKXKXKXKXKXKXKXKXKXKXKXKXKXKXKXKXKXKXKXKXKX",
"KXKXKXKXKXKXKXKXKXKXKXKXKXKXKXKXKXKXKXKXKXKXKXKXKXKXKXZXqX6 S L g.R.x. X*X X=X=X=X=XP.I.r.=.#.$.; qXKXKXKXKXfX9 ; L <.c.OX*X-X*X=X=X=X*X*X=X=X=X=X=X=X=X=X=X*X-X<XU.}.I.s.h.d.h.h.d.d.d.d.d.d.s.h.s.t.r.3.=.@ | KXKXKXKXKXKXKXKXKXKXKXKXKXKXKXKXKXKXKXKXKXKXKXKX",
"KXKXKXKXKXKXKXKXKXKXKXKXKXKXKXKXKXKXKXKXKXKXKXKXKXKXKXKXtX: G k P.9.{.2X}.=X=X=X2X X|.Y.3.<.*.=.b * gXKXKXGX} % v *.t.g.j.Y.%X*X*X*X*X=X*X=X=X=X<X=XOX=X=X*X%X*X=Xj.I.b.s.h.s.d.h.d.d.d.d.d.d.d.d.h.s.h.t.s.9.@ eXKXKXKXKXKXKXKXKXKXKXKXKXKXKXKXKXKXKXKXKXKXKXKX",
"KXKXKXKXKXKXKXKXKXKXKXKXKXKXKXKXKXKXKXKXKXKXKXKXKXKXKXKX/ < ; =.3.7.2X XOX2X=X2X*X=X*Xf.s.p.*.#.=.b X U _ 3 @ j %.<.-.s. X=X=X*X*X*X*X*X=X=X=X%X=X*X}.*X=X=X%XI.*Xj.h.h.s.s.s.s.s.d.d.d.h.d.d.d.d.s.h.h.y.&.y.&.= BXKXKXKXKXKXKXKXKXKXKXKXKXKXKXKXKXKXKXKXKXKXKX",
"KXKXKXKXKXKXKXKXKXKXKXKXKXKXKXKXKXKXKXKXKXKXKXKXKXKXKXKXN . 2 4.+.l.*Xj.=X=X=X=X=X2X}.H.j.g.=.=.#.&.#.a t S *.*.#.;.j.-X=X&X*X=X*X=X=X*X=X=X<X X}.*XR. X=X=X<Xh.}.K.s.s.s.s.s.s.s.s.d.d.d.d.d.d.d.d.h.h.f.-.G s.a _ KXKXKXKXKXKXKXKXKXKXKXKXKXKXKXKXKXKXKXKXKXKX",
"KXKXKXKXKXKXKXKXKXKXKXKXKXKXKXKXKXKXKXKXKXKXKXKXKXKXKXGX9 9 s &.#.x.a.I.<X X<X=X=X<XI..Xk.g.t.3.#.%.%.&.&.&.*.*.-.k.+X%X*X*X*X*X=X=X=X=X=XOX%X<XP..XP.Y.2X}.=X{.h.k.d.h.s.d.d.s.d.d.d.d.d.d.d.d.d.h.d.d.h.h.G G s.= AXKXKXKXKXKXKXKXKXKXKXKXKXKXKXKXKXKXKXKXKXKX",
"KXKXKXKXKXKXKXKXKXKXKXKXKXKXKXKXKXKXKXKXKXKXKXKXKXKXKXGXpXB n L <.0.3.OX*X*X=X=X2X=X XOXh.f.s.s.<.=.&.#.&.#.$.t.s.j.K.%X=X=X*X=X=X=X=X=X=X%XY.%X XH.K.K.=XI.K. Xs.h.d.d.h.d.h.h.d.d.d.d.h.h.f.f.h.h.d.h.d.d.<.p 9.a ..KXKXKXKXKXKXKXKXKXKXKXKXKXKXKXKXKXKXKXKXKX",
"KXKXKXKXKXKXKXKXKXKXKXKXKXKXKXKXKXKXKXKXKXKXKXKXKXKXKXKXCX> h j y.L k. X}.2X=X=X2X=X=X+XK.I.s.f.d.t.s.<.y.t.y.s.s.K.%X2X=X*X=X=X=X=X*X=X=X=X XH..XP.j.j. X Xi.j.j.d.d.d.h.d.d.h.h.d.d.d.h.d.f.h.h.d.d.h.d.h.y.j k ;.V KXKXKXKXKXKXKXKXKXKXKXKXKXKXKXKXKXKXKXKXKX",
"KXKXKXKXKXKXKXKXKXKXKXKXKXKXKXKXKXKXKXKXKXKXKXKXKXKXKXKXnX& & M y.#.K.K.K.=X*X=X=X2X=X+X}.+Xs.K.c.d.f.s.s.j.d.j.}.=X=X=X=X=X=X=X=X=X*X<X=X%X*XK.K.I.H.y.K.OXj.s.d.d.d.d.d.d.d.h.h.h.h.h.f.h.f.h.d.h.h.d.h.h.s.#.; <.7 IXKXKXKXKXKXKXKXKXKXKXKXKXKXKXKXKXKXKXKXKX",
"KXKXKXKXKXKXKXKXKXKXKXKXKXKXKXKXKXKXKXKXKXKXKXKXKXKXKXKXnX@ X J <.*.L.y.x. X*X=X=X<X=X=X+X2XI.j.OXs.j.{.s.K.oX}..X*X=X=X=X=X=X=X=X<X%X+X2X XOX XK.j.Y.t.s.K.P.f.h.d.d.d.d.s.d.h.h.f.h.h.f.h.f.h.s.f.h.h.f.f.s.=.< P t dXKXKXKXKXKXKXKXKXKXKXKXKXKXKXKXKXKXKXKXKX",
"KXKXKXKXKXKXKXKXKXKXKXKXKXKXKXKXKXKXKXKXKXKXKXKXKXKXKXKXMX9 w S L *.H.-.k.Y.=X*X=X=X=X=X=X<X=XK.%X%Xj..X*X}.OX2X=X*X*X=X%X=X=X<X=X=X*XK. X*XK.}.P.p.Z.g.t.h.f.f.f.f.d.d.h.d.h.h.d.s.h.h.f.f.j.h.r.f.d.h.h.h.s.=.h x S } KXKXKXKXKXKXKXKXKXKXKXKXKXKXKXKXKXKXKXKX",
"KXKXKXKXKXKXKXKXKXKXKXKXKXKXKXKXKXKXKXKXKXKXKXKXKXKXKXKXFXuXY c h L h.=.g.K.<X X=X2X=X=X=X=X<X*X+X2X=X.X*X2X<X=X=X=X<X X X2X=X<X=X=X2X Xj. XK.J.T.f.<.K.<.h.s.f.f.f.d.d.d.h.h.h.h.d.h.h.h.j.f.g.=.g.h.h.f.f.h.<.G 2 t.= ZXKXKXKXKXKXKXKXKXKXKXKXKXKXKXKXKXKXKXKX",
"KXKXKXKXKXKXKXKXKXKXKXKXKXKXKXKXKXKXKXKXKXKXKXKXKXKXKXKXKXKXY g 2 G y.#.s.c.*X}.=X<X=X=X=X=X=X=X<X=X=X<X=X=X<X<X=X=X-XK.=X2X=X=X2X2X*X*XK.K.P.H.J.J.#.p.p.s.j.h.f.f.f.d.f.d.h.h.d.d.h.h.h.h.j.p.L y.j.f.j.f.j.t.L % a.j ~ KXKXKXKXKXKXKXKXKXKXKXKXKXKXKXKXKXKXKX",
"KXKXKXKXKXKXKXKXKXKXKXKXKXKXKXKXKXKXKXKXKXKXKXKXKXKXKXKXKXKX| % % v &.L y.s.}.I.%X<X%X2X=X=X2X<X=X=X=X=X=X=X=X<X*X+X}.K.2X=X=X=X=X2X%XU.I.H.J.j.y.L.&.*.s.d.h.h.f.f.h.f.h.h.h.f.h.h.h.h.f.j.h.9.G s.j.f.j.j.j.y.%.& P L.: | KXKXKXKXKXKXKXKXKXKXKXKXKXKXKXKXKXKX",
"KXKXKXKXKXKXKXKXKXKXKXKXKXKXKXKXKXKXKXKXKXKXKXKXKXKXKXKXKXKXsXo , h L L 3.s.c.K.I.2X|.=X=X=X=X=X=X=X=X=X=X=X=X2X{.U.L.I.&X*X=X=X=X=X2X%XP.J.H.H.-.H.=.L y.f.h.h.h.f.h.h.h.h.f.f.f.f.f.h.f.h.y.%.v y.j.f.f.j.h.t.&.; M L.K.@ eXKXKXKXKXKXKXKXKXKXKXKXKXKXKXKXKXKX",
"KXKXKXKXKXKXKXKXKXKXKXKXKXKXKXKXKXKXKXKXKXKXKXKXKXKXKXKXKXKXGXq _ y M k =.s.3.j.c.%X|. X2X%X=X=X=X=X=X=X=X2X%X*Xx.h.d.L.=X*X*X=X*X*X*X2X*XK.H.J.<.y.1.S t.f.h.h.f.f.f.d.h.h.h.h.f.f.f.f.j.p.<.G k p.H.f.j.f.h.<.&.; v a.a.a.X vXKXKXKXKXKXKXKXKXKXKXKXKXKXKXKXKX",
"KXKXKXKXKXKXKXKXKXKXKXKXKXKXKXKXKXKXKXKXKXKXKXKXKXKXKXKXKXKXKXfXuX* h p +.<.<.u.P.P. Xk.2XOX%X2X*X*X=X-X=X2X.X Xx.s.-.U.2X%X=X*X=X*X=X=X*X}.j.H.9.$.=.F <.s.d.f.h.f.f.f.f.f.f.f.f.f.j.g.g.<.$.p G y.H.c.j.j.h.=.&.< i g.E 0.#.e KXKXKXKXKXKXKXKXKXKXKXKXKXKXKXKX",
"KXKXKXKXKXKXKXKXKXKXKXKXKXKXKXKXKXKXKXKXKXKXKXKXKXKXKXKXKXKXKXKXLXq t $ J L %.#.P.i.K.f.{.*XP.2X-X|.2X*X X2X Xj.k.=.;..X X X=X=X=X=X=X2X X XL.p.-.#.#.S =.p.f.h.h.h.f.f.f.h.d.f.f.h.f.y.r.&.#.; L 3.H.c.j.j.g.&.&.< o *.Y.h 7.: kXKXKXKXKXKXKXKXKXKXKXKXKXKXKXKX",
"KXKXKXKXKXKXKXKXKXKXKXKXKXKXKXKXKXKXKXKXKXKXKXKXKXKXKXKXKXKXKXKXKXyXX $ s G b +.y.y.y.P.t.{.j.Z.4X{.{.2X}.}.2Xt.=.#.;..Xk.+X=X=X*X*X2X+X+XY.K.p.*.L #.S #.r.s.h.h.h.h.f.f.d.d.f.f.f.h.=.&.=.h p &.<.H.j.j.j.s.&.*.1 e s P.u.* G U KXKXKXKXKXKXKXKXKXKXKXKXKXKXKX",
"KXKXKXKXKXKXKXKXKXKXKXKXKXKXKXKXKXKXKXKXKXKXKXKXKXKXKXKXKXKXKXKXKXLX0 N 6 v p +.L t.<.c.t.<.H.3.Z.$Xt.{.2X-.Z.x.#.*.&.L.9.%X=X*X=X=X=X*X}.I.h.h.=.G k L L -.<.y.f.h.h.f.f.f.h.f.s.y.-.#.$.#.$ G ;.3.c.f.j.j.s.$.+.1 yX< *.K.h i 2 AXKXKXKXKXKXKXKXKXKXKXKXKXKXKX",
"KXKXKXKXKXKXKXKXKXKXKXKXKXKXKXKXKXKXKXKXKXKXKXKXKXKXKXKXKXKXKXKXKXKXhX) ` - & j +.#.<.&.g.=.3.g.#.k.K.+.U.Z.F 9.&.*.J y.-.+XOX*X*X*X=X2X%Xj.g.s.<.#.< b S &.t.h.f.f.f.j.h.s.k.p.=.=.*.*.;.p 1 &.*.3.c.f.f.j.y.*.F 6 BX5 G 7.7.$ ; uXKXKXKXKXKXKXKXKXKXKXKXKXKXKX",
"KXKXKXKXKXKXKXKXKXKXKXKXKXKXKXKXKXKXKXKXKXKXKXKXKXKXKXKXKXKXKXKXKXKXKXnXMX3 $ $ L v J #.=.3.#.<.3.#.t.1.#.g.=.#.#.$.v =.s.{..X=X*X*X=X*X=XI.f.t.=.#.p a S *.$.=.4.y.y.3.=.<.3.$.*.*.*.=.k X G =.#.t.c.f.f.c.3.$.b N LXw S M 0.& @ V.KXKXKXKXKXKXKXKXKXKXKXKXKXKX",
"KXKXKXKXKXKXKXKXKXKXKXKXKXKXKXKXKXKXKXKXKXKXKXKXKXKXKXKXKXKXKXKXKXKXKXKXKXdXX ~ : v ; $.*.#.%.*.&.&.*.=.*.$.=.*.*.$.J j g.g.{.2X*X*X=X=X}..XH.y.L +.h p +.+.=.&.$.&.*.*.&.&.*.&.$.*.;.v $ $ G =.*.r.c.f.f.f.t.=.g ^ KXz b p %.p . | KXKXKXKXKXKXKXKXKXKXKXKXKXKX",
"KXKXKXKXKXKXKXKXKXKXKXKXKXKXKXKXKXKXKXKXKXKXKXKXKXKXKXKXKXKXKXKXKXKXKXKXKXKXtXV._ # 1 p %.*.#.&.&.*.*.=.*.$.#.*.$.*.#.; *.d.U.=X-X=X=X2X%XL.H.s.#.L h ; $.*.=.=.=.=.$.&.&.$.$.&.&.&.h $ = * v =.*.<.f.f.f.f.y.-.t | LX* j < L p .  .KXKXKXKXKXKXKXKXKXKXKXKXKXKX",
"KXKXKXKXKXKXKXKXKXKXKXKXKXKXKXKXKXKXKXKXKXKXKXKXKXKXKXKXKXKXKXKXKXKXKXKXKXKXKXDXGX^ o , % #.-.h L -.+.S $.#.$.F =.;.F p k s.u..X%X=X=X=X2XI.s.s.&.#.< : $.$.&.=.=.=.=.=.$.$.&.=.L < & % ] } t &.#.=.j.f.f.f.3.=.: yXZX$ i < b 2 O `.KXKXKXKXKXKXKXKXKXKXKXKXKXKX",
"KXKXKXKXKXKXKXKXKXKXKXKXKXKXKXKXKXKXKXKXKXKXKXKXKXKXKXKXKXKXKXKXKXKXKXKXKXKXKXKXKXKX| V ` @ k G < b #.v S L +.+.v #.#.b ; x t.Z.}.*X+X2X X}.g.t.=.*.i ; #.$.&.=.&.=.=.&.=.=.&.k % : c @ nXyX- P L =.h.f.f.h.=.=.- hXhX# p p k 2 B fXKXKXKXKXKXKXKXKXKXKXKXKXKXKX",
"KXKXKXKXKXKXKXKXKXKXKXKXKXKXKXKXKXKXKXKXKXKXKXKXKXKXKXKXKXKXKXKXKXKXKXKXKXKXKXKXKXKXKXbXGXdX5 - : $ i L p j F S v ; j S p o 9.c.u.=XI.+X.X}.P.<.*.J j & +.=.&.&.;.=.=.;.#.k ; % s b u 6 KXnX# h G =.r.j.h.s.<.%.% ZXgX# ; s a 5 wXSXKXKXKXKXKXKXKXKXKXKXKXKXKXKX",
"KXKXKXKXKXKXKXKXKXKXKXKXKXKXKXKXKXKXKXKXKXKXKXKXKXKXKXKXKXKXKXKXKXKXKXKXKXKXKXKXKXKXKXKXKXKXJXsXB @ $ & p % p j k S t % & X i k.t..X+XK.%XK.P.&.L G : t F K #.&.*.L v p % & u n n b : [ KXPX4 ; j &.=.d.f.d.r.#.& GXlXX $ h : ^ JXKXKXKXKXKXKXKXKXKXKXKXKXKXKXKX",
"KXKXKXKXKXKXKXKXKXKXKXKXKXKXKXKXKXKXKXKXKXKXKXKXKXKXKXKXKXKXKXKXKXKXKXKXKXKXKXKXKXKXKXKXKXKXKXKXCX* S j ; % X % ; < s s a s O P s.g..XY.+XL.d.-.#.J X # - % - # & % % < s n b n c b % eXKXKX| o & #.3.y.j.c.t.L 1 PXFX$ X h # rXKXKXKXKXKXKXKXKXKXKXKXKXKXKXKXKX",
"KXKXKXKXKXKXKXKXKXKXKXKXKXKXKXKXKXKXKXKXKXKXKXKXKXKXKXKXKXKXKXKXKXKXKXKXKXKXKXKXKXKXKXGXsXCXKXKXKX~ a =.+.J j k t % $ % ; % o % *.t.j.Y.|.c.s.<.*.b 5 `.`.V.qXyX9 y b b b n n v v b % gXKXKXhX@ ; i -.g.f.f.y.F 7 GXKX/ 0 p % hXKXKXKXKXKXKXKXKXKXKXKXKXKXKXKXKX",
"KXKXKXKXKXKXKXKXKXKXKXKXKXKXKXKXKXKXKXKXKXKXKXKXKXKXKXKXKXKXKXKXKXKXKXKXKXKXKXKXKXKXJXN l 3 uXKXKXsX: r.+.o.S S b v v r ) hXnX( y <.f.f.P.c.h.=.#.; Y KXKXKXKXKX .- b n v v v v v b $ lXKXKXKXV g h J <.s.c.y.S 6 GXKXhX| 7 $ vXKXKXKXKXKXKXKXKXKXKXKXKXKXKXKXKX",
"KXKXKXKXKXKXKXKXKXKXKXKXKXKXKXKXKXKXKXKXKXKXKXKXKXKXKXKXKXKXKXKXKXKXKXKXKXKXKXKXKXKXyXz 5Xq.6 q [ eX, 3.x.>X].N.c v b : | KXKXhX$ %.g.f.f.c.h.&.%.- ` KXLXKXLXKXvX@ b b b n v b b b % vXKXLXKXyX% 1.%.-.t.f.y.F 7 GXKXLXLXV.  uXKXKXKXKXKXKXKXKXKXKXKXKXKXKXKXKX",
"KXKXKXKXKXKXKXKXKXKXKXKXKXKXKXKXKXKXKXKXKXKXKXKXKXKXKXGXbXvXVXLXKXKXKXKXKXKXKXKXKXKX/ m.w.6.).N.8.C 6 ; ) ~ U rX'.c b # V.KXLXKXN b p.f.f.f.s.1.%.% V.KXKXKXKXKXKXB a L S b b n b S % gXKXKXKXJX0 b -.<.f.f.y.+.1 HXKXKXKXKXV.^ LXKXKXKXKXKXKXKXKXKXKXKXKXKXKXKX",
"KXKXKXKXKXKXKXKXKXKXKXKXKXKXKXKXKXKXKXKXKXKXKXKXHXrXB 9 q B q N [ bXKXKXKXKXKXKXKXFX6 :XK ; - d 6.x.XXN.W m.w.@ eX8.c % dXKXLXKX`.t g.h.f.f.y.=.J 2 nXKXKXKXKXKXKXsX# &.#.K L v b S % yXKXKXKXKXyX% -.=.y.c.t.#.; BXKXKXKXKXKXGXJXKXKXKXKXKXKXKXKXKXKXKXKXKXKXKX",
"KXKXKXKXKXKXKXKXKXKXKXKXKXKXKXKXKXKXKXKXKXKXBX` 3 ( sXbXvXhXdXuX[ 5 ..KXKXKXKXKXKXyXC XXr , eX( , @ - b u.m.m.: } M.c & ZXKXKXKXnX; s.f.f.f.t.&.k 6 LXKXKXKXKXKXKXKXV g <.#.&.L v S - | KXKXKXKXLX9 v t.y.f.y.$.; hXKXKXKXKXKXKXKXKXKXKXKXKXKXKXKXKXKXKXKXKXKXKX",
"KXKXKXKXKXKXKXKXKXKXKXKXKXKXKXKXKXKXKXKXKXLX3 ] CXCXsX..} ` ( ( | ..5 ) KXKXKXKXKX( m.l.o V.KXKXGXhX..4 % @.*.- rXw.g , HXKXKXKXLX9 <.H.h.f.t.=.a Y KXKXKXKXKXKXKXKXhXX -.3.&.*.b b y B KXKXKXKXKXuX% -.g.c.y.=.: wXKXKXKXKXKXKXKXKXKXKXKXKXKXKXKXKXKXKXKXKXKXKX",
"KXKXKXKXKXKXKXKXKXKXKXKXKXKXKXKXKXKXGXhXKXdX  fXsX_ ] | ` = . .     *   qXKXKXKXFX6 :X+.$ Y yXZXKXKXKXuX; l.c 5 aXm t ) KXKXKXKXKX_ S L.h.c.t.&.t } KXKXKXKXKXKXKXKXKX_ u s.-.=.K v g % BXKXKXKXKXKXV b d.c.s.-.d ( KXKXKXKXKXKXKXKXKXKXKXKXKXKXKXKXKXKXKXKXKXKX",
"KXKXKXKXKXKXKXKXKXKXKXKXKXKXKXKXZX[ 6 9 3 B | ~ uX} |  .9 6 tXlXlXuX` 6 gXKXLXKXuXC XXm 6.8.z z U | hX_ x 7.# } XXw.gXyX..xXKXKXKXwXy L.d.f.3.&.: wXKXKXKXKXKXKXKXKXKXDX, +.y.=.+.v b % V.KXKXKXKXKXsX- g.j.j.=.J 7 HXKXKXKXKXKXKXKXKXKXKXKXKXKXKXKXKXKXKXKXKXKX",
"KXKXKXKXKXKXKXKXKXKXKXKXKXKXKXJX5 / CXKX/ eXhX, wXqX] ..N ] KXKXKXKXKXKXKXKXKXKX} m.0.{ R %.l.l.6.R h T l.D $ iX5XdXN Y + V KXKXKXZXx v.h.h.3.=.: pXKXKXKXKXKXKXKXKXKXKXeX- y.3.=.b b a 5 GXKXKXKXKXKXe #.L.j.<.&.; yXKXKXKXKXKXKXKXKXKXKXKXKXKXKXKXKXKXKXKXKXKX",
"KXKXKXKXKXKXKXKXKXKXKXKXKXKXKXvXX ` vXwXV.0 [ U V sX| } B 9 LXKXKXKXKXKXKXKXKXKX| Q l.x M +.;.@.-.u.l.7.s # Y LXfX+ pXGX6 V.KXKXgX( NXU.s.f.t.&.- dXKXKXKXKXKXKXKXKXKXKXKXq S y.-.+.g J # qXKXKXKXKXKXyXt L.c.s.+.v 9 JXKXKXKXKXKXKXKXKXKXKXKXKXKXKXKXKXKXKXKXKX",
"KXKXKXKXKXKXKXKXKXKXKXKXKXKXKXMX5 _ ` `._ 6 , $ ,  .e 1 . ` KXKXKXKXKXKXKXKXKXKX` . q.@.0.l.6.M t # @ . 3 ( FXLX0 fXKXrXX SXKXKX/ , _ NXv.j.t.&.; fXKXKXKXKXKXKXKXKXKXKXKXyX: y.r.-.v k n 3 GXKXKXKXKXCX* t.c.f.+.#.- qXKXKXKXKXKXKXKXKXKXKXKXKXKXKXKXKXKXKXKXKX",
"KXKXKXKXKXKXKXKXKXKXKXKXKXKXKXKX9 ( ` _ ( 3 )  .o @ s ;.S V KXKXKXKXKXKXKXKXKXFX0 rX= - : % = 5 Y ] uX) tXKXKXtX~ JXSXU ^ KXKXbX0 ZXO dXoXf.s.&.: eXKXKXKXKXKXKXKXKXKXKXKXHX1 ;.r.-.L u J % jXKXKXKXKXKXN +.c.c.3.J S 9 LXKXKXKXKXKXKXKXKXKXKXKXKXKXKXKXKXKXKXKX",
"KXKXKXKXKXKXKXKXKXKXKXKXKXKXKXKXeX= } _ N o MXKX` * +.i.4.: sXKXKXKXKXKXKXKXKXuXB JXtXV. .wXfXlXmXVXSX .q KXKX] `.LXlXo gXKXKX..] LXN  .5Xs.c.r.c ^ KXKXKXKXKXKXKXKXKXKXKXKXN S r.=.S v J % dXKXKXKXKXKXU b d.c.s.#.+.1 FXKXKXKXKXKXKXKXKXKXKXKXKXKXKXKXKXKXKXKX",
"KXKXKXKXKXKXKXKXKXKXKXKXKXKXKXKXKX` X , ^ lXKXLXKXeX: U.d.m V KXKXKXKXKXKXKXKX( qXMXgXSXNXVXNXmXMXlX9 | BXKXKX` wXPXZX4  .KXSX4 lXHXB ` ,Xf.J.3.+.* ZXKXKXKXKXKXKXKXKXKXKXKXU b r.-.;.S b & ZXKXKXKXKXKX/ c s.f.s.<.S 5 GXKXKXKXKXKXKXKXKXKXKXKXKXKXKXKXKXKXKXKX",
"KXKXKXKXKXKXKXKXKXKXKXKXKXKXKXKXKXKXlXZXKXKXKXKXKXHX> r.U.4.; hXKXKXKXKXKXKXGX5 MXhXnXmXmXmXmXnXmXSX) uXKXLXKXV.| PXDXhX7 N 4 ..HXVX4 ..:Xf.H.<.%.; hXKXKXKXKXKXKXKXKXKXKXKX_ c t.3.=.K y ~ KXKXKXKXKXKX} y f.d.d.9.c Y KXKXKXKXKXKXKXKXKXKXKXKXKXKXKXKXKXKXKXKX",
"KXKXKXKXKXKXKXKXKXKXKXKXKXKXKXKXKXKXKXKXKXKXKXKXKXKX} d {.i.n / KXKXKXKXKXKXsXB HXpXNXMXmXmXmXmXxXrXB ..KXLXKXnXq FXSXHXSXdXnXFXHXfXO pXl.f.h.y.&.; vXKXKXKXKXKXKXKXKXKXKXKXV.u t.3.+.G # sXKXKXKXKXKXKXdX% s.d.s.<.t V.KXKXKXKXKXKXKXKXKXKXKXKXKXKXKXKXKXKXKXKX",
"KXKXKXKXKXKXKXKXKXKXKXKXKXKXKXKXKXKXKXKXKXKXKXKXuXB 9 - k.x.;.> B Y ( ` } wXq qXNXgXNXMXMXmXmXNXpX3 ZXKXKXKXKXJX9 sXHXDXSXHXDXHXbX0 / tXo.j.c.y.+.1 FXKXKXKXKXKXKXKXKXKXKXKXwXy y.;.S a N KXKXKXKXKXKXKXKXq #.c.-.&.; hXKXKXKXKXKXKXKXKXKXKXKXKXKXKXKXKXKXKXKXKX",
"KXKXKXKXKXKXKXKXKXKXKXKXKXKXKXKXKXKXKXKXKXKXKXsX* _.M.1 D U.4.j 6 N.q.q.W R X nXgXnXMXMXMXMXmXMXvXB ^ [ } ..yX| ~ CXsXnXZXDXVXyX, 0 FXV F H.t.=.n V KXKXKXKXKXKXKXKXKXKXKXKXV.y y.+.S % eXKXKXKXKXKXKXKXKXeXu H.t.L 7 GXKXKXKXKXKXKXKXKXKXKXKXKXKXKXKXKXKXKXKXKX",
"KXKXKXKXKXKXKXKXKXKXKXKXKXKXKXKXKXKXKXKXKXKXFX, ].q.& $ u j.y.$.2 H E 8.w.E Y FXsXNXMXMXMXmXNX`.* t M W E E R . gXLXSXgXgX..7 X ] GXKXyX: c.s.<.y } KXKXKXKXKXKXKXKXKXKXKXKX| d y.+.c * CXKXKXKXKXKXKXKXKXnX; f.s.b N KXKXKXKXKXKXKXKXKXKXKXKXKXKXKXKXKXKXKXKXKX",
"KXKXKXKXKXKXKXKXKXKXKXKXKXKXKXKXKXKXKXKXKXKX/ { ).- $ $ % ;.i.>.v @ d b m # qXBXhXNXMXMXMXmXSXhX* a E w.w.N.W ^ FX| rXHXnX9 . 6 U ] JXLX0 3.L.y.t qXKXKXKXKXKXKXKXKXKXKXKXKX/ n r.L r / KXKXKXKXKXKXKXKXKXHX7 s.h.c ^ KXKXKXKXKXKXKXKXKXKXKXKXKXKXKXKXKXKXKXKXKX",
"KXKXKXKXKXKXKXKXKXKXKXKXKXKXKXKXKXKXKXKXKXuX6 ,Xu u ; & X v i.>.@.& : j j $ vXhXnXMXMXMXMXMXiX( * t a c g g . dX`./ / lXqX. W ,XE o qXKX] S P.y.: eXKXKXKXKXKXKXKXKXKXKXKXKXw o.-.K % yXKXKXKXKXKXKXKXKXKXJX6 4.j.g ' KXKXKXKXKXKXKXKXKXKXKXKXKXKXKXKXKXKXKXKXKX",
"KXKXKXKXKXKXKXKXKXKXKXKXKXKXKXKXKXKXKXKXHX, ].E y u ; < O : >.4.-.h X $ o B CXdXNXMXMXMXmXSX]   ; y j v b y B vXV pXqXlX4 N 3XL a t B KXyXu P.y.: wXKXKXKXKXKXKXKXKXKXKXKXCX1 =.=.v & ZXKXKXKXKXKXKXKXKXKXKXN 3.c.a [ KXKXKXKXKXKXKXKXKXKXKXKXKXKXKXKXKXKXKXKXKX",
"KXKXKXKXKXKXKXKXKXKXKXKXKXKXKXKXKXKXKXKX/ { _.: c y ; y % $ m 4.>.@.% % . `.BXlXNXMXMXMXmXxX`.$ $ $ $ % ; . dXV.] `.sX`.  ].z.: $ d * GXnX< H.g.t V.KXKXKXKXKXKXKXKXKXKXKXgX; r.&.y B KXKXKXKXKXKXKXKXKXKXKXN 3.L.a ] KXKXKXKXKXKXKXKXKXKXKXKXKXKXKXKXKXKXKXKXKX",
"KXKXKXKXKXKXKXKXKXKXKXKXKXKXKXKXKXKXKXsXN ,Xp c c a ; a : X u ;.>.>.s O X lXnXMXNXNXMXMXMXB . % $ $ $ $ o N bXV yX..nX= Q @Xa < % s % hXPX1 d.j.u  .KXKXKXKXKXKXKXKXKXKXKX..a t.#.-  .KXKXKXKXKXKXKXKXKXKXLX9 3.c.a } KXKXKXKXKXKXKXKXKXKXKXKXKXKXKXKXKXKXKXKXKX",
"KXKXKXKXKXKXKXKXKXKXKXKXKXKXKXKXKXKX`.. z l @ ; : : % t t % & o.i.i.;.X B HXxXZXNXNXMXmXCXV.X % $ $ $ % . sX`.( wXfX`.X ,X*.: t ; p r V.KX6 4.c.a ` KXKXKXKXKXKXKXKXKXKXKXV F r.L # sXKXKXKXKXKXKXKXKXKXKXGX5 y.c.a ] KXKXKXKXKXKXKXKXKXKXKXKXKXKXKXKXKXKXKXKXKX",
"KXKXKXKXKXKXKXKXKXKXKXKXKXKXKXKXKXbX= ].M.m.m.W Y C 8 7 * $ o - r a g o ` gXdXmXNXVXSXVXY $ % % $ $ % X 9 BXV eX .nX, M.{.t t t ; p y N KXU ;.H.n U KXKXKXKXKXKXKXKXKXKXBX; -.3.b & ZXKXKXKXKXKXKXKXKXKXKXCX1 s.j.a ` KXKXKXKXKXKXKXKXKXKXKXKXKXKXKXKXKXKXKXKXKX",
"KXKXKXKXKXKXKXKXKXKXKXKXKXKXKXKXKXvXN ,Xw.z.N._.].:X:X>X:X].].'.M.{ Q Y C 7 5 6 9 q U ( , . o X @ $ % . uXtX[ yXdXqX6 1Xv < a ; p : g - eX` F L.F 6 JXKXKXKXKXKXKXKXKXKXqXt y.=.g 9 LXKXKXKXKXKXKXKXKXKXKXvX< f.f.c ( KXKXKXKXKXKXKXKXKXKXKXKXKXKXKXKXKXKXKXKXKX",
"KXKXKXKXKXKXKXKXKXKXKXKXKXKXKXKXKXvXz _.d x s c c v v b J E 7.w.z.).).XXXX:X:X]._._.M.q.{ W T N 6 * $ X V + V B | + :X0.: p r Q '.: t a 9 _ S J.=.& BXKXKXKXKXKXKXKXKXKXq F t.;.y / KXKXKXKXKXKXKXKXKXKXKXsXt H.h.n U KXKXKXKXKXKXKXKXKXKXKXKXKXKXKXKXKXKXKXKXKX",
"KXKXKXKXKXKXKXKXKXKXKXKXKXKXKXKXKXvXN XXi ].E m @.+.+.O.O.D m b n n n c j j M H P 6.e.z.)._.XXXX:X:X:X]._.M.m.Q T _.).y t u t p p t : y N _ S L.9.; sXKXKXKXKXKXKXKXKXqX; 3.3.&.: | KXKXKXKXKXKXKXKXKXKXKX| c H.s.S N KXKXKXKXKXKXKXKXKXKXKXKXKXKXKXKXKXKXKXKXKX",
"KXKXKXKXKXKXKXKXKXKXKXKXKXKXKXKXKXvXz XXv H x m D K O.O.O.O.+.+.+.O.O.O.O.O.D D D m n c d d c v b J P 6.0.w.z.N.1Xw.t ; t t t < t a < a z _ S J.t.y ] KXKXKXKXKXKXKXhX$ -.3.<.$.: `.KXKXKXKXKXKXKXKXKXKXGX5 $.h.s.+.> CXKXKXKXKXKXKXKXKXKXKXKXKXKXKXKXKXKXKXKXKX",
"KXKXKXKXKXKXKXKXKXKXKXKXKXKXKXKXKXvXl XXD J K +.D D O.O.O.O.O.K K O.K K K K O.+.+.+.+.+.+.+.+.+.K D D S v p a : l.J : < y y u u u a < u z / S H.t.S 1 FXKXKXKXKXKXKX^ g t.r.r.#.: V.KXKXKXKXKXKXKXKXKXKXV.a c.s.d.<.- yXKXKXKXKXKXKXKXKXKXKXKXKXKXKXKXKXKXKXKXKX",
"KXKXKXKXKXKXKXKXKXKXKXKXKXKXKXKXKXvXl XXb O.O.K O.O.O.O.+.O.O.O.O.O.O.O.O.O.K K K K K D D D K K D D K o.x >XP g B.P : y a u u y u a : a 2 , 1.c.y.&.: ..KXKXKXKXKXKXB n L 3.*.J - qXKXKXKXKXKXKXKXKXKXKXV S r.y.s.r.a [ KXKXKXKXKXKXKXKXKXKXKXKXKXKXKXKXKXKXKXKX",
"KXKXKXKXKXKXKXKXKXKXKXKXKXKXKXKXKXvXl XXS O.K O.D D D D D D D D D O.O.O.O.O.K K K O.O.D O.O.O.O.O.D D O.j R M s N.P ; t a u u u u a : s $ 2 s.d.y.*.b B KXKXKXKXKXhX1 -.-.=.S v & nXKXKXKXKXKXKXKXKXKXKX^ n G L f.9.u ` KXKXKXKXKXKXKXKXKXKXKXKXKXKXKXKXKXKXKXKX",
"KXKXKXKXKXKXKXKXKXKXKXKXKXKXKXKXKXvXl XXb O.+.+.+.+.+.K D O.D D D D O.O.O.O.+.O.O.O.O.O.O.O.+.O.O.O.O.K D c D s z.P : y u u u u u u : s $ p 3.s.3.#.n q KXKXKXLX| % #.=.4.-.L t ( KXKXKXKXKXKXKXKXKXKXbX3 t.L.p.3.&.% dXKXKXKXKXKXKXKXKXKXKXKXKXKXKXKXKXKXKXKXKX",
"KXKXKXKXKXKXKXKXKXKXKXKXKXKXKXKXKXnXl ).n S m S D D O.O.O.+.+.+.+.O.O.O.O.O.O.+.O.O.O.O.O.O.O.O.O.K K O.O.+.+.s z.#.: t u u u u u a : a $ G c.s.9.%.y ..KXKXKX/ % x i 2 P -.S n * BXKXKXKXKXKXKXKXKXpXo J y.&.j.-.#.% sXKXKXKXKXKXKXKXKXKXKXKXKXKXKXKXKXKXKXKXKX",
"KXKXKXKXKXKXKXKXKXKXKXKXKXKXKXKXKXvXl ).S +.K +.K O.O.O.O.+.O.O.O.O.O.O.O.O.O.O.O.O.D D D D D O.+.O.D O.D K +.s z.P ; t y y u u u a < a ; t.g.c.g.=.: qXKXKXtX$ q.; , E x H v x # yXKXKXKXKXKXKXKXgXX x x < i P 9.&.b 0 JXKXKXKXKXKXKXKXKXKXKXKXKXKXKXKXKXKXKXKX",
"KXKXKXKXKXKXKXKXKXKXKXKXKXKXKXKXKXnXl ).b +.+.O.O.+.+.+.+.+.+.O.+.+.+.+.O.K O.O.O.+.+.+.O.O.+.O.D D O.D O.O.+.s z.L ; t u y u u u a : a ; M i J g.3.K $ bXKXB R z $ W R M i p x @ tXKXKXKXKXKXKXKXq R Q & * q.x x M x # hXKXKXKXKXKXKXKXKXKXKXKXKXKXKXKXKXKXKXKX",
"KXKXKXKXKXKXKXKXKXKXKXKXKXKXKXKXKXnXl ).m D K +.+.+.+.+.+.+.+.O.O.+.+.O.O.O.O.+.O.+.+.+.+.+.O.O.D O.+.O.O.+.@.s l.K : y u y u u u u : a ; $ 6 T H #.H % | KX9 : $ 7 q.R x i i % = ZXKXKXKXKXKXKXvX1 q.p $ Q Q x x p x # uXKXKXKXKXKXKXKXKXKXKXKXKXKXKXKXKXKXKXKX",
"KXKXKXKXKXKXKXKXKXKXKXKXKXKXKXKXKXnXl ).m +.O.+.+.+.+.+.+.+.O.D K K D D D D O.O.O.O.+.+.+.O.D D O.O.+.+.O.K +.s z.K : t u y u u u u < a % & q.R x p i : U KXxXU 9 * $ - @ X $ U nXKXKXKXKXKXKXKXvXo x p $ q.R M h h ; o bXKXKXKXKXKXKXKXKXKXKXKXKXKXKXKXKXKXKXKX",
"KXKXKXKXKXKXKXKXKXKXKXKXKXKXKXKXKXvXz XXM J b m m D D O.+.+.+.@.+.+.+.K K D K D D D D D D D O.O.+.+.+.+.O.O.+.s z.J ; t u y u u u u < a % 7 8.M x i x % ~ KXKXKXKXMXtX`.rXpXBXKXKXKXKXKXKXKXKXKXKX`.6 3 * % - % X $ 6 sXKXKXKXKXKXKXKXKXKXKXKXKXKXKXKXKXKXKXKXKX",
"KXKXKXKXKXKXKXKXKXKXKXKXKXKXKXKXKXBX* N.).).).B.z.0.6.P J b b m m D D O.+.+.+.+.+.O.D O.O.D O.O.O.+.+.+.O.+.+.s l.J ; t u y u u u t & a & $ i i p % @ = lXKXKXKXKXKXKXKXKXKXKXKXKXKXKXKXKXKXKXKXKXKXLXGXCXyX`.`.yXxXLXKXKXKXKXKXKXKXKXKXKXKXKXKXKXKXKXKXKXKXKXKX",
"KXKXKXKXKXKXKXKXKXKXKXKXKXKXKXKXKXKX..= 1 < i k P 7.z.B.).).B.z.0.7.P J b b m m D D D +.+.+.+.O.O.O.O.+.O.O.+.s l.J : t u y t < ; : s g * ` B N N ( rXFXKXKXKXKXKXKXKXKXKXKXKXKXKXKXKXKXKXKXKXKXKXKXKXKXKXKXKXKXKXKXKXKXKXKXKXKXKXKXKXKXKXKXKXKXKXKXKXKXKXKXKXKX",
"KXKXKXKXKXKXKXKXKXKXKXKXKXKXKXKXKXKXKXJXZXhXyX.._ V 5 * ; < h H 6.w.z.).).).x.z.0.6.P b b n b m m D D +.+.+.@.j l.J : t < ; : p g g t o U KXKXKXKXKXKXKXKXKXKXKXKXKXKXKXKXKXKXKXKXKXKXKXKXKXKXKXKXKXKXKXKXKXKXKXKXKXKXKXKXKXKXKXKXKXKXKXKXKXKXKXKXKXKXKXKXKXKXKX",
"KXKXKXKXKXKXKXKXKXKXKXKXKXKXKXKXKXKXKXKXKXKXKXKXKXKXLXFXvXsXqX} ~ q 3 * ; p k P 0.z.).).).x.z.0.6.P J b b n m t l.J : ; t g g t # $ ^ pXJXKXKXKXKXKXKXKXKXKXKXKXKXKXKXKXKXKXKXKXKXKXKXKXKXKXKXKXKXKXKXKXKXKXKXKXKXKXKXKXKXKXKXKXKXKXKXKXKXKXKXKXKXKXKXKXKXKXKXKX",
"KXKXKXKXKXKXKXKXKXKXKXKXKXKXKXKXKXKXKXKXKXKXKXKXKXKXKXKXKXKXKXKXKXKXGXBXhXyX .( e 5 * ; < h G 6.0.z.x.x.x.z.0.E x.G g g a - @ N qXZXKXKXKXKXKXKXKXKXKXKXKXKXKXKXKXKXKXKXKXKXKXKXKXKXKXKXKXKXKXKXKXKXKXKXKXKXKXKXKXKXKXKXKXKXKXKXKXKXKXKXKXKXKXKXKXKXKXKXKXKXKXKX",
"KXKXKXKXKXKXKXKXKXKXKXKXKXKXKXKXKXKXKXKXKXKXKXKXKXKXKXKXKXKXKXKXKXKXKXKXKXKXKXKXKXJXCXvXsXV.` U 9 * & ; p v P 7.l.i - X 3 } xXKXKXKXKXKXKXKXKXKXKXKXKXKXKXKXKXKXKXKXKXKXKXKXKXKXKXKXKXKXKXKXKXKXKXKXKXKXKXKXKXKXKXKXKXKXKXKXKXKXKXKXKXKXKXKXKXKXKXKXKXKXKXKXKXKX",
"KXKXKXKXKXKXKXKXKXKXKXKXKXKXKXKXKXKXKXKXKXKXKXKXKXKXKXKXKXKXKXKXKXKXKXKXKXKXKXKXKXKXKXKXKXKXKXKXKXHXbXdXeX} ^ q 3 3 ( fXGXKXKXKXKXKXKXKXKXKXKXKXKXKXKXKXKXKXKXKXKXKXKXKXKXKXKXKXKXKXKXKXKXKXKXKXKXKXKXKXKXKXKXKXKXKXKXKXKXKXKXKXKXKXKXKXKXKXKXKXKXKXKXKXKXKXKXKX",
"KXKXKXKXKXKXKXKXKXKXKXKXKXKXKXKXKXKXKXKXKXKXKXKXKXKXKXKXKXKXKXKXKXKXKXKXKXKXKXKXKXKXKXKXKXKXKXKXKXKXKXKXKXKXKXKXPXGXKXKXKXKXKXKXKXKXKXKXKXKXKXKXKXKXKXKXKXKXKXKXKXKXKXKXKXKXKXKXKXKXKXKXKXKXKXKXKXKXKXKXKXKXKXKXKXKXKXKXKXKXKXKXKXKXKXKXKXKXKXKXKXKXKXKXKXKXKXKX",
"KXKXKXKXKXKXKXKXKXKXKXKXKXKXKXKXKXKXKXKXKXKXKXKXKXKXKXKXKXKXKXKXKXKXKXKXKXKXKXKXKXKXKXKXKXKXKXKXKXKXKXKXKXKXKXKXKXKXKXKXKXKXKXKXKXKXKXKXKXKXKXKXKXKXKXKXKXKXKXKXKXKXKXKXKXKXKXKXKXKXKXKXKXKXKXKXKXKXKXKXKXKXKXKXKXKXKXKXKXKXKXKXKXKXKXKXKXKXKXKXKXKXKXKXKXKXKXKX",
"KXKXKXKXKXKXKXKXKXKXKXKXKXKXKXKXKXKXKXKXKXKXKXKXKXKXKXKXKXKXKXKXKXKXKXKXKXKXKXKXKXKXKXKXKXKXKXKXKXKXKXKXKXKXKXKXKXKXKXKXKXKXKXKXKXKXKXKXKXKXKXKXKXKXKXKXKXKXKXKXKXKXKXKXKXKXKXKXKXKXKXKXKXKXKXKXKXKXKXKXKXKXKXKXKXKXKXKXKXKXKXKXKXKXKXKXKXKXKXKXKXKXKXKXKXKXKXKX",
"KXKXKXKXKXKXKXKXKXKXKXKXKXKXKXKXKXKXKXKXKXKXKXKXKXKXKXKXKXKXKXKXKXKXKXKXKXKXKXKXKXKXKXKXKXKXKXKXKXKXKXKXKXKXKXKXKXKXKXKXKXKXKXKXKXKXKXKXKXKXKXKXKXKXKXKXKXKXKXKXKXKXKXKXKXKXKXKXKXKXKXKXKXKXKXKXKXKXKXKXKXKXKXKXKXKXKXKXKXKXKXKXKXKXKXKXKXKXKXKXKXKXKXKXKXKXKXKX",
"KXKXKXKXKXKXKXKXKXKXKXKXKXKXKXKXKXKXKXKXKXKXKXKXKXKXKXKXKXKXKXKXKXKXKXKXKXKXKXKXKXKXKXKXKXKXKXKXKXKXKXKXKXKXKXKXKXKXKXKXKXKXKXKXKXKXKXKXKXKXKXKXKXKXKXKXKXKXKXKXKXKXKXKXKXKXKXKXKXKXKXKXKXKXKXKXKXKXKXKXKXKXKXKXKXKXKXKXKXKXKXKXKXKXKXKXKXKXKXKXKXKXKXKXKXKXKXKX",
"KXKXKXKXKXKXKXKXKXKXKXKXKXKXKXKXKXKXKXKXKXKXKXKXKXKXKXKXKXKXKXKXKXKXKXKXKXKXKXKXKXKXKXKXKXKXKXKXKXKXKXKXKXKXKXKXKXKXKXKXKXKXKXKXKXKXKXKXKXKXKXKXKXKXKXKXKXKXKXKXKXKXKXKXKXKXKXKXKXKXKXKXKXKXKXKXKXKXKXKXKXKXKXKXKXKXKXKXKXKXKXKXKXKXKXKXKXKXKXKXKXKXKXKXKXKXKXKX",
"KXKXKXKXKXKXKXKXKXKXKXKXKXKXKXKXKXKXKXKXKXKXKXKXKXKXKXKXKXKXKXKXKXKXKXKXKXKXKXKXKXKXKXKXKXKXKXKXKXKXKXKXKXKXKXKXKXKXKXKXKXKXKXKXKXKXKXKXKXKXKXKXKXKXKXKXKXKXKXKXKXKXKXKXKXKXKXKXKXKXKXKXKXKXKXKXKXKXKXKXKXKXKXKXKXKXKXKXKXKXKXKXKXKXKXKXKXKXKXKXKXKXKXKXKXKXKXKX",
"KXKXKXKXKXKXKXKXKXKXKXKXKXKXKXKXKXKXKXKXKXKXKXKXKXKXKXKXKXKXKXKXKXKXKXKXKXKXKXKXKXKXKXKXKXKXKXKXKXKXKXKXKXKXKXKXKXKXKXKXKXKXKXKXKXKXKXKXKXKXKXKXKXKXKXKXKXKXKXKXKXKXKXKXKXKXKXKXKXKXKXKXKXKXKXKXKXKXKXKXKXKXKXKXKXKXKXKXKXKXKXKXKXKXKXKXKXKXKXKXKXKXKXKXKXKXKXKX"
};
